%
(Header)
(Generated by gcodetools from Inkscape.)
(Using default header. To add your own header create file "header" in the output dir.)
M3
(Header end.)
G21 (All units in mm)

(Start cutting path id: path21)
(Change tool to Cylindrical cutter)

G00 Z5.000000
G00 X85.539959 Y65.528040

G01 Z-0.300000 F100.0(Penetrate)
G02 X83.860743 Y65.852345 Z-0.300000 I0.579742 J7.511401 F400.000000
G02 X83.452952 Y66.184110 Z-0.300000 I0.213324 J0.678710
G03 X83.062478 Y66.528628 Z-0.300000 I-0.684603 J-0.382385
G03 X82.174264 Y66.701520 Z-0.300000 I-0.888214 J-2.195107
G02 X81.234974 Y66.823043 Z-0.300000 I-0.000000 J3.690804
G02 X80.832027 Y67.054740 Z-0.300000 I0.226231 J0.859673
G03 X80.442770 Y67.356502 Z-0.300000 I-1.377429 J-1.374869
G03 X79.054295 Y68.102490 Z-0.300000 I-10.118963 J-17.168834
G01 X77.629109 Y68.797020 Z-0.300000
G01 X80.962010 Y69.058250 Z-0.300000
G03 X83.575456 Y69.379454 Z-0.300000 I-2.334905 J29.790370
G03 X84.345748 Y69.593810 Z-0.300000 I-0.631376 J3.760066
G03 X84.347643 Y69.761142 Z-0.300000 I-0.033227 J0.084053
G03 X83.310912 Y69.986810 Z-0.300000 I-1.122025 J-2.660409
G03 X81.940171 Y70.024599 Z-0.300000 I-10.080998 J-340.796117
G03 X78.510625 Y70.109520 Z-0.300000 I-55.220764 J-2160.796310
G02 X75.125128 Y70.372847 Z-0.300000 I0.759159 J31.654931
G02 X74.039117 Y70.699940 Z-0.300000 I0.462275 J3.501266
G02 X73.268056 Y71.513290 Z-0.300000 I0.700642 J1.436374
G02 X73.553263 Y71.847610 Z-0.300000 I0.226267 J0.095787
G03 X73.667884 Y72.062550 Z-0.300000 I0.030134 J0.121962
G03 X72.683773 Y72.637710 Z-0.300000 I-1.850015 J-2.035916
G02 X71.830911 Y73.463681 Z-0.300000 I0.430353 J1.297664
G02 X72.124283 Y74.159770 Z-0.300000 I0.519447 J0.190942
G01 X72.944087 Y74.526670 Z-0.300000
G01 X72.134432 Y74.784500 Z-0.300000
G02 X71.521498 Y75.186127 Z-0.300000 I0.414098 J1.300486
G02 X71.324777 Y75.709600 Z-0.300000 I0.598117 J0.523473
G03 X70.924649 Y77.117325 Z-0.300000 I-2.676380 J-0.000000
G03 X70.206734 Y77.517450 Z-0.300000 I-0.717915 J-0.443987
G02 X69.651884 Y77.643778 Z-0.300000 I0.000000 J1.281649
G02 X69.525543 Y77.844610 Z-0.300000 I0.096451 J0.200832
G03 X69.300872 Y78.111842 Z-0.300000 I-0.271264 J0.000000
G03 X67.433104 Y78.305254 Z-0.300000 I-2.324441 J-13.331861
G03 X65.508763 Y78.250528 Z-0.300000 I-0.522695 J-15.480660
G03 X65.027458 Y77.996480 Z-0.300000 I0.063983 J-0.704169
G02 X64.598215 Y77.838704 Z-0.300000 I-0.349740 J0.288715
G02 X62.539311 Y78.439530 Z-0.300000 I1.748572 J9.820122
G02 X60.366938 Y79.604225 Z-0.300000 I4.689890 J11.355804
G02 X60.041248 Y80.121620 Z-0.300000 I0.422159 J0.626946
G03 X59.852040 Y80.571005 Z-0.300000 I-0.963471 J-0.141133
G03 X58.642290 Y81.955870 Z-0.300000 I-11.011686 J-8.398447
G02 X56.889191 Y84.307545 Z-0.300000 I7.240731 J7.227013
G02 X57.139559 Y84.728050 Z-0.300000 I0.250368 J0.135718
G03 X57.348673 Y84.936146 Z-0.300000 I0.000000 J0.209117
G03 X57.143959 Y85.629390 Z-0.300000 I-1.255409 J0.006126
G02 X57.043807 Y86.325979 Z-0.300000 I0.696748 J0.455669
G02 X57.424900 Y86.558660 Z-0.300000 I0.320794 J-0.096983
G03 X57.557484 Y86.651879 Z-0.300000 I0.020455 J0.111803
G03 X57.513100 Y87.090840 Z-0.300000 I-0.830902 J0.137711
G02 X57.668425 Y87.377875 Z-0.300000 I0.200772 J0.076898
G02 X59.090447 Y87.431980 Z-0.300000 I0.864048 J-3.995148
G01 X60.893619 Y87.183510 Z-0.300000
G01 X61.122765 Y88.331420 Z-0.300000
G02 X61.594271 Y89.085736 Z-0.300000 I1.232844 J-0.246102
G02 X62.290084 Y89.219780 Z-0.300000 I0.483112 J-0.634822
G03 X63.243013 Y89.057996 Z-0.300000 I1.269041 J4.587483
G03 X68.594098 Y88.800200 Z-0.300000 I9.709523 J145.875849
G03 X77.150724 Y89.344892 Z-0.300000 I1.370602 J45.949900
G03 X80.304557 Y90.653550 Z-0.300000 I-1.139716 J7.201344
G02 X81.976251 Y91.786194 Z-0.300000 I17.396206 J-23.875476
G02 X83.199740 Y92.473970 Z-0.300000 I7.596870 J-12.081993
G03 X84.407039 Y93.178314 Z-0.300000 I-4.791013 J9.599030
G03 X85.358823 Y93.929980 Z-0.300000 I-4.516530 J6.697403
G02 X86.319202 Y94.674396 Z-0.300000 I4.888789 J-5.315371
G02 X89.497054 Y96.612680 Z-0.300000 I36.861378 J-56.860694
G03 X92.663243 Y98.566156 Z-0.300000 I-28.382976 J49.545665
G03 X93.815220 Y99.475230 Z-0.300000 I-4.908328 J7.404256
G02 X94.926593 Y100.444289 Z-0.300000 I14.937831 J-16.009734
G02 X96.693990 Y101.819530 Z-0.300000 I31.897182 J-39.169514
G03 X98.311114 Y103.311272 Z-0.300000 I-6.200771 J8.344343
G03 X99.392836 Y104.898530 Z-0.300000 I-5.959408 J5.223586
G02 X100.353091 Y106.603437 Z-0.300000 I23.997859 J-12.393433
G02 X101.451180 Y108.261990 Z-0.300000 I23.805201 J-14.568087
G03 X102.871629 Y111.741550 Z-0.300000 I-6.624735 J4.734105
G03 X102.277990 Y113.564120 Z-0.300000 I-2.092719 J0.326333
G03 X101.420810 Y114.120330 Z-0.300000 I-1.728548 J-1.725272
G03 X100.722260 Y114.158290 Z-0.300000 I-0.408416 J-1.069345
G02 X100.008674 Y114.160539 Z-0.300000 I-0.352554 J1.345719
G02 X99.324228 Y114.534050 Z-0.300000 I0.430907 J1.603491
G03 X98.619073 Y114.883931 Z-0.300000 I-0.970431 J-1.070290
G03 X97.266129 Y114.918490 Z-0.300000 I-0.784144 J-4.197948
G03 X93.630068 Y113.900102 Z-0.300000 I1.808309 J-13.456709
G03 X90.937510 Y112.148390 Z-0.300000 I3.939992 J-9.001386
G02 X88.733562 Y110.870704 Z-0.300000 I-4.019174 J4.393190
G02 X85.243467 Y110.325740 Z-0.300000 I-3.490095 J10.903267
G02 X84.450493 Y110.479974 Z-0.300000 I-0.000000 J2.115609
G02 X84.198724 Y110.748140 Z-0.300000 I0.164389 J0.406607
G03 X83.927478 Y110.931983 Z-0.300000 I-0.255549 J-0.085020
G03 X81.838592 Y110.610370 Z-0.300000 I0.653053 J-11.186090
G02 X79.714429 Y110.342363 Z-0.300000 I-2.157655 J8.549276
G02 X79.163145 Y110.600170 Z-0.300000 I-0.002707 J0.712538
G02 X79.158449 Y111.124178 Z-0.300000 I0.319775 J0.264890
G02 X82.482868 Y114.757170 Z-0.300000 I28.653453 J-22.882207
G02 X89.381270 Y120.604198 Z-0.300000 I52.581647 J-55.043604
G02 X90.992235 Y121.141330 Z-0.300000 I1.610965 J-2.147235
G03 X91.155875 Y121.488802 Z-0.300000 I0.000000 J0.212269
G03 X90.276465 Y122.007650 Z-0.300000 I-1.156542 J-0.955563
G03 X87.076938 Y121.666542 Z-0.300000 I-1.032371 J-5.492597
G03 X82.423981 Y118.704230 Z-0.300000 I6.368651 J-15.138750
G02 X80.911765 Y117.515238 Z-0.300000 I-9.315109 J10.291245
G02 X80.349816 Y117.294460 Z-0.300000 I-0.768652 J1.130902
G03 X78.701082 Y116.702179 Z-0.300000 I0.689722 J-4.510914
G03 X73.492053 Y113.202060 Z-0.300000 I30.007612 J-50.284837
G02 X71.603649 Y111.983335 Z-0.300000 I-9.376462 J12.456351
G02 X71.407259 Y112.060480 Z-0.300000 I-0.066000 J0.120532
G02 X71.410657 Y112.395500 Z-0.300000 I0.488372 J0.162574
G02 X72.244047 Y114.414030 Z-0.300000 I20.618819 J-7.331584
G02 X74.082295 Y117.009821 Z-0.300000 I8.272096 J-3.909221
G02 X77.659967 Y119.770690 Z-0.300000 I12.986796 J-13.130441
G01 X79.061509 Y120.600530 Z-0.300000
G01 X78.060219 Y120.715740 Z-0.300000
G03 X75.270979 Y120.378825 Z-0.300000 I-0.690313 J-5.999257
G03 X72.191586 Y118.540360 Z-0.300000 I3.420375 J-9.227255
G01 X70.964961 Y117.461320 Z-0.300000
G01 X70.964961 Y118.347350 Z-0.300000
G02 X71.434947 Y119.689882 Z-0.300000 I2.152489 J-0.000000
G02 X73.639754 Y121.699490 Z-0.300000 I7.400796 J-5.905370
G02 X74.712282 Y122.108781 Z-0.300000 I1.467352 J-2.235224
G02 X77.481471 Y122.273050 Z-0.300000 I2.305495 J-15.442117
G03 X80.026622 Y122.391801 Z-0.300000 I0.496042 J16.702510
G03 X80.303730 Y122.547311 Z-0.300000 I-0.051440 J0.416310
G03 X80.251089 Y122.701076 Z-0.300000 I-0.075600 J0.060011
G03 X78.071930 Y123.016910 Z-0.300000 I-2.725339 J-11.128314
G01 X75.822890 Y123.124250 Z-0.300000
G01 X76.902426 Y123.775160 Z-0.300000
G01 X77.981962 Y124.426080 Z-0.300000
G01 X76.739801 Y124.220280 Z-0.300000
G03 X75.572985 Y123.862267 Z-0.300000 I0.749257 J-4.522351
G03 X74.737457 Y123.298960 Z-0.300000 I1.306020 J-2.838466
G02 X73.936001 Y122.687514 Z-0.300000 I-3.346510 J3.555474
G02 X73.565975 Y122.583450 Z-0.300000 I-0.370026 J0.605830
G03 X73.224814 Y122.437972 Z-0.300000 I-0.000000 J-0.472767
G03 X71.144885 Y120.059740 Z-0.300000 I24.757174 J-23.750507
G02 X69.099607 Y117.609619 Z-0.300000 I-54.131458 J43.108381
G02 X68.937452 Y117.536020 Z-0.300000 I-0.162155 J0.141833
G02 X68.883356 Y117.620988 Z-0.300000 I0.000000 J0.059704
G02 X70.068358 Y119.957570 Z-0.300000 I36.595246 J-17.090570
G03 X71.117481 Y122.269660 Z-0.300000 I-14.694787 J8.061904
G03 X71.000999 Y122.511330 Z-0.300000 I-0.175764 J0.064191
G02 X70.620863 Y123.226618 Z-0.300000 I0.186225 J0.557623
G02 X71.938515 Y125.879080 Z-0.300000 I7.571627 J-2.107810
G02 X73.362375 Y127.448822 Z-0.300000 I9.805665 J-7.463751
G02 X73.827716 Y127.631990 Z-0.300000 I0.466710 J-0.502997
G03 X74.358456 Y127.737951 Z-0.300000 I-0.003294 J1.398676
G03 X76.881801 Y128.893850 Z-0.300000 I-14.021896 J33.942206
G02 X79.400253 Y130.069840 Z-0.300000 I20.532732 J-40.687357
G02 X79.811614 Y130.154590 Z-0.300000 I0.411361 J-0.955960
G03 X80.196403 Y130.277592 Z-0.300000 I0.000000 J0.663374
G03 X81.991322 Y131.706710 Z-0.300000 I-12.413117 J17.432140
G02 X83.806252 Y133.165716 Z-0.300000 I15.798634 J-17.794362
G02 X85.538747 Y134.283190 Z-0.300000 I10.959518 J-15.089539
G03 X87.332955 Y135.315046 Z-0.300000 I-117.569562 J206.507695
G03 X87.441413 Y135.388460 Z-0.300000 I-0.478623 J0.823914
G03 X87.471714 Y135.487415 Z-0.300000 I-0.055789 J0.071200
G03 X87.100017 Y136.447520 Z-0.300000 I-8.525365 J-2.748527
G03 X85.367749 Y138.307625 Z-0.300000 I-3.644539 J-1.657405
G03 X82.042201 Y139.197150 Z-0.300000 I-3.507486 J-6.451813
G01 X80.860743 Y139.226350 Z-0.300000
G01 X81.940279 Y139.721600 Z-0.300000
G02 X83.053509 Y140.065691 Z-0.300000 I1.869079 J-4.074138
G02 X84.930254 Y140.233110 Z-0.300000 I1.976468 J-11.553211
G03 X86.536975 Y140.417201 Z-0.300000 I-0.066516 J7.684230
G03 X86.618284 Y140.609900 Z-0.300000 I-0.027953 J0.125299
G03 X86.311574 Y140.819343 Z-0.300000 I-0.388519 J-0.239654
G03 X84.639125 Y140.970430 Z-0.300000 I-1.672449 J-9.181018
G02 X82.966694 Y141.121516 Z-0.300000 I0.000000 J9.331922
G02 X82.659977 Y141.330970 Z-0.300000 I0.081811 J0.449100
G03 X82.362267 Y141.556546 Z-0.300000 I-0.439981 J-0.271433
G03 X81.400506 Y141.691490 Z-0.300000 I-0.961761 J-3.359815
G02 X81.042181 Y142.090005 Z-0.300000 I0.000000 J0.360352
G02 X81.493636 Y142.565930 Z-0.300000 I0.536866 J-0.057179
G02 X93.770369 Y143.556706 Z-0.300000 I12.450119 J-77.713720
G02 X96.089119 Y142.597930 Z-0.300000 I0.007195 J-3.265877
G02 X96.076143 Y142.460286 Z-0.300000 I-0.063585 J-0.063439
G02 X95.139546 Y141.950290 Z-0.300000 I-3.011566 J4.415657
G03 X95.156667 Y141.710974 Z-0.300000 I0.049184 J-0.116752
G03 X96.883351 Y141.494090 Z-0.300000 I1.686898 J6.448168
G03 X99.636763 Y141.624920 Z-0.300000 I-0.188342 J33.002906
G03 X99.751696 Y141.750090 Z-0.300000 I-0.011247 J0.125679
G03 X99.198226 Y142.528505 Z-0.300000 I-0.818684 J0.003870
G03 X92.514204 Y144.228550 Z-0.300000 I-13.834475 J-40.402928
G03 X84.523359 Y144.568548 Z-0.300000 I-5.340629 J-31.445928
G03 X75.822870 Y142.837000 Z-0.300000 I3.260774 J-39.108779
G03 X67.640857 Y139.166098 Z-0.300000 I12.228102 J-38.208847
G03 X60.311608 Y133.670650 Z-0.300000 I21.297483 J-36.039548
G03 X55.760975 Y128.375205 Z-0.300000 I22.169989 J-23.654762
G03 X51.377471 Y120.667670 Z-0.300000 I43.093249 J-29.608691
G02 X49.336717 Y116.562707 Z-0.300000 I-71.419051 J32.945731
G02 X49.209561 Y116.608200 Z-0.300000 I-0.060212 J0.032155
G02 X50.538350 Y120.580411 Z-0.300000 I16.322989 J-3.252027
G02 X54.693967 Y127.991310 Z-0.300000 I61.698215 J-29.726335
G02 X59.247103 Y133.710683 Z-0.300000 I31.002115 J-20.008437
G02 X64.825115 Y138.406420 Z-0.300000 I26.310801 J-25.593400
G02 X76.113551 Y143.540759 Z-0.300000 I20.302059 J-29.659782
G02 X93.455351 Y145.823250 Z-0.300000 I17.931539 J-69.218798
G03 X100.968379 Y146.113793 Z-0.300000 I-1.019433 J123.644342
G03 X102.454350 Y146.445710 Z-0.300000 I-0.349924 J5.058847
G03 X108.282481 Y149.057393 Z-0.300000 I-22.756222 J58.590669
G03 X114.056550 Y152.370110 Z-0.300000 I-31.054562 J60.816590
G02 X115.636199 Y153.214743 Z-0.300000 I6.151075 J-9.604396
G02 X115.900853 Y153.230562 Z-0.300000 I0.153813 J-0.351574
G02 X115.935660 Y153.106192 Z-0.300000 I-0.022096 J-0.073239
G02 X114.845490 Y152.132091 Z-0.300000 I-4.972868 J4.468322
G03 X113.922982 Y151.313214 Z-0.300000 I3.376598 J-4.732984
G03 X113.968151 Y151.216362 Z-0.300000 I0.042823 J-0.038988
G03 X114.318094 Y151.300430 Z-0.300000 I-0.037591 J0.926851
G03 X115.992120 Y152.178591 Z-0.300000 I-7.579238 J16.482860
G02 X130.679777 Y160.254616 Z-0.300000 I131.464848 J-221.697659
G02 X132.955000 Y160.799608 Z-0.300000 I2.275223 J-4.476786
G02 X133.057250 Y160.667689 Z-0.300000 I0.000000 J-0.105586
G02 X132.730050 Y159.926339 Z-0.300000 I-2.409244 J0.620456
G03 X132.735773 Y159.479074 Z-0.300000 I0.335449 J-0.219377
G03 X133.138480 Y159.335392 Z-0.300000 I0.301279 J0.208227
G03 X134.414792 Y159.798757 Z-0.300000 I-2.782437 J9.653510
G03 X139.875550 Y162.310764 Z-0.300000 I-79.535664 J180.091063
G02 X140.056108 Y162.057013 Z-0.300000 I0.068235 J-0.142561
G02 X136.763930 Y159.167460 Z-0.300000 I-22.221190 J21.997217
G02 X134.122944 Y157.391153 Z-0.300000 I-16.573678 J21.790047
G02 X133.823650 Y157.429129 Z-0.300000 I-0.125188 J0.211749
G03 X133.610528 Y157.449170 Z-0.300000 I-0.118639 J-0.118421
G03 X132.487160 Y156.517148 Z-0.300000 I4.393215 J-6.438161
G03 X131.559287 Y155.472729 Z-0.300000 I8.517848 J-8.501721
G03 X131.598580 Y155.391645 Z-0.300000 I0.039293 J-0.031021
G03 X131.818860 Y155.445868 Z-0.300000 I0.000000 J0.474555
G03 X134.235150 Y156.773368 Z-0.300000 I-32.537088 J62.086167
G02 X136.667095 Y158.091833 Z-0.300000 I27.304901 J-47.462508
G02 X137.896390 Y158.640202 Z-0.300000 I5.889170 J-11.549872
G03 X139.128834 Y159.177300 Z-0.300000 I-5.579619 J14.485748
G03 X139.865660 Y159.601933 Z-0.300000 I-2.725667 J5.581183
G02 X140.608376 Y159.970439 Z-0.300000 I1.772356 J-2.639430
G02 X141.257980 Y160.078542 Z-0.300000 I0.649604 J-1.897719
G03 X141.901162 Y160.218795 Z-0.300000 I0.000000 J1.544903
G03 X144.013790 Y161.340408 Z-0.300000 I-8.491721 J18.545122
G02 X146.105426 Y162.536858 Z-0.300000 I23.079660 J-37.921377
G02 X146.365670 Y162.602263 Z-0.300000 I0.260244 J-0.485047
G02 X146.530165 Y162.191285 Z-0.300000 I0.000000 J-0.238409
G02 X144.194560 Y160.532729 Z-0.300000 I-6.888264 J7.226370
G03 X137.745847 Y156.748274 Z-0.300000 I29.833085 J-58.222126
G03 X137.691080 Y156.198240 Z-0.300000 I0.198269 J-0.297485
G03 X137.864075 Y156.164525 Z-0.300000 I0.111475 J0.111305
G03 X139.940160 Y157.152214 Z-0.300000 I-10.479549 J24.703389
G02 X142.060507 Y158.202916 Z-0.300000 I20.628255 J-38.963599
G02 X143.474020 Y158.786743 Z-0.300000 I7.730645 J-16.713739
G03 X147.402819 Y160.415502 Z-0.300000 I-17.026332 J46.622731
G03 X153.421910 Y163.419793 Z-0.300000 I-52.427790 J112.570736
G02 X158.411135 Y165.677326 Z-0.300000 I19.803068 J-37.123514
G02 X158.767500 Y165.430634 Z-0.300000 I0.092797 J-0.246692
G03 X158.909267 Y165.330075 Z-0.300000 I0.106548 J0.000000
G03 X159.539550 Y165.701029 Z-0.300000 I-0.623550 J1.780396
G02 X159.856163 Y165.804171 Z-0.300000 I0.276283 J-0.310580
G02 X159.932730 Y165.662699 Z-0.300000 I-0.009412 J-0.096549
G02 X158.877011 Y164.389044 Z-0.300000 I-3.506845 J1.832422
G02 X156.510090 Y162.961768 Z-0.300000 I-6.842052 J8.670280
G03 X154.945294 Y162.075982 Z-0.300000 I3.725721 J-8.406765
G03 X154.442100 Y161.507077 Z-0.300000 I0.943936 J-1.341896
G02 X153.405546 Y160.322939 Z-0.300000 I-3.064974 J1.637223
G02 X145.819200 Y155.307623 Z-0.300000 I-67.740058 J94.220682
G03 X144.699801 Y154.453346 Z-0.300000 I3.419675 J-5.641500
G03 X144.753781 Y154.352302 Z-0.300000 I0.040872 J-0.043106
G03 X145.417138 Y154.573517 Z-0.300000 I-0.777714 J3.437350
G03 X147.798040 Y155.755341 Z-0.300000 I-13.764423 J30.718986
G02 X150.474128 Y157.135024 Z-0.300000 I29.812973 J-54.541268
G02 X153.315830 Y158.432971 Z-0.300000 I29.217226 J-60.207907
G03 X156.126168 Y159.779945 Z-0.300000 I-14.684059 J34.242186
G03 X158.070060 Y160.961362 Z-0.300000 I-9.321348 J17.527195
G02 X160.020405 Y162.103456 Z-0.300000 I8.711509 J-12.640229
G02 X161.518170 Y162.652907 Z-0.300000 I3.369023 J-6.867600
G03 X162.949452 Y163.154469 Z-0.300000 I-2.065501 J8.187188
G03 X163.085660 Y163.366083 Z-0.300000 I-0.096280 J0.211614
G02 X163.200498 Y163.568973 Z-0.300000 I0.236646 J0.000000
G02 X163.614900 Y163.683815 Z-0.300000 I0.414402 J-0.690251
G03 X166.517417 Y164.570203 Z-0.300000 I0.000000 J5.195406
G03 X167.403810 Y166.235998 Z-0.300000 I-1.122065 J1.665795
G02 X167.516613 Y166.389057 Z-0.300000 I0.160243 J0.000000
G02 X168.970550 Y166.721580 Z-0.300000 I2.918722 J-9.417061
G03 X170.421310 Y167.167956 Z-0.300000 I-0.757797 J5.043636
G03 X171.307170 Y167.844109 Z-0.300000 I-1.190505 J2.478118
G02 X172.153609 Y168.563455 Z-0.300000 I2.777109 J-2.410096
G02 X172.745150 Y168.731246 Z-0.300000 I0.591541 J-0.958835
G03 X173.366069 Y168.876490 Z-0.300000 I-0.000000 J1.399840
G03 X174.845490 Y169.770739 Z-0.300000 I-4.563066 J9.219891
G02 X176.339618 Y170.672536 Z-0.300000 I6.052502 J-8.339335
G02 X177.496550 Y171.078440 Z-0.300000 I2.250054 J-4.561505
G03 X178.697738 Y171.395977 Z-0.300000 I-3.191829 J14.504870
G03 X179.266940 Y171.626618 Z-0.300000 I-1.073633 J3.467319
G02 X184.980157 Y174.278708 Z-0.300000 I40.622565 J-80.030600
G02 X186.071890 Y174.499731 Z-0.300000 I1.091733 J-2.585765
G02 X186.350461 Y174.407823 Z-0.300000 I-0.000000 J-0.468123
G02 X186.535660 Y174.156327 Z-0.300000 I-0.315794 J-0.426486
G03 X187.841396 Y173.401383 Z-0.300000 I1.091550 J0.381263
G03 X191.871150 Y175.162126 Z-0.300000 I-1.820824 J9.659012
G02 X192.947072 Y175.871831 Z-0.300000 I7.049061 J-9.516065
G02 X193.208240 Y175.943161 Z-0.300000 I0.263556 J-0.451197
G03 X193.484438 Y175.989500 Z-0.300000 I-0.004039 J0.870362
G03 X196.281500 Y176.988337 Z-0.300000 I-31.510530 J92.655298
G02 X198.989433 Y177.915550 Z-0.300000 I17.755741 J-47.437918
G02 X199.070320 Y177.856005 Z-0.300000 I0.018526 J-0.059545
G02 X198.802415 Y177.310974 Z-0.300000 I-0.688363 J-0.000000
G02 X196.101580 Y175.565817 Z-0.300000 I-11.786960 J15.279196
G03 X194.802150 Y174.815614 Z-0.300000 I10.602220 J-19.864625
G03 X194.752160 Y174.725599 Z-0.300000 I0.056048 J-0.090015
G03 X194.810266 Y174.667721 Z-0.300000 I0.057879 J0.000000
G03 X196.641350 Y174.732799 Z-0.300000 I-0.113921 J28.998179
G01 X198.530540 Y174.860362 Z-0.300000
G01 X197.091160 Y174.148525 Z-0.300000
G02 X195.629363 Y173.529243 Z-0.300000 I-6.013373 J12.159483
G02 X195.066100 Y173.427245 Z-0.300000 I-0.591676 J1.661158
G03 X194.543226 Y173.287029 Z-0.300000 I0.017584 J-1.110593
G03 X193.993620 Y172.830104 Z-0.300000 I0.943252 J-1.693584
G03 X194.056456 Y172.575862 Z-0.300000 I0.125417 J-0.103889
G03 X194.759220 Y172.511441 Z-0.300000 I0.454412 J1.091740
G03 X200.834019 Y174.462075 Z-0.300000 I-6.771069 J31.521517
G03 X203.005340 Y176.093643 Z-0.300000 I-2.327740 J5.358403
G02 X203.538633 Y176.531017 Z-0.300000 I1.390889 J-1.152106
G02 X204.062270 Y176.663906 Z-0.300000 I0.526169 J-0.975210
G03 X204.613055 Y176.781673 Z-0.300000 I-0.003196 J1.361813
G03 X205.883900 Y177.475100 Z-0.300000 I-3.659732 J8.218454
G02 X207.119895 Y178.284889 Z-0.300000 I8686.480066 J-13259.965577
G02 X208.042980 Y178.889526 Z-0.300000 I4928.714389 J-7522.257110
G02 X209.011452 Y179.349600 Z-0.300000 I2.160986 J-3.299578
G02 X210.045640 Y179.524735 Z-0.300000 I1.141212 J-3.597914
G03 X211.113158 Y179.637437 Z-0.300000 I-0.198572 J6.993024
G03 X213.104330 Y180.087599 Z-0.300000 I-4.578103 J24.878818
G02 X215.090827 Y180.561123 Z-0.300000 I9.239138 J-34.355890
G02 X215.623260 Y180.612129 Z-0.300000 I0.497569 J-2.389479
G02 X215.750164 Y180.157950 Z-0.300000 I-0.003509 J-0.245799
G02 X212.530290 Y178.676454 Z-0.300000 I-7.366583 J11.770713
G03 X209.127144 Y177.326476 Z-0.300000 I7.355391 J-23.506598
G03 X207.610600 Y176.287624 Z-0.300000 I2.712344 J-5.585925
G02 X206.936966 Y175.752025 Z-0.300000 I-3.788769 J4.073794
G02 X206.171220 Y175.314856 Z-0.300000 I-3.270130 J4.838736
G02 X194.363377 Y169.907989 Z-0.300000 I-202.122804 J425.811207
G02 X192.952930 Y169.481056 Z-0.300000 I-2.450516 J5.552411
G03 X191.919334 Y169.042816 Z-0.300000 I0.424164 J-2.438396
G03 X191.581900 Y168.481818 Z-0.300000 I0.495701 J-0.680139
G02 X190.846858 Y167.319608 Z-0.300000 I-1.662192 J0.237712
G02 X188.929870 Y166.725418 Z-0.300000 I-1.974834 J2.981840
G03 X187.616719 Y166.512434 Z-0.300000 I0.074678 J-4.615033
G03 X186.928690 Y166.094491 Z-0.300000 I0.508169 J-1.611859
G03 X186.653844 Y165.623971 Z-0.300000 I0.762210 J-0.760765
G03 X186.758420 Y165.486108 Z-0.300000 I0.104576 J-0.029268
G02 X186.959493 Y165.096587 Z-0.300000 I0.000000 J-0.246658
G02 X185.721120 Y164.026163 Z-0.300000 I-2.803681 J1.992028
G03 X184.420064 Y163.245222 Z-0.300000 I5.075748 J-9.930507
G03 X184.408110 Y163.111065 Z-0.300000 I0.050242 J-0.072088
G03 X184.587632 Y163.067354 Z-0.300000 I0.125634 J0.125479
G03 X185.612490 Y163.494521 Z-0.300000 I-1.948710 J6.118348
G02 X186.681772 Y163.933618 Z-0.300000 I2.918530 J-5.585656
G02 X187.395360 Y164.041769 Z-0.300000 I0.720998 J-2.348974
G03 X188.085546 Y164.193516 Z-0.300000 I-0.004090 J1.664055
G03 X189.338250 Y164.933341 Z-0.300000 I-2.949381 J6.424497
G02 X190.549478 Y165.626177 Z-0.300000 I3.554224 J-4.808393
G02 X190.902060 Y165.599363 Z-0.300000 I0.150447 J-0.353241
G02 X190.953263 Y164.938994 Z-0.300000 I-0.216052 J-0.348922
G02 X189.509670 Y164.404519 Z-0.300000 I-1.443593 J1.682304
G03 X189.134868 Y164.293705 Z-0.300000 I-0.000000 J-0.689243
G03 X188.588860 Y163.807879 Z-0.300000 I1.310721 J-2.022826
G02 X188.024902 Y163.305770 Z-0.300000 I-1.921626 J1.590561
G02 X186.893920 Y162.708222 Z-0.300000 I-3.896808 J6.006429
G03 X185.973716 Y162.085053 Z-0.300000 I1.087620 J-2.597031
G03 X185.890930 Y161.687983 Z-0.300000 I0.267450 J-0.262927
G02 X185.575712 Y160.927388 Z-0.300000 I-0.558796 J-0.214031
G02 X183.500230 Y160.622562 Z-0.300000 I-1.581242 J3.548155
G03 X182.301208 Y160.549702 Z-0.300000 I-0.408298 J-3.183125
G03 X181.330440 Y160.070899 Z-0.300000 I0.641944 J-2.525049
G02 X180.400478 Y159.426944 Z-0.300000 I-5.669158 J7.193594
G02 X180.149950 Y159.357089 Z-0.300000 I-0.250528 J0.414316
G03 X179.901673 Y159.287888 Z-0.300000 I-0.000000 J-0.479981
G03 X179.307090 Y158.847665 Z-0.300000 I2.045680 J-3.384622
G02 X178.692745 Y158.406461 Z-0.300000 I-2.338461 J2.607823
G02 X176.040130 Y157.000319 Z-0.300000 I-27.164060 J48.038524
G03 X173.393484 Y155.584372 Z-0.300000 I21.493183 J-43.355911
G03 X172.621590 Y155.032687 Z-0.300000 I2.412169 J-4.190845
G02 X171.868653 Y154.451323 Z-0.300000 I-5.110594 J5.840586
G02 X170.960670 Y153.905651 Z-0.300000 I-5.404648 J7.964918
G03 X166.452945 Y151.369514 Z-0.300000 I45.784461 J-86.651286
G03 X166.431580 Y151.197730 Z-0.300000 I0.056338 J-0.094227
G03 X166.633047 Y151.156084 Z-0.300000 I0.132297 J0.131868
G03 X169.205690 Y152.303560 Z-0.300000 I-12.973312 J32.543853
G02 X171.811970 Y153.541375 Z-0.300000 I39.119366 J-79.004993
G02 X172.029790 Y153.588603 Z-0.300000 I0.217820 J-0.478691
G02 X172.309170 Y152.871482 Z-0.300000 I0.000000 J-0.412982
G02 X165.911920 Y147.968750 Z-0.300000 I-30.641988 J33.357660
G03 X157.866599 Y142.659200 Z-0.300000 I139.195352 J-219.666525
G03 X157.687960 Y142.319770 Z-0.300000 I0.233152 J-0.339430
G03 X158.047599 Y142.105513 Z-0.300000 I0.243642 J0.000000
G03 X160.939740 Y144.080250 Z-0.300000 I-8.117966 J14.994575
G02 X162.060853 Y144.785517 Z-0.300000 I3.055239 J-3.612983
G02 X164.882070 Y145.846010 Z-0.300000 I10.015419 J-22.361041
G02 X165.279259 Y145.788029 Z-0.300000 I0.137485 J-0.447613
G02 X165.312850 Y145.558880 Z-0.300000 I-0.086456 J-0.129710
G02 X164.789812 Y145.059305 Z-0.300000 I-2.395438 J1.984353
G02 X162.256970 Y143.255350 Z-0.300000 I-34.605017 J45.907056
G03 X159.685930 Y141.487984 Z-0.300000 I83.741138 J-124.574475
G03 X158.110200 Y140.340880 Z-0.300000 I33.678479 J-47.918576
G02 X156.526510 Y139.247365 Z-0.300000 I-13.929474 J18.479904
G02 X156.249700 Y139.167360 Z-0.300000 I-0.276810 J0.438864
G03 X155.676553 Y138.988656 Z-0.300000 I-0.000000 J-1.008461
G03 X145.728050 Y131.899620 Z-0.300000 I237.284620 J-343.522085
G02 X141.135155 Y128.545417 Z-0.300000 I-567.641803 J772.447616
G02 X139.348860 Y127.269840 Z-0.300000 I-83.846057 J115.528016
G03 X137.644280 Y125.958558 Z-0.300000 I14.279416 J-20.325859
G03 X137.544630 Y125.753190 Z-0.300000 I0.180103 J-0.214251
G03 X137.644003 Y125.694213 Z-0.300000 I0.066068 J-0.001886
G03 X139.965520 Y127.165040 Z-0.300000 I-18.904662 J32.406191
G02 X156.401120 Y138.399220 Z-0.300000 I3151.033858 J-4592.321603
G02 X157.328110 Y138.987370 Z-0.300000 I9.532648 J-13.999905
G02 X157.439983 Y138.936720 Z-0.300000 I0.038134 J-0.064647
G02 X157.381710 Y138.705000 Z-0.300000 I-0.279148 J-0.052987
G02 X156.832611 Y138.170725 Z-0.300000 I-2.514777 J2.035246
G02 X151.847110 Y134.471040 Z-0.300000 I-129.080983 J168.733814
G03 X146.800131 Y130.835971 Z-0.300000 I4797.407234 J-6666.107309
G03 X145.957380 Y130.225580 Z-0.300000 I133.742938 J-185.542322
G03 X145.231882 Y129.552192 Z-0.300000 I2.451455 J-3.368676
G03 X145.104690 Y129.220500 Z-0.300000 I0.409170 J-0.347135
G02 X144.960166 Y128.916161 Z-0.300000 I-0.417096 J0.011584
G02 X144.151340 Y128.397670 Z-0.300000 I-2.220193 J2.573304
G03 X138.551332 Y124.725851 Z-0.300000 I9.176031 J-20.100940
G03 X137.536610 Y122.448480 Z-0.300000 I2.048224 J-2.277371
G03 X137.738588 Y122.333802 Z-0.300000 I0.133544 J0.000000
G03 X147.432390 Y128.353720 Z-0.300000 I-165.178323 J276.799567
G02 X153.638751 Y132.253560 Z-0.300000 I160.220909 J-248.093502
G02 X153.729710 Y132.202550 Z-0.300000 I0.031176 J-0.051010
G02 X153.258049 Y131.233002 Z-0.300000 I-1.232332 J0.000000
G02 X143.487840 Y124.167120 Z-0.300000 I-95.137726 J121.262082
G03 X141.551364 Y122.811145 Z-0.300000 I27.416147 J-41.213896
G03 X141.494920 Y122.699480 Z-0.300000 I0.082233 J-0.111665
G03 X141.752243 Y122.548001 Z-0.300000 I0.173248 J0.000000
G03 X143.746170 Y123.949010 Z-0.300000 I-5.599494 J10.088632
G02 X144.373491 Y124.365909 Z-0.300000 I1.886655 J-2.158484
G02 X144.541320 Y124.337830 Z-0.300000 I0.064273 J-0.131440
G02 X144.540224 Y123.889761 Z-0.300000 I-0.223902 J-0.223489
G02 X140.235460 Y120.066000 Z-0.300000 I-36.790703 J37.083711
G03 X137.527904 Y117.726147 Z-0.300000 I26.806047 J-33.755021
G03 X137.454620 Y117.453460 Z-0.300000 I0.183730 J-0.195568
G02 X137.481559 Y117.122816 Z-0.300000 I-0.760765 J-0.228403
G02 X137.005970 Y113.996370 Z-0.300000 I-71.651492 J9.300102
G03 X136.541264 Y110.858578 Z-0.300000 I60.499229 J-10.563218
G03 X136.458220 Y109.499350 Z-0.300000 I11.237393 J-1.368718
G02 X136.293231 Y108.172266 Z-0.300000 I-5.462348 J0.005306
G02 X135.777950 Y106.795370 Z-0.300000 I-6.395896 J1.608694
G03 X135.124747 Y105.445783 Z-0.300000 I35.135276 J-17.838424
G03 X134.518400 Y104.061550 Z-0.300000 I36.352497 J-16.748697
G03 X134.324957 Y103.189950 Z-0.300000 I2.359957 J-0.981036
G03 X134.477800 Y103.114230 Z-0.300000 I0.093199 J-0.003994
G02 X134.855633 Y102.903202 Z-0.300000 I0.148261 J-0.178306
G02 X134.297950 Y101.852440 Z-0.300000 I-1.734591 J0.247246
G03 X133.700840 Y101.145569 Z-0.300000 I2.346100 J-2.587436
G03 X133.578260 Y100.726060 Z-0.300000 I0.656560 J-0.419509
G02 X133.176847 Y99.149543 Z-0.300000 I-3.296524 J0.000000
G02 X130.996210 Y95.984410 Z-0.300000 I-16.160451 J8.800087
G03 X130.182444 Y94.712998 Z-0.300000 I4.151861 J-3.553526
G03 X129.753510 Y93.280420 Z-0.300000 I4.873020 J-2.239554
G02 X129.224177 Y91.910351 Z-0.300000 I-3.362324 J0.511761
G02 X127.305040 Y89.594390 Z-0.300000 I-11.880294 J7.891555
G03 X125.171144 Y87.358941 Z-0.300000 I30.449133 J-31.202075
G03 X123.619120 Y85.448290 Z-0.300000 I20.671547 J-18.377205
G02 X117.873651 Y78.740738 Z-0.300000 I-50.288926 J37.261378
G02 X114.609030 Y76.320430 Z-0.300000 I-9.431789 J9.310137
G03 X114.012523 Y75.919201 Z-0.300000 I1.549883 J-2.948241
G03 X112.320070 Y74.391530 Z-0.300000 I21.594835 J-25.625493
G02 X110.607298 Y72.890650 Z-0.300000 I-16.242148 J16.807470
G02 X109.538520 Y72.184110 Z-0.300000 I-4.598726 J5.794818
G03 X108.415381 Y71.547507 Z-0.300000 I16.896624 J-31.119221
G03 X106.686990 Y70.498410 Z-0.300000 I44.162587 J-74.706379
G02 X104.891559 Y69.710120 Z-0.300000 I-3.626035 J5.819946
G02 X102.901350 Y69.449710 Z-0.300000 I-1.918148 J6.924260
G03 X100.989097 Y69.311978 Z-0.300000 I-0.116443 J-11.726933
G03 X100.832220 Y69.128920 Z-0.300000 I0.028366 J-0.183058
G02 X100.255907 Y68.196754 Z-0.300000 I-1.042029 J0.000000
G02 X95.083943 Y66.257050 Z-0.300000 I-11.830880 J23.680442
G02 X90.699044 Y65.525542 Z-0.300000 I-6.292090 J24.208826
G02 X85.539992 Y65.527210 Z-0.300000 I-2.568664 J33.590425
G01 X85.539959 Y65.528040 Z-0.300000
G00 Z5.000000

(Change tool to Cylindrical cutter)

G00 Z5.000000
G00 X110.963440 Y78.291330

G01 Z-0.300000 F100.0(Penetrate)
G02 X112.340860 Y78.807979 Z-0.300000 I1.693621 J-2.420835 F400.000000
G02 X112.707130 Y78.479020 Z-0.300000 I0.035410 J-0.328959
G03 X113.245175 Y77.952872 Z-0.300000 I0.526279 J0.000000
G03 X114.572150 Y78.520720 Z-0.300000 I-0.043282 J1.935538
G03 X114.661360 Y78.866719 Z-0.300000 I-0.249251 J0.248766
G03 X114.386610 Y79.166570 Z-0.300000 I-0.438468 J-0.125963
G02 X114.134637 Y79.824795 Z-0.300000 I0.170110 J0.442460
G02 X115.439990 Y81.227200 Z-0.300000 I3.118926 J-1.594373
G03 X116.810205 Y82.324843 Z-0.300000 I-3.474476 J5.741332
G03 X116.895090 Y82.745280 Z-0.300000 I-0.289166 J0.277169
G02 X116.855860 Y83.209183 Z-0.300000 I0.782791 J0.299806
G02 X117.041000 Y83.475910 Z-0.300000 I0.399640 J-0.079778
G03 X117.280235 Y83.747415 Z-0.300000 I-0.328641 J0.530733
G03 X117.385130 Y84.229800 Z-0.300000 I-1.056735 J0.482385
G03 X117.250389 Y84.528670 Z-0.300000 I-0.398833 J0.000000
G03 X117.025280 Y84.547770 Z-0.300000 I-0.125406 J-0.141921
G02 X116.827129 Y84.703120 Z-0.300000 I-0.070593 J0.114006
G02 X117.755630 Y86.801090 Z-0.300000 I10.590777 J-3.432726
G02 X118.971191 Y88.466020 Z-0.300000 I8.093428 J-4.632787
G02 X119.488760 Y88.693870 Z-0.300000 I0.517569 J-0.473912
G03 X120.522974 Y89.110951 Z-0.300000 I-0.000000 J1.490782
G03 X122.047320 Y91.158330 Z-0.300000 I-5.418638 J5.625523
G03 X121.860543 Y91.696795 Z-0.300000 I-0.349822 J0.180284
G03 X121.038720 Y91.617450 Z-0.300000 I-0.342169 J-0.751683
G02 X119.955564 Y90.911161 Z-0.300000 I-8.973665 J12.578194
G02 X119.758540 Y90.857060 Z-0.300000 I-0.197024 J0.331711
G02 X119.493801 Y91.208547 Z-0.300000 I0.000000 J0.275444
G02 X120.813300 Y94.529060 Z-0.300000 I17.454783 J-5.013720
G03 X121.968234 Y96.916550 Z-0.300000 I-44.948483 J23.216642
G01 X121.923350 Y96.986080 Z-0.300000
G03 X120.919282 Y96.448244 Z-0.300000 I-0.000000 J-1.206148
G03 X116.826110 Y89.328020 Z-0.300000 I52.200776 J-34.745057
G02 X114.216011 Y84.992809 Z-0.300000 I-26.524118 J13.016028
G02 X110.422780 Y80.502770 Z-0.300000 I-32.264446 J23.410039
G01 X107.165530 Y77.178830 Z-0.300000
G01 X108.586900 Y77.400940 Z-0.300000
G03 X109.953275 Y77.759661 Z-0.300000 I-1.074055 J6.872736
G03 X110.963440 Y78.291310 Z-0.300000 I-1.593331 J4.252933
G01 X110.963440 Y78.291330 Z-0.300000
G00 Z5.000000

(Change tool to Cylindrical cutter)

G00 Z5.000000
G00 X76.460748 Y84.052900

G01 Z-0.300000 F100.0(Penetrate)
G03 X75.204026 Y84.405225 Z-0.300000 I-0.941092 J-0.939329 F400.000000
G03 X74.563396 Y83.589200 Z-0.300000 I0.199405 J-0.816025
G03 X74.639554 Y83.284274 Z-0.300000 I0.648522 J-0.000000
G03 X75.013202 Y82.744900 Z-0.300000 I2.494486 J1.328932
G03 X75.459040 Y82.601802 Z-0.300000 I0.342813 J0.301993
G03 X76.107101 Y82.998100 Z-0.300000 I-0.271158 J1.171452
G03 X76.531198 Y83.752669 Z-0.300000 I-1.765175 J1.488559
G03 X76.460748 Y84.052900 Z-0.300000 I-0.277901 J0.093171
G01 X76.460748 Y84.052900 Z-0.300000
G00 Z5.000000

(Change tool to Cylindrical cutter)

G00 Z5.000000
G00 X85.178866 Y90.689550

G01 Z-0.300000 F100.0(Penetrate)
G03 X87.544406 Y91.901591 Z-0.300000 I-3.611811 J9.963605 F400.000000
G03 X87.877712 Y92.532870 Z-0.300000 I-0.431166 J0.631279
G03 X87.683405 Y92.719256 Z-0.300000 I-0.186548 J0.000000
G03 X86.816047 Y92.488670 Z-0.300000 I0.086205 J-2.070855
G02 X85.729818 Y92.039387 Z-0.300000 I-3.153454 J6.086363
G02 X85.077036 Y91.938610 Z-0.300000 I-0.652782 J2.063806
G03 X84.499297 Y91.733370 Z-0.300000 I0.000000 J-0.915772
G03 X83.192598 Y90.406350 Z-0.300000 I5.330520 J-6.555746
G03 X82.609157 Y89.515527 Z-0.300000 I4.790371 J-3.773907
G01 X82.682559 Y89.455690 Z-0.300000
G02 X83.433027 Y89.944355 Z-0.300000 I2.433800 J-2.917113
G02 X85.178866 Y90.689490 Z-0.300000 I7.561606 J-15.298915
G01 X85.178866 Y90.689550 Z-0.300000
G00 Z5.000000

(Change tool to Cylindrical cutter)

G00 Z5.000000
G00 X91.162590 Y91.668280

G01 Z-0.300000 F100.0(Penetrate)
G03 X91.162938 Y91.951225 Z-0.300000 I-0.266624 J0.141801 F400.000000
G03 X90.995324 Y91.984660 Z-0.300000 I-0.097415 J-0.051502
G03 X90.486785 Y91.447410 Z-0.300000 I1.933605 J-2.339581
G03 X90.396644 Y91.173470 Z-0.300000 I0.371187 J-0.273940
G03 X90.604220 Y91.060444 Z-0.300000 I0.134559 J0.000000
G03 X91.162590 Y91.668280 Z-0.300000 I-0.890441 J1.378360
G01 X91.162590 Y91.668280 Z-0.300000
G00 Z5.000000

(Change tool to Cylindrical cutter)

G00 Z5.000000
G00 X95.074648 Y94.978730

G01 Z-0.300000 F100.0(Penetrate)
G01 X95.025353 Y95.024538 Z-0.300000 F400.000000
G03 X94.085069 Y94.906030 Z-0.300000 I0.666939 J-9.081262
G03 X92.303242 Y94.112049 Z-0.300000 I0.718418 J-4.008601
G03 X91.836029 Y93.156770 Z-0.300000 I0.742990 J-0.955279
G03 X92.019946 Y93.030411 Z-0.300000 I0.135366 J0.000000
G03 X93.455338 Y93.778990 Z-0.300000 I-2.555066 J6.649773
G03 X95.033022 Y94.896008 Z-0.300000 I-25.144814 J37.187402
G03 X95.074648 Y94.978650 Z-0.300000 I-0.061225 J0.082642
G01 X95.074648 Y94.978730 Z-0.300000
G00 Z5.000000

(Change tool to Cylindrical cutter)

G00 Z5.000000
G00 X96.514033 Y95.904510

G01 Z-0.300000 F100.0(Penetrate)
G03 X96.607621 Y96.124361 Z-0.300000 I-0.116063 J0.179251 F400.000000
G03 X96.445283 Y96.259520 Z-0.300000 I-0.163852 J-0.031731
G03 X95.900039 Y96.150477 Z-0.300000 I-0.012163 J-1.356881
G03 X95.614391 Y95.904510 Z-0.300000 I0.244896 J-0.573254
G03 X95.741741 Y95.676322 Z-0.300000 I0.127350 J-0.078558
G03 X96.514003 Y95.904510 Z-0.300000 I0.000000 J1.420886
G01 X96.514033 Y95.904510 Z-0.300000
G00 Z5.000000

(Change tool to Cylindrical cutter)

G00 Z5.000000
G00 X128.769250 Y98.592910

G01 Z-0.300000 F100.0(Penetrate)
G03 X130.933183 Y100.798747 Z-0.300000 I-27.042013 J28.692629 F400.000000
G03 X130.879380 Y100.919680 Z-0.300000 I-0.053584 J0.048595
G03 X130.563169 Y100.807297 Z-0.300000 I0.001867 J-0.506304
G03 X128.000600 Y98.594960 Z-0.300000 I32.325162 J-40.032813
G03 X125.830065 Y96.405944 Z-0.300000 I23.466896 J-25.439379
G03 X125.890470 Y96.268190 Z-0.300000 I0.061039 J-0.055355
G03 X126.248928 Y96.393082 Z-0.300000 I0.005004 J0.562499
G03 X128.769250 Y98.592910 Z-0.300000 I-27.531175 J34.085871
G01 X128.769250 Y98.592910 Z-0.300000
G00 Z5.000000

(Change tool to Cylindrical cutter)

G00 Z5.000000
G00 X145.093320 Y133.780350

G01 Z-0.300000 F100.0(Penetrate)
G01 X146.352780 Y134.862660 Z-0.300000 F400.000000
G01 X145.019170 Y134.252220 Z-0.300000
G03 X143.793861 Y133.540158 Z-0.300000 I3.040197 J-6.641816
G03 X143.501120 Y133.160210 Z-0.300000 I0.488552 J-0.679168
G03 X143.711620 Y132.950893 Z-0.300000 I0.151587 J-0.058060
G03 X145.093320 Y133.780350 Z-0.300000 I-1.736199 J4.457677
G01 X145.093320 Y133.780350 Z-0.300000
G00 Z5.000000

(Change tool to Cylindrical cutter)

G00 Z5.000000
G00 X151.210710 Y137.694000

G01 Z-0.300000 F100.0(Penetrate)
G03 X152.786224 Y138.578802 Z-0.300000 I-9.491817 J18.746623 F400.000000
G03 X153.549710 Y139.143250 Z-0.300000 I-3.056192 J4.932460
G02 X154.301284 Y139.728847 Z-0.300000 I5.541221 J-6.336689
G02 X155.708790 Y140.637150 Z-0.300000 I14.804501 J-21.396356
G03 X156.604989 Y141.405588 Z-0.300000 I-1.818431 J3.027583
G03 X156.527910 Y141.621410 Z-0.300000 I-0.102304 J0.085138
G03 X155.954186 Y141.548098 Z-0.300000 I-0.175367 J-0.909188
G03 X154.548760 Y140.678120 Z-0.300000 I3.252044 J-6.823797
G02 X153.147158 Y139.678438 Z-0.300000 I-11.982412 J15.317509
G02 X150.670940 Y138.163560 Z-0.300000 I-30.083844 J46.393784
G03 X148.242110 Y136.600358 Z-0.300000 I14.695358 J-25.501466
G03 X147.252400 Y135.718130 Z-0.300000 I3.608429 J-5.044300
G01 X146.352780 Y134.724240 Z-0.300000
G01 X147.972090 Y135.799170 Z-0.300000
G02 X149.619113 Y136.826490 Z-0.300000 I18.953031 J-28.552010
G02 X151.210710 Y137.694000 Z-0.300000 I15.092575 J-25.796143
G01 X151.210710 Y137.694000 Z-0.300000
G00 Z5.000000

(Change tool to Cylindrical cutter)

G00 Z5.000000
G00 X125.503930 Y155.670224

G01 Z-0.300000 F100.0(Penetrate)
G03 X125.286753 Y155.704348 Z-0.300000 I-0.131965 J-0.131716 F400.000000
G03 X124.663450 Y155.238367 Z-0.300000 I1.067770 J-2.078125
G03 X124.665580 Y155.052766 Z-0.300000 I0.096200 J-0.091709
G03 X124.882760 Y155.018642 Z-0.300000 I0.131966 J0.131717
G03 X125.506059 Y155.484622 Z-0.300000 I-1.067787 J2.078137
G03 X125.503930 Y155.670224 Z-0.300000 I-0.096200 J0.091710
G01 X125.503930 Y155.670224 Z-0.300000
G00 Z5.000000

(Change tool to Cylindrical cutter)

G00 Z5.000000
G00 X128.743970 Y156.863668

G01 Z-0.300000 F100.0(Penetrate)
G03 X129.789011 Y157.601106 Z-0.300000 I-4.747899 J7.837559 F400.000000
G03 X130.543210 Y158.331665 Z-0.300000 I-3.903840 J4.784744
G03 X130.466179 Y158.482436 Z-0.300000 I-0.068824 J0.059900
G03 X129.799830 Y158.264525 Z-0.300000 I0.140729 J-1.558105
G03 X128.373314 Y157.377732 Z-0.300000 I30.627648 J-50.859132
G03 X127.100990 Y156.533368 Z-0.300000 I26.474839 J-41.274188
G03 X126.648568 Y156.051939 Z-0.300000 I0.876140 J-1.276647
G03 X126.741140 Y155.932169 Z-0.300000 I0.069750 J-0.041749
G03 X127.612280 Y156.260018 Z-0.300000 I-1.735110 J5.931715
G03 X128.743970 Y156.863640 Z-0.300000 I-4.949222 J10.641641
G01 X128.743970 Y156.863668 Z-0.300000
G00 Z5.000000

(Change tool to Cylindrical cutter)

G00 Z5.000000
G00 X182.517360 Y162.602690

G01 Z-0.300000 F100.0(Penetrate)
G03 X182.454711 Y162.900567 Z-0.300000 I-0.739481 J-0.000000 F400.000000
G03 X182.358680 Y162.963223 Z-0.300000 I-0.096031 J-0.042264
G03 X182.228816 Y162.911524 Z-0.300000 I-0.000000 J-0.188956
G03 X181.977590 Y162.602690 Z-0.300000 I1.053943 J-1.113943
G03 X181.960589 Y162.356783 Z-0.300000 I0.225574 J-0.139137
G03 X182.136280 Y162.242157 Z-0.300000 I0.175691 J0.077331
G03 X182.408852 Y162.350661 Z-0.300000 I0.000000 J0.396614
G03 X182.517360 Y162.602690 Z-0.300000 I-0.238436 J0.252029
G01 X182.517360 Y162.602690 Z-0.300000
G00 Z5.000000

(Change tool to Cylindrical cutter)

G00 Z5.000000
G00 X183.859290 Y162.820514

G01 Z-0.300000 F100.0(Penetrate)
G03 X183.618840 Y162.926097 Z-0.300000 I-0.255314 J-0.254854 F400.000000
G03 X183.169590 Y162.848924 Z-0.300000 I-0.044768 J-1.085593
G03 X183.146546 Y162.736697 Z-0.300000 I0.025550 J-0.063725
G03 X183.387000 Y162.631100 Z-0.300000 I0.255330 J0.254843
G03 X183.836266 Y162.708254 Z-0.300000 I0.044772 J1.085902
G03 X183.859290 Y162.820452 Z-0.300000 I-0.025544 J0.063703
G01 X183.859290 Y162.820514 Z-0.300000
G00 Z5.000000

(Change tool to Cylindrical cutter)

G00 Z5.000000
G00 X103.189190 Y68.101390

G01 Z-0.300000 F100.0(Penetrate)
G02 X106.322350 Y70.161516 Z-0.300000 I7.638456 J-8.204403 F400.000000
G02 X106.949580 Y69.751830 Z-0.300000 I0.179819 J-0.409686
G02 X106.202955 Y68.529773 Z-0.300000 I-1.373428 J-0.000000
G02 X103.111190 Y67.783120 Z-0.300000 I-3.091765 J6.027911
G02 X103.048957 Y67.862447 Z-0.300000 I0.000000 J0.064075
G02 X103.189190 Y68.101390 Z-0.300000 I0.469914 J-0.115165
G01 X103.189190 Y68.101390 Z-0.300000
G00 Z5.000000

(Change tool to Cylindrical cutter)

G00 Z5.000000
G00 X107.309430 Y70.101200

G01 Z-0.300000 F100.0(Penetrate)
G02 X107.377234 Y70.240820 Z-0.300000 I0.177652 J0.000000 F400.000000
G02 X108.029120 Y70.667360 Z-0.300000 I2.765075 J-3.514481
G02 X108.674481 Y70.929063 Z-0.300000 I1.541656 J-2.875143
G02 X108.748820 Y70.872990 Z-0.300000 I0.016022 J-0.056073
G02 X108.681018 Y70.733373 Z-0.300000 I-0.177650 J0.000000
G02 X108.029120 Y70.306830 Z-0.300000 I-2.764665 J3.513891
G02 X107.383771 Y70.045125 Z-0.300000 I-1.541516 J2.874737
G02 X107.309430 Y70.101200 Z-0.300000 I-0.016022 J0.056075
G01 X107.309430 Y70.101200 Z-0.300000
G00 Z5.000000

(Change tool to Cylindrical cutter)

G00 Z5.000000
G00 X52.055688 Y85.122100

G01 Z-0.300000 F100.0(Penetrate)
G02 X51.585609 Y86.220815 Z-0.300000 I7.360497 J3.799063 F400.000000
G02 X51.622107 Y86.379420 Z-0.300000 I0.145229 J0.050082
G02 X51.737657 Y86.367916 Z-0.300000 I0.053072 J-0.052990
G02 X52.362513 Y85.264330 Z-0.300000 I-7.450023 J-4.946933
G02 X52.816865 Y84.112650 Z-0.300000 I-8.170659 J-3.888891
G02 X52.783044 Y84.035826 Z-0.300000 I-0.060528 J-0.019209
G02 X52.699853 Y84.058152 Z-0.300000 I-0.028241 J0.060924
G02 X52.055688 Y85.122100 Z-0.300000 I7.495636 J5.265197
G01 X52.055688 Y85.122100 Z-0.300000
G00 Z5.000000

(Change tool to Cylindrical cutter)

G00 Z5.000000
G00 X50.512125 Y88.529070

G01 Z-0.300000 F100.0(Penetrate)
G02 X50.504139 Y88.922977 Z-0.300000 I0.453482 J0.206228 F400.000000
G02 X50.676163 Y88.932410 Z-0.300000 I0.088238 J-0.035887
G02 X51.118324 Y87.925278 Z-0.300000 I-5.895232 J-3.188811
G02 X51.080056 Y87.759170 Z-0.300000 I-0.152204 J-0.052397
G02 X50.959137 Y87.768175 Z-0.300000 I-0.056591 J0.056454
G02 X50.512125 Y88.529070 Z-0.300000 I3.408948 J2.514446
G01 X50.512125 Y88.529070 Z-0.300000
G00 Z5.000000

(Change tool to Cylindrical cutter)

G00 Z5.000000
G00 X49.219912 Y92.144690

G01 Z-0.300000 F100.0(Penetrate)
G02 X49.067465 Y93.080972 Z-0.300000 I5.480262 J1.372856 F400.000000
G02 X49.133482 Y93.259860 Z-0.300000 I0.227581 J0.017639
G02 X49.240116 Y93.242137 Z-0.300000 I0.046988 J-0.046943
G02 X49.528355 Y92.453720 Z-0.300000 I-3.595030 J-1.761212
G02 X49.680803 Y91.517410 Z-0.300000 I-5.480489 J-1.372886
G02 X49.614785 Y91.338550 Z-0.300000 I-0.227523 J-0.017634
G02 X49.508131 Y91.356247 Z-0.300000 I-0.047011 J0.046912
G02 X49.219912 Y92.144690 Z-0.300000 I3.596458 J1.761604
G01 X49.219912 Y92.144690 Z-0.300000
G00 Z5.000000

(Change tool to Cylindrical cutter)

G00 Z5.000000
G00 X82.120171 Y94.163600

G01 Z-0.300000 F100.0(Penetrate)
G02 X82.218968 Y94.547862 Z-0.300000 I0.796675 J0.000000 F400.000000
G02 X82.715710 Y95.245190 Z-0.300000 I3.249682 J-1.789322
G03 X82.898908 Y95.721312 Z-0.300000 I-0.527109 J0.476122
G03 X82.715710 Y95.904510 Z-0.300000 I-0.183198 J0.000000
G02 X82.292123 Y96.076454 Z-0.300000 I0.000000 J0.607729
G02 X82.120171 Y96.483390 Z-0.300000 I0.395545 J0.406936
G03 X81.985153 Y97.013098 Z-0.300000 I-1.106591 J0.000000
G03 X81.220559 Y98.133440 Z-0.300000 I-5.981986 J-3.261417
G02 X80.520110 Y99.277147 Z-0.300000 I3.457839 J2.904055
G02 X80.320937 Y100.258540 Z-0.300000 I2.318244 J0.981393
G03 X80.076923 Y101.068462 Z-0.300000 I-1.466137 J-0.000000
G03 X79.622487 Y101.312470 Z-0.300000 I-0.454436 J-0.301162
G03 X78.990605 Y101.193180 Z-0.300000 I-0.000000 J-1.733191
G03 X78.701627 Y100.951930 Z-0.300000 I0.216547 J-0.553087
G02 X78.249915 Y100.874710 Z-0.300000 I-0.259859 J0.160295
G02 X77.583279 Y101.855280 Z-0.300000 I1.284374 J1.590065
G02 X77.510615 Y103.065185 Z-0.300000 I2.405996 J0.751633
G02 X78.027658 Y104.258800 Z-0.300000 I2.854727 J-0.527801
G02 X80.128327 Y106.135725 Z-0.300000 I5.521992 J-4.066252
G02 X82.300096 Y106.718330 Z-0.300000 I2.179830 J-3.786582
G03 X84.953691 Y107.260110 Z-0.300000 I-0.013396 J6.835046
G03 X89.831543 Y109.910330 Z-0.300000 I-11.199390 J26.427063
G02 X92.883606 Y110.796097 Z-0.300000 I2.898694 J-4.286863
G02 X94.143486 Y109.782500 Z-0.300000 I-0.039706 J-1.339155
G03 X94.371778 Y108.956865 Z-0.300000 I17.096241 J4.282822
G03 X94.559927 Y108.407410 Z-0.300000 I7.755433 J2.348732
G02 X94.492655 Y107.950483 Z-0.300000 I-0.440196 J-0.168607
G02 X93.442088 Y106.961530 Z-0.300000 I-3.639713 J2.813987
G03 X90.763981 Y104.425434 Z-0.300000 I6.496209 J-9.542051
G03 X91.055414 Y103.836190 Z-0.300000 I0.291433 J-0.222552
G03 X91.301265 Y103.930466 Z-0.300000 I-0.000000 J0.367701
G03 X92.458803 Y105.098040 Z-0.300000 I-9.586298 J10.661476
G02 X93.900880 Y106.183413 Z-0.300000 I3.372411 J-2.980053
G02 X94.167243 Y105.909230 Z-0.300000 I0.086586 J-0.182357
G01 X94.220306 Y105.865807 Z-0.300000
G03 X94.848434 Y106.450030 Z-0.300000 I-3.433428 J4.321234
G02 X95.839035 Y107.385258 Z-0.300000 I7.088927 J-6.516415
G02 X95.963453 Y107.366190 Z-0.300000 I0.053627 J-0.065528
G02 X95.979186 Y107.192003 Z-0.300000 I-0.155133 J-0.101816
G02 X95.288550 Y105.779450 Z-0.300000 I-13.387005 J5.670159
G03 X94.806681 Y103.947373 Z-0.300000 I3.321914 J-1.853132
G03 X95.275800 Y103.475650 Z-0.300000 I0.469119 J-0.002597
G02 X95.569993 Y103.051734 Z-0.300000 I0.000000 J-0.314041
G02 X94.264984 Y100.769160 Z-0.300000 I-7.638605 J2.852855
G02 X91.614503 Y98.378492 Z-0.300000 I-8.945938 J7.253569
G02 X86.746328 Y95.861210 Z-0.300000 I-14.841899 J22.736837
G03 X84.395410 Y94.840597 Z-0.300000 I14.070393 J-35.628186
G03 X83.517103 Y94.328960 Z-0.300000 I2.583526 J-5.444727
G02 X82.409968 Y93.906075 Z-0.300000 I-1.391980 J1.983564
G02 X82.120162 Y94.163600 Z-0.300000 I-0.030483 J0.257525
G01 X82.120171 Y94.163600 Z-0.300000
G00 Z5.000000

(Change tool to Cylindrical cutter)

G00 Z5.000000
G00 X48.711256 Y94.822910

G01 Z-0.300000 F100.0(Penetrate)
G02 X48.798595 Y95.273570 Z-0.300000 I1.206347 J-0.000000 F400.000000
G02 X48.892758 Y95.273570 Z-0.300000 I0.047082 J-0.018961
G02 X48.980096 Y94.822910 Z-0.300000 I-1.119020 J-0.450660
G02 X48.892758 Y94.372250 Z-0.300000 I-1.206358 J0.000000
G02 X48.798603 Y94.372248 Z-0.300000 I-0.047078 J0.018959
G02 X48.711256 Y94.822910 Z-0.300000 I1.118905 J0.450662
G01 X48.711256 Y94.822910 Z-0.300000
G00 Z5.000000

(Change tool to Cylindrical cutter)

G00 Z5.000000
G00 X48.323001 Y96.835880

G01 Z-0.300000 F100.0(Penetrate)
G02 X48.428443 Y97.076648 Z-0.300000 I0.361555 J-0.014867 F400.000000
G02 X48.540407 Y97.053690 Z-0.300000 I0.048425 J-0.048335
G02 X48.617440 Y96.603453 Z-0.300000 I-1.014799 J-0.405335
G02 X48.511997 Y96.362690 Z-0.300000 I-0.361545 J0.014869
G02 X48.400039 Y96.385641 Z-0.300000 I-0.048424 J0.048329
G02 X48.322999 Y96.835880 Z-0.300000 I1.014831 J0.405356
G01 X48.323001 Y96.835880 Z-0.300000
G00 Z5.000000

(Change tool to Cylindrical cutter)

G00 Z5.000000
G00 X48.042578 Y99.870340

G01 Z-0.300000 F100.0(Penetrate)
G02 X48.117109 Y100.861800 Z-0.300000 I6.631783 J0.000000 F400.000000
G01 X48.192487 Y100.861800 Z-0.300000
G02 X48.267018 Y99.870349 Z-0.300000 I-6.557165 J-0.991451
G02 X48.192487 Y98.878880 Z-0.300000 I-6.631935 J0.000000
G01 X48.117107 Y98.878880 Z-0.300000
G02 X48.042578 Y99.870340 Z-0.300000 I6.557397 J0.991460
G01 X48.042578 Y99.870340 Z-0.300000
G00 Z5.000000

(Change tool to Cylindrical cutter)

G00 Z5.000000
G00 X47.692979 Y106.179630

G01 Z-0.300000 F100.0(Penetrate)
G02 X47.765688 Y107.344022 Z-0.300000 I9.535955 J-0.010992 F400.000000
G01 X47.837514 Y107.343310 Z-0.300000
G02 X47.907313 Y105.984008 Z-0.300000 I-12.907701 J-1.344247
G02 X47.834514 Y104.819600 Z-0.300000 I-9.525353 J0.011050
G01 X47.762687 Y104.820311 Z-0.300000
G02 X47.692882 Y106.179630 Z-0.300000 I12.909370 J1.344386
G01 X47.692979 Y106.179630 Z-0.300000
G00 Z5.000000

(Change tool to Cylindrical cutter)

G00 Z5.000000
G00 X95.493853 Y109.417140

G01 Z-0.300000 F100.0(Penetrate)
G02 X95.759811 Y110.331707 Z-0.300000 I2.848081 J-0.332274 F400.000000
G02 X96.064227 Y110.598370 Z-0.300000 I0.466203 J-0.225117
G02 X96.615161 Y110.169842 Z-0.300000 I0.131415 J-0.399463
G02 X95.943659 Y108.858170 Z-0.300000 I-1.869874 J0.129548
G02 X95.646444 Y108.887920 Z-0.300000 I-0.133969 J0.161114
G02 X95.493853 Y109.417140 Z-0.300000 I0.555046 J0.446646
G01 X95.493853 Y109.417140 Z-0.300000
G00 Z5.000000

(Change tool to Cylindrical cutter)

G00 Z5.000000
G00 X52.708133 Y110.000410

G01 Z-0.300000 F100.0(Penetrate)
G02 X50.956463 Y112.215068 Z-0.300000 I0.943849 J2.546598 F400.000000
G02 X51.683209 Y118.323330 Z-0.300000 I12.792543 J1.575338
G02 X53.805902 Y122.942109 Z-0.300000 I33.341683 J-12.525967
G02 X54.418936 Y123.304840 Z-0.300000 I0.613034 J-0.336664
G03 X54.616077 Y123.427357 Z-0.300000 I-0.000000 J0.219868
G03 X54.950730 Y124.381760 Z-0.300000 I-3.742870 J1.848276
G02 X56.650797 Y127.779798 Z-0.300000 I7.557404 J-1.656735
G02 X58.688327 Y128.712790 Z-0.300000 I2.037530 J-1.758350
G02 X59.636485 Y127.730730 Z-0.300000 I0.000000 J-0.948743
G02 X58.384359 Y120.062450 Z-0.300000 I-30.717510 J1.079384
G03 X58.118043 Y118.787164 Z-0.300000 I7.558207 J-2.243818
G03 X58.005032 Y116.997930 Z-0.300000 I14.816686 J-1.834033
G02 X57.404648 Y113.681855 Z-0.300000 I-9.617082 J0.028810
G02 X55.872275 Y111.248670 Z-0.300000 I-6.565007 J2.435392
G02 X54.023881 Y110.014111 Z-0.300000 I-3.776783 J3.653641
G02 X52.708133 Y110.000410 Z-0.300000 I-0.675782 J1.713015
G01 X52.708133 Y110.000410 Z-0.300000
G00 Z5.000000

(Change tool to Cylindrical cutter)

G00 Z5.000000
G00 X48.025493 Y111.587590

G01 Z-0.300000 F100.0(Penetrate)
G02 X48.107978 Y112.217001 Z-0.300000 I2.540385 J-0.012811 F400.000000
G01 X48.189250 Y112.214320 Z-0.300000
G02 X48.264477 Y111.401588 Z-0.300000 I-4.124957 J-0.791658
G02 X48.182050 Y110.772200 Z-0.300000 I-2.541477 J0.012751
G01 X48.100776 Y110.774881 Z-0.300000
G02 X48.025554 Y111.587590 Z-0.300000 I4.124196 J0.791558
G01 X48.025493 Y111.587590 Z-0.300000
G00 Z5.000000

(Change tool to Cylindrical cutter)

G00 Z5.000000
G00 X48.682847 Y114.862410

G01 Z-0.300000 F100.0(Penetrate)
G02 X48.788290 Y115.103186 Z-0.300000 I0.361574 J-0.014868 F400.000000
G02 X48.900254 Y115.080230 Z-0.300000 I0.048426 J-0.048333
G02 X48.977286 Y114.629981 Z-0.300000 I-1.014876 J-0.405346
G02 X48.871844 Y114.389220 Z-0.300000 I-0.361541 J0.014868
G02 X48.759885 Y114.412171 Z-0.300000 I-0.048425 J0.048329
G02 X48.682845 Y114.862410 Z-0.300000 I1.014828 J0.405356
G01 X48.682847 Y114.862410 Z-0.300000
G00 Z5.000000

(Change tool to Cylindrical cutter)

G00 Z5.000000
G00 X144.849050 Y167.343670

G01 Z-0.300000 F100.0(Penetrate)
G02 X143.304151 Y169.654152 Z-0.300000 I1.263913 J2.516851 F400.000000
G02 X144.494810 Y172.165162 Z-0.300000 I2.808004 J0.206309
G02 X148.290543 Y171.790702 Z-0.300000 I1.680144 J-2.394187
G02 X148.421890 Y168.051675 Z-0.300000 I-2.035563 J-1.943327
G02 X146.790888 Y167.080155 Z-0.300000 I-2.181804 J1.808010
G02 X144.849050 Y167.343670 Z-0.300000 I-0.586892 J2.961649
G01 X144.849050 Y167.343670 Z-0.300000
G00 Z5.000000

(Change tool to Cylindrical cutter)

G00 Z5.000000
G00 X146.232170 Y171.826192

G01 Z-0.300000 F100.0(Penetrate)
G03 X145.836355 Y172.168946 Z-0.300000 I-0.351475 J-0.005964 F400.000000
G03 X144.755960 Y171.638486 Z-0.300000 I0.234297 J-1.842654
G03 X144.630191 Y170.957959 Z-0.300000 I0.432664 J-0.431846
G03 X145.125640 Y170.808345 Z-0.300000 I0.312313 J0.139079
G03 X146.124326 Y171.574652 Z-0.300000 I-3.784758 J5.966388
G03 X146.232170 Y171.826192 Z-0.300000 I-0.226149 J0.245847
G01 X146.232170 Y171.826192 Z-0.300000
G00 Z5.000000

(End cutting path id: path21)


(Start cutting path id: path21)
(Change tool to Cylindrical cutter)

G00 Z5.000000
G00 X85.539959 Y65.528040

G01 Z-0.600000 F100.0(Penetrate)
G02 X83.860743 Y65.852345 Z-0.600000 I0.579742 J7.511401 F400.000000
G02 X83.452952 Y66.184110 Z-0.600000 I0.213324 J0.678710
G03 X83.062478 Y66.528628 Z-0.600000 I-0.684603 J-0.382385
G03 X82.174264 Y66.701520 Z-0.600000 I-0.888214 J-2.195107
G02 X81.234974 Y66.823043 Z-0.600000 I-0.000000 J3.690804
G02 X80.832027 Y67.054740 Z-0.600000 I0.226231 J0.859673
G03 X80.442770 Y67.356502 Z-0.600000 I-1.377429 J-1.374869
G03 X79.054295 Y68.102490 Z-0.600000 I-10.118963 J-17.168834
G01 X77.629109 Y68.797020 Z-0.600000
G01 X80.962010 Y69.058250 Z-0.600000
G03 X83.575456 Y69.379454 Z-0.600000 I-2.334905 J29.790370
G03 X84.345748 Y69.593810 Z-0.600000 I-0.631376 J3.760066
G03 X84.347643 Y69.761142 Z-0.600000 I-0.033227 J0.084053
G03 X83.310912 Y69.986810 Z-0.600000 I-1.122025 J-2.660409
G03 X81.940171 Y70.024599 Z-0.600000 I-10.080998 J-340.796117
G03 X78.510625 Y70.109520 Z-0.600000 I-55.220764 J-2160.796310
G02 X75.125128 Y70.372847 Z-0.600000 I0.759159 J31.654931
G02 X74.039117 Y70.699940 Z-0.600000 I0.462275 J3.501266
G02 X73.268056 Y71.513290 Z-0.600000 I0.700642 J1.436374
G02 X73.553263 Y71.847610 Z-0.600000 I0.226267 J0.095787
G03 X73.667884 Y72.062550 Z-0.600000 I0.030134 J0.121962
G03 X72.683773 Y72.637710 Z-0.600000 I-1.850015 J-2.035916
G02 X71.830911 Y73.463681 Z-0.600000 I0.430353 J1.297664
G02 X72.124283 Y74.159770 Z-0.600000 I0.519447 J0.190942
G01 X72.944087 Y74.526670 Z-0.600000
G01 X72.134432 Y74.784500 Z-0.600000
G02 X71.521498 Y75.186127 Z-0.600000 I0.414098 J1.300486
G02 X71.324777 Y75.709600 Z-0.600000 I0.598117 J0.523473
G03 X70.924649 Y77.117325 Z-0.600000 I-2.676380 J-0.000000
G03 X70.206734 Y77.517450 Z-0.600000 I-0.717915 J-0.443987
G02 X69.651884 Y77.643778 Z-0.600000 I0.000000 J1.281649
G02 X69.525543 Y77.844610 Z-0.600000 I0.096451 J0.200832
G03 X69.300872 Y78.111842 Z-0.600000 I-0.271264 J0.000000
G03 X67.433104 Y78.305254 Z-0.600000 I-2.324441 J-13.331861
G03 X65.508763 Y78.250528 Z-0.600000 I-0.522695 J-15.480660
G03 X65.027458 Y77.996480 Z-0.600000 I0.063983 J-0.704169
G02 X64.598215 Y77.838704 Z-0.600000 I-0.349740 J0.288715
G02 X62.539311 Y78.439530 Z-0.600000 I1.748572 J9.820122
G02 X60.366938 Y79.604225 Z-0.600000 I4.689890 J11.355804
G02 X60.041248 Y80.121620 Z-0.600000 I0.422159 J0.626946
G03 X59.852040 Y80.571005 Z-0.600000 I-0.963471 J-0.141133
G03 X58.642290 Y81.955870 Z-0.600000 I-11.011686 J-8.398447
G02 X56.889191 Y84.307545 Z-0.600000 I7.240731 J7.227013
G02 X57.139559 Y84.728050 Z-0.600000 I0.250368 J0.135718
G03 X57.348673 Y84.936146 Z-0.600000 I0.000000 J0.209117
G03 X57.143959 Y85.629390 Z-0.600000 I-1.255409 J0.006126
G02 X57.043807 Y86.325979 Z-0.600000 I0.696748 J0.455669
G02 X57.424900 Y86.558660 Z-0.600000 I0.320794 J-0.096983
G03 X57.557484 Y86.651879 Z-0.600000 I0.020455 J0.111803
G03 X57.513100 Y87.090840 Z-0.600000 I-0.830902 J0.137711
G02 X57.668425 Y87.377875 Z-0.600000 I0.200772 J0.076898
G02 X59.090447 Y87.431980 Z-0.600000 I0.864048 J-3.995148
G01 X60.893619 Y87.183510 Z-0.600000
G01 X61.122765 Y88.331420 Z-0.600000
G02 X61.594271 Y89.085736 Z-0.600000 I1.232844 J-0.246102
G02 X62.290084 Y89.219780 Z-0.600000 I0.483112 J-0.634822
G03 X63.243013 Y89.057996 Z-0.600000 I1.269041 J4.587483
G03 X68.594098 Y88.800200 Z-0.600000 I9.709523 J145.875849
G03 X77.150724 Y89.344892 Z-0.600000 I1.370602 J45.949900
G03 X80.304557 Y90.653550 Z-0.600000 I-1.139716 J7.201344
G02 X81.976251 Y91.786194 Z-0.600000 I17.396206 J-23.875476
G02 X83.199740 Y92.473970 Z-0.600000 I7.596870 J-12.081993
G03 X84.407039 Y93.178314 Z-0.600000 I-4.791013 J9.599030
G03 X85.358823 Y93.929980 Z-0.600000 I-4.516530 J6.697403
G02 X86.319202 Y94.674396 Z-0.600000 I4.888789 J-5.315371
G02 X89.497054 Y96.612680 Z-0.600000 I36.861378 J-56.860694
G03 X92.663243 Y98.566156 Z-0.600000 I-28.382976 J49.545665
G03 X93.815220 Y99.475230 Z-0.600000 I-4.908328 J7.404256
G02 X94.926593 Y100.444289 Z-0.600000 I14.937831 J-16.009734
G02 X96.693990 Y101.819530 Z-0.600000 I31.897182 J-39.169514
G03 X98.311114 Y103.311272 Z-0.600000 I-6.200771 J8.344343
G03 X99.392836 Y104.898530 Z-0.600000 I-5.959408 J5.223586
G02 X100.353091 Y106.603437 Z-0.600000 I23.997859 J-12.393433
G02 X101.451180 Y108.261990 Z-0.600000 I23.805201 J-14.568087
G03 X102.871629 Y111.741550 Z-0.600000 I-6.624735 J4.734105
G03 X102.277990 Y113.564120 Z-0.600000 I-2.092719 J0.326333
G03 X101.420810 Y114.120330 Z-0.600000 I-1.728548 J-1.725272
G03 X100.722260 Y114.158290 Z-0.600000 I-0.408416 J-1.069345
G02 X100.008674 Y114.160539 Z-0.600000 I-0.352554 J1.345719
G02 X99.324228 Y114.534050 Z-0.600000 I0.430907 J1.603491
G03 X98.619073 Y114.883931 Z-0.600000 I-0.970431 J-1.070290
G03 X97.266129 Y114.918490 Z-0.600000 I-0.784144 J-4.197948
G03 X93.630068 Y113.900102 Z-0.600000 I1.808309 J-13.456709
G03 X90.937510 Y112.148390 Z-0.600000 I3.939992 J-9.001386
G02 X88.733562 Y110.870704 Z-0.600000 I-4.019174 J4.393190
G02 X85.243467 Y110.325740 Z-0.600000 I-3.490095 J10.903267
G02 X84.450493 Y110.479974 Z-0.600000 I-0.000000 J2.115609
G02 X84.198724 Y110.748140 Z-0.600000 I0.164389 J0.406607
G03 X83.927478 Y110.931983 Z-0.600000 I-0.255549 J-0.085020
G03 X81.838592 Y110.610370 Z-0.600000 I0.653053 J-11.186090
G02 X79.714429 Y110.342363 Z-0.600000 I-2.157655 J8.549276
G02 X79.163145 Y110.600170 Z-0.600000 I-0.002707 J0.712538
G02 X79.158449 Y111.124178 Z-0.600000 I0.319775 J0.264890
G02 X82.482868 Y114.757170 Z-0.600000 I28.653453 J-22.882207
G02 X89.381270 Y120.604198 Z-0.600000 I52.581647 J-55.043604
G02 X90.992235 Y121.141330 Z-0.600000 I1.610965 J-2.147235
G03 X91.155875 Y121.488802 Z-0.600000 I0.000000 J0.212269
G03 X90.276465 Y122.007650 Z-0.600000 I-1.156542 J-0.955563
G03 X87.076938 Y121.666542 Z-0.600000 I-1.032371 J-5.492597
G03 X82.423981 Y118.704230 Z-0.600000 I6.368651 J-15.138750
G02 X80.911765 Y117.515238 Z-0.600000 I-9.315109 J10.291245
G02 X80.349816 Y117.294460 Z-0.600000 I-0.768652 J1.130902
G03 X78.701082 Y116.702179 Z-0.600000 I0.689722 J-4.510914
G03 X73.492053 Y113.202060 Z-0.600000 I30.007612 J-50.284837
G02 X71.603649 Y111.983335 Z-0.600000 I-9.376462 J12.456351
G02 X71.407259 Y112.060480 Z-0.600000 I-0.066000 J0.120532
G02 X71.410657 Y112.395500 Z-0.600000 I0.488372 J0.162574
G02 X72.244047 Y114.414030 Z-0.600000 I20.618819 J-7.331584
G02 X74.082295 Y117.009821 Z-0.600000 I8.272096 J-3.909221
G02 X77.659967 Y119.770690 Z-0.600000 I12.986796 J-13.130441
G01 X79.061509 Y120.600530 Z-0.600000
G01 X78.060219 Y120.715740 Z-0.600000
G03 X75.270979 Y120.378825 Z-0.600000 I-0.690313 J-5.999257
G03 X72.191586 Y118.540360 Z-0.600000 I3.420375 J-9.227255
G01 X70.964961 Y117.461320 Z-0.600000
G01 X70.964961 Y118.347350 Z-0.600000
G02 X71.434947 Y119.689882 Z-0.600000 I2.152489 J-0.000000
G02 X73.639754 Y121.699490 Z-0.600000 I7.400796 J-5.905370
G02 X74.712282 Y122.108781 Z-0.600000 I1.467352 J-2.235224
G02 X77.481471 Y122.273050 Z-0.600000 I2.305495 J-15.442117
G03 X80.026622 Y122.391801 Z-0.600000 I0.496042 J16.702510
G03 X80.303730 Y122.547311 Z-0.600000 I-0.051440 J0.416310
G03 X80.251089 Y122.701076 Z-0.600000 I-0.075600 J0.060011
G03 X78.071930 Y123.016910 Z-0.600000 I-2.725339 J-11.128314
G01 X75.822890 Y123.124250 Z-0.600000
G01 X76.902426 Y123.775160 Z-0.600000
G01 X77.981962 Y124.426080 Z-0.600000
G01 X76.739801 Y124.220280 Z-0.600000
G03 X75.572985 Y123.862267 Z-0.600000 I0.749257 J-4.522351
G03 X74.737457 Y123.298960 Z-0.600000 I1.306020 J-2.838466
G02 X73.936001 Y122.687514 Z-0.600000 I-3.346510 J3.555474
G02 X73.565975 Y122.583450 Z-0.600000 I-0.370026 J0.605830
G03 X73.224814 Y122.437972 Z-0.600000 I-0.000000 J-0.472767
G03 X71.144885 Y120.059740 Z-0.600000 I24.757174 J-23.750507
G02 X69.099607 Y117.609619 Z-0.600000 I-54.131458 J43.108381
G02 X68.937452 Y117.536020 Z-0.600000 I-0.162155 J0.141833
G02 X68.883356 Y117.620988 Z-0.600000 I0.000000 J0.059704
G02 X70.068358 Y119.957570 Z-0.600000 I36.595246 J-17.090570
G03 X71.117481 Y122.269660 Z-0.600000 I-14.694787 J8.061904
G03 X71.000999 Y122.511330 Z-0.600000 I-0.175764 J0.064191
G02 X70.620863 Y123.226618 Z-0.600000 I0.186225 J0.557623
G02 X71.938515 Y125.879080 Z-0.600000 I7.571627 J-2.107810
G02 X73.362375 Y127.448822 Z-0.600000 I9.805665 J-7.463751
G02 X73.827716 Y127.631990 Z-0.600000 I0.466710 J-0.502997
G03 X74.358456 Y127.737951 Z-0.600000 I-0.003294 J1.398676
G03 X76.881801 Y128.893850 Z-0.600000 I-14.021896 J33.942206
G02 X79.400253 Y130.069840 Z-0.600000 I20.532732 J-40.687357
G02 X79.811614 Y130.154590 Z-0.600000 I0.411361 J-0.955960
G03 X80.196403 Y130.277592 Z-0.600000 I0.000000 J0.663374
G03 X81.991322 Y131.706710 Z-0.600000 I-12.413117 J17.432140
G02 X83.806252 Y133.165716 Z-0.600000 I15.798634 J-17.794362
G02 X85.538747 Y134.283190 Z-0.600000 I10.959518 J-15.089539
G03 X87.332955 Y135.315046 Z-0.600000 I-117.569562 J206.507695
G03 X87.441413 Y135.388460 Z-0.600000 I-0.478623 J0.823914
G03 X87.471714 Y135.487415 Z-0.600000 I-0.055789 J0.071200
G03 X87.100017 Y136.447520 Z-0.600000 I-8.525365 J-2.748527
G03 X85.367749 Y138.307625 Z-0.600000 I-3.644539 J-1.657405
G03 X82.042201 Y139.197150 Z-0.600000 I-3.507486 J-6.451813
G01 X80.860743 Y139.226350 Z-0.600000
G01 X81.940279 Y139.721600 Z-0.600000
G02 X83.053509 Y140.065691 Z-0.600000 I1.869079 J-4.074138
G02 X84.930254 Y140.233110 Z-0.600000 I1.976468 J-11.553211
G03 X86.536975 Y140.417201 Z-0.600000 I-0.066516 J7.684230
G03 X86.618284 Y140.609900 Z-0.600000 I-0.027953 J0.125299
G03 X86.311574 Y140.819343 Z-0.600000 I-0.388519 J-0.239654
G03 X84.639125 Y140.970430 Z-0.600000 I-1.672449 J-9.181018
G02 X82.966694 Y141.121516 Z-0.600000 I0.000000 J9.331922
G02 X82.659977 Y141.330970 Z-0.600000 I0.081811 J0.449100
G03 X82.362267 Y141.556546 Z-0.600000 I-0.439981 J-0.271433
G03 X81.400506 Y141.691490 Z-0.600000 I-0.961761 J-3.359815
G02 X81.042181 Y142.090005 Z-0.600000 I0.000000 J0.360352
G02 X81.493636 Y142.565930 Z-0.600000 I0.536866 J-0.057179
G02 X93.770369 Y143.556706 Z-0.600000 I12.450119 J-77.713720
G02 X96.089119 Y142.597930 Z-0.600000 I0.007195 J-3.265877
G02 X96.076143 Y142.460286 Z-0.600000 I-0.063585 J-0.063439
G02 X95.139546 Y141.950290 Z-0.600000 I-3.011566 J4.415657
G03 X95.156667 Y141.710974 Z-0.600000 I0.049184 J-0.116752
G03 X96.883351 Y141.494090 Z-0.600000 I1.686898 J6.448168
G03 X99.636763 Y141.624920 Z-0.600000 I-0.188342 J33.002906
G03 X99.751696 Y141.750090 Z-0.600000 I-0.011247 J0.125679
G03 X99.198226 Y142.528505 Z-0.600000 I-0.818684 J0.003870
G03 X92.514204 Y144.228550 Z-0.600000 I-13.834475 J-40.402928
G03 X84.523359 Y144.568548 Z-0.600000 I-5.340629 J-31.445928
G03 X75.822870 Y142.837000 Z-0.600000 I3.260774 J-39.108779
G03 X67.640857 Y139.166098 Z-0.600000 I12.228102 J-38.208847
G03 X60.311608 Y133.670650 Z-0.600000 I21.297483 J-36.039548
G03 X55.760975 Y128.375205 Z-0.600000 I22.169989 J-23.654762
G03 X51.377471 Y120.667670 Z-0.600000 I43.093249 J-29.608691
G02 X49.336717 Y116.562707 Z-0.600000 I-71.419051 J32.945731
G02 X49.209561 Y116.608200 Z-0.600000 I-0.060212 J0.032155
G02 X50.538350 Y120.580411 Z-0.600000 I16.322989 J-3.252027
G02 X54.693967 Y127.991310 Z-0.600000 I61.698215 J-29.726335
G02 X59.247103 Y133.710683 Z-0.600000 I31.002115 J-20.008437
G02 X64.825115 Y138.406420 Z-0.600000 I26.310801 J-25.593400
G02 X76.113551 Y143.540759 Z-0.600000 I20.302059 J-29.659782
G02 X93.455351 Y145.823250 Z-0.600000 I17.931539 J-69.218798
G03 X100.968379 Y146.113793 Z-0.600000 I-1.019433 J123.644342
G03 X102.454350 Y146.445710 Z-0.600000 I-0.349924 J5.058847
G03 X108.282481 Y149.057393 Z-0.600000 I-22.756222 J58.590669
G03 X114.056550 Y152.370110 Z-0.600000 I-31.054562 J60.816590
G02 X115.636199 Y153.214743 Z-0.600000 I6.151075 J-9.604396
G02 X115.900853 Y153.230562 Z-0.600000 I0.153813 J-0.351574
G02 X115.935660 Y153.106192 Z-0.600000 I-0.022096 J-0.073239
G02 X114.845490 Y152.132091 Z-0.600000 I-4.972868 J4.468322
G03 X113.922982 Y151.313214 Z-0.600000 I3.376598 J-4.732984
G03 X113.968151 Y151.216362 Z-0.600000 I0.042823 J-0.038988
G03 X114.318094 Y151.300430 Z-0.600000 I-0.037591 J0.926851
G03 X115.992120 Y152.178591 Z-0.600000 I-7.579238 J16.482860
G02 X130.679777 Y160.254616 Z-0.600000 I131.464848 J-221.697659
G02 X132.955000 Y160.799608 Z-0.600000 I2.275223 J-4.476786
G02 X133.057250 Y160.667689 Z-0.600000 I0.000000 J-0.105586
G02 X132.730050 Y159.926339 Z-0.600000 I-2.409244 J0.620456
G03 X132.735773 Y159.479074 Z-0.600000 I0.335449 J-0.219377
G03 X133.138480 Y159.335392 Z-0.600000 I0.301279 J0.208227
G03 X134.414792 Y159.798757 Z-0.600000 I-2.782437 J9.653510
G03 X139.875550 Y162.310764 Z-0.600000 I-79.535664 J180.091063
G02 X140.056108 Y162.057013 Z-0.600000 I0.068235 J-0.142561
G02 X136.763930 Y159.167460 Z-0.600000 I-22.221190 J21.997217
G02 X134.122944 Y157.391153 Z-0.600000 I-16.573678 J21.790047
G02 X133.823650 Y157.429129 Z-0.600000 I-0.125188 J0.211749
G03 X133.610528 Y157.449170 Z-0.600000 I-0.118639 J-0.118421
G03 X132.487160 Y156.517148 Z-0.600000 I4.393215 J-6.438161
G03 X131.559287 Y155.472729 Z-0.600000 I8.517848 J-8.501721
G03 X131.598580 Y155.391645 Z-0.600000 I0.039293 J-0.031021
G03 X131.818860 Y155.445868 Z-0.600000 I0.000000 J0.474555
G03 X134.235150 Y156.773368 Z-0.600000 I-32.537088 J62.086167
G02 X136.667095 Y158.091833 Z-0.600000 I27.304901 J-47.462508
G02 X137.896390 Y158.640202 Z-0.600000 I5.889170 J-11.549872
G03 X139.128834 Y159.177300 Z-0.600000 I-5.579619 J14.485748
G03 X139.865660 Y159.601933 Z-0.600000 I-2.725667 J5.581183
G02 X140.608376 Y159.970439 Z-0.600000 I1.772356 J-2.639430
G02 X141.257980 Y160.078542 Z-0.600000 I0.649604 J-1.897719
G03 X141.901162 Y160.218795 Z-0.600000 I0.000000 J1.544903
G03 X144.013790 Y161.340408 Z-0.600000 I-8.491721 J18.545122
G02 X146.105426 Y162.536858 Z-0.600000 I23.079660 J-37.921377
G02 X146.365670 Y162.602263 Z-0.600000 I0.260244 J-0.485047
G02 X146.530165 Y162.191285 Z-0.600000 I0.000000 J-0.238409
G02 X144.194560 Y160.532729 Z-0.600000 I-6.888264 J7.226370
G03 X137.745847 Y156.748274 Z-0.600000 I29.833085 J-58.222126
G03 X137.691080 Y156.198240 Z-0.600000 I0.198269 J-0.297485
G03 X137.864075 Y156.164525 Z-0.600000 I0.111475 J0.111305
G03 X139.940160 Y157.152214 Z-0.600000 I-10.479549 J24.703389
G02 X142.060507 Y158.202916 Z-0.600000 I20.628255 J-38.963599
G02 X143.474020 Y158.786743 Z-0.600000 I7.730645 J-16.713739
G03 X147.402819 Y160.415502 Z-0.600000 I-17.026332 J46.622731
G03 X153.421910 Y163.419793 Z-0.600000 I-52.427790 J112.570736
G02 X158.411135 Y165.677326 Z-0.600000 I19.803068 J-37.123514
G02 X158.767500 Y165.430634 Z-0.600000 I0.092797 J-0.246692
G03 X158.909267 Y165.330075 Z-0.600000 I0.106548 J0.000000
G03 X159.539550 Y165.701029 Z-0.600000 I-0.623550 J1.780396
G02 X159.856163 Y165.804171 Z-0.600000 I0.276283 J-0.310580
G02 X159.932730 Y165.662699 Z-0.600000 I-0.009412 J-0.096549
G02 X158.877011 Y164.389044 Z-0.600000 I-3.506845 J1.832422
G02 X156.510090 Y162.961768 Z-0.600000 I-6.842052 J8.670280
G03 X154.945294 Y162.075982 Z-0.600000 I3.725721 J-8.406765
G03 X154.442100 Y161.507077 Z-0.600000 I0.943936 J-1.341896
G02 X153.405546 Y160.322939 Z-0.600000 I-3.064974 J1.637223
G02 X145.819200 Y155.307623 Z-0.600000 I-67.740058 J94.220682
G03 X144.699801 Y154.453346 Z-0.600000 I3.419675 J-5.641500
G03 X144.753781 Y154.352302 Z-0.600000 I0.040872 J-0.043106
G03 X145.417138 Y154.573517 Z-0.600000 I-0.777714 J3.437350
G03 X147.798040 Y155.755341 Z-0.600000 I-13.764423 J30.718986
G02 X150.474128 Y157.135024 Z-0.600000 I29.812973 J-54.541268
G02 X153.315830 Y158.432971 Z-0.600000 I29.217226 J-60.207907
G03 X156.126168 Y159.779945 Z-0.600000 I-14.684059 J34.242186
G03 X158.070060 Y160.961362 Z-0.600000 I-9.321348 J17.527195
G02 X160.020405 Y162.103456 Z-0.600000 I8.711509 J-12.640229
G02 X161.518170 Y162.652907 Z-0.600000 I3.369023 J-6.867600
G03 X162.949452 Y163.154469 Z-0.600000 I-2.065501 J8.187188
G03 X163.085660 Y163.366083 Z-0.600000 I-0.096280 J0.211614
G02 X163.200498 Y163.568973 Z-0.600000 I0.236646 J0.000000
G02 X163.614900 Y163.683815 Z-0.600000 I0.414402 J-0.690251
G03 X166.517417 Y164.570203 Z-0.600000 I0.000000 J5.195406
G03 X167.403810 Y166.235998 Z-0.600000 I-1.122065 J1.665795
G02 X167.516613 Y166.389057 Z-0.600000 I0.160243 J0.000000
G02 X168.970550 Y166.721580 Z-0.600000 I2.918722 J-9.417061
G03 X170.421310 Y167.167956 Z-0.600000 I-0.757797 J5.043636
G03 X171.307170 Y167.844109 Z-0.600000 I-1.190505 J2.478118
G02 X172.153609 Y168.563455 Z-0.600000 I2.777109 J-2.410096
G02 X172.745150 Y168.731246 Z-0.600000 I0.591541 J-0.958835
G03 X173.366069 Y168.876490 Z-0.600000 I-0.000000 J1.399840
G03 X174.845490 Y169.770739 Z-0.600000 I-4.563066 J9.219891
G02 X176.339618 Y170.672536 Z-0.600000 I6.052502 J-8.339335
G02 X177.496550 Y171.078440 Z-0.600000 I2.250054 J-4.561505
G03 X178.697738 Y171.395977 Z-0.600000 I-3.191829 J14.504870
G03 X179.266940 Y171.626618 Z-0.600000 I-1.073633 J3.467319
G02 X184.980157 Y174.278708 Z-0.600000 I40.622565 J-80.030600
G02 X186.071890 Y174.499731 Z-0.600000 I1.091733 J-2.585765
G02 X186.350461 Y174.407823 Z-0.600000 I-0.000000 J-0.468123
G02 X186.535660 Y174.156327 Z-0.600000 I-0.315794 J-0.426486
G03 X187.841396 Y173.401383 Z-0.600000 I1.091550 J0.381263
G03 X191.871150 Y175.162126 Z-0.600000 I-1.820824 J9.659012
G02 X192.947072 Y175.871831 Z-0.600000 I7.049061 J-9.516065
G02 X193.208240 Y175.943161 Z-0.600000 I0.263556 J-0.451197
G03 X193.484438 Y175.989500 Z-0.600000 I-0.004039 J0.870362
G03 X196.281500 Y176.988337 Z-0.600000 I-31.510530 J92.655298
G02 X198.989433 Y177.915550 Z-0.600000 I17.755741 J-47.437918
G02 X199.070320 Y177.856005 Z-0.600000 I0.018526 J-0.059545
G02 X198.802415 Y177.310974 Z-0.600000 I-0.688363 J-0.000000
G02 X196.101580 Y175.565817 Z-0.600000 I-11.786960 J15.279196
G03 X194.802150 Y174.815614 Z-0.600000 I10.602220 J-19.864625
G03 X194.752160 Y174.725599 Z-0.600000 I0.056048 J-0.090015
G03 X194.810266 Y174.667721 Z-0.600000 I0.057879 J0.000000
G03 X196.641350 Y174.732799 Z-0.600000 I-0.113921 J28.998179
G01 X198.530540 Y174.860362 Z-0.600000
G01 X197.091160 Y174.148525 Z-0.600000
G02 X195.629363 Y173.529243 Z-0.600000 I-6.013373 J12.159483
G02 X195.066100 Y173.427245 Z-0.600000 I-0.591676 J1.661158
G03 X194.543226 Y173.287029 Z-0.600000 I0.017584 J-1.110593
G03 X193.993620 Y172.830104 Z-0.600000 I0.943252 J-1.693584
G03 X194.056456 Y172.575862 Z-0.600000 I0.125417 J-0.103889
G03 X194.759220 Y172.511441 Z-0.600000 I0.454412 J1.091740
G03 X200.834019 Y174.462075 Z-0.600000 I-6.771069 J31.521517
G03 X203.005340 Y176.093643 Z-0.600000 I-2.327740 J5.358403
G02 X203.538633 Y176.531017 Z-0.600000 I1.390889 J-1.152106
G02 X204.062270 Y176.663906 Z-0.600000 I0.526169 J-0.975210
G03 X204.613055 Y176.781673 Z-0.600000 I-0.003196 J1.361813
G03 X205.883900 Y177.475100 Z-0.600000 I-3.659732 J8.218454
G02 X207.119895 Y178.284889 Z-0.600000 I8686.480066 J-13259.965577
G02 X208.042980 Y178.889526 Z-0.600000 I4928.714389 J-7522.257110
G02 X209.011452 Y179.349600 Z-0.600000 I2.160986 J-3.299578
G02 X210.045640 Y179.524735 Z-0.600000 I1.141212 J-3.597914
G03 X211.113158 Y179.637437 Z-0.600000 I-0.198572 J6.993024
G03 X213.104330 Y180.087599 Z-0.600000 I-4.578103 J24.878818
G02 X215.090827 Y180.561123 Z-0.600000 I9.239138 J-34.355890
G02 X215.623260 Y180.612129 Z-0.600000 I0.497569 J-2.389479
G02 X215.750164 Y180.157950 Z-0.600000 I-0.003509 J-0.245799
G02 X212.530290 Y178.676454 Z-0.600000 I-7.366583 J11.770713
G03 X209.127144 Y177.326476 Z-0.600000 I7.355391 J-23.506598
G03 X207.610600 Y176.287624 Z-0.600000 I2.712344 J-5.585925
G02 X206.936966 Y175.752025 Z-0.600000 I-3.788769 J4.073794
G02 X206.171220 Y175.314856 Z-0.600000 I-3.270130 J4.838736
G02 X194.363377 Y169.907989 Z-0.600000 I-202.122804 J425.811207
G02 X192.952930 Y169.481056 Z-0.600000 I-2.450516 J5.552411
G03 X191.919334 Y169.042816 Z-0.600000 I0.424164 J-2.438396
G03 X191.581900 Y168.481818 Z-0.600000 I0.495701 J-0.680139
G02 X190.846858 Y167.319608 Z-0.600000 I-1.662192 J0.237712
G02 X188.929870 Y166.725418 Z-0.600000 I-1.974834 J2.981840
G03 X187.616719 Y166.512434 Z-0.600000 I0.074678 J-4.615033
G03 X186.928690 Y166.094491 Z-0.600000 I0.508169 J-1.611859
G03 X186.653844 Y165.623971 Z-0.600000 I0.762210 J-0.760765
G03 X186.758420 Y165.486108 Z-0.600000 I0.104576 J-0.029268
G02 X186.959493 Y165.096587 Z-0.600000 I0.000000 J-0.246658
G02 X185.721120 Y164.026163 Z-0.600000 I-2.803681 J1.992028
G03 X184.420064 Y163.245222 Z-0.600000 I5.075748 J-9.930507
G03 X184.408110 Y163.111065 Z-0.600000 I0.050242 J-0.072088
G03 X184.587632 Y163.067354 Z-0.600000 I0.125634 J0.125479
G03 X185.612490 Y163.494521 Z-0.600000 I-1.948710 J6.118348
G02 X186.681772 Y163.933618 Z-0.600000 I2.918530 J-5.585656
G02 X187.395360 Y164.041769 Z-0.600000 I0.720998 J-2.348974
G03 X188.085546 Y164.193516 Z-0.600000 I-0.004090 J1.664055
G03 X189.338250 Y164.933341 Z-0.600000 I-2.949381 J6.424497
G02 X190.549478 Y165.626177 Z-0.600000 I3.554224 J-4.808393
G02 X190.902060 Y165.599363 Z-0.600000 I0.150447 J-0.353241
G02 X190.953263 Y164.938994 Z-0.600000 I-0.216052 J-0.348922
G02 X189.509670 Y164.404519 Z-0.600000 I-1.443593 J1.682304
G03 X189.134868 Y164.293705 Z-0.600000 I-0.000000 J-0.689243
G03 X188.588860 Y163.807879 Z-0.600000 I1.310721 J-2.022826
G02 X188.024902 Y163.305770 Z-0.600000 I-1.921626 J1.590561
G02 X186.893920 Y162.708222 Z-0.600000 I-3.896808 J6.006429
G03 X185.973716 Y162.085053 Z-0.600000 I1.087620 J-2.597031
G03 X185.890930 Y161.687983 Z-0.600000 I0.267450 J-0.262927
G02 X185.575712 Y160.927388 Z-0.600000 I-0.558796 J-0.214031
G02 X183.500230 Y160.622562 Z-0.600000 I-1.581242 J3.548155
G03 X182.301208 Y160.549702 Z-0.600000 I-0.408298 J-3.183125
G03 X181.330440 Y160.070899 Z-0.600000 I0.641944 J-2.525049
G02 X180.400478 Y159.426944 Z-0.600000 I-5.669158 J7.193594
G02 X180.149950 Y159.357089 Z-0.600000 I-0.250528 J0.414316
G03 X179.901673 Y159.287888 Z-0.600000 I-0.000000 J-0.479981
G03 X179.307090 Y158.847665 Z-0.600000 I2.045680 J-3.384622
G02 X178.692745 Y158.406461 Z-0.600000 I-2.338461 J2.607823
G02 X176.040130 Y157.000319 Z-0.600000 I-27.164060 J48.038524
G03 X173.393484 Y155.584372 Z-0.600000 I21.493183 J-43.355911
G03 X172.621590 Y155.032687 Z-0.600000 I2.412169 J-4.190845
G02 X171.868653 Y154.451323 Z-0.600000 I-5.110594 J5.840586
G02 X170.960670 Y153.905651 Z-0.600000 I-5.404648 J7.964918
G03 X166.452945 Y151.369514 Z-0.600000 I45.784461 J-86.651286
G03 X166.431580 Y151.197730 Z-0.600000 I0.056338 J-0.094227
G03 X166.633047 Y151.156084 Z-0.600000 I0.132297 J0.131868
G03 X169.205690 Y152.303560 Z-0.600000 I-12.973312 J32.543853
G02 X171.811970 Y153.541375 Z-0.600000 I39.119366 J-79.004993
G02 X172.029790 Y153.588603 Z-0.600000 I0.217820 J-0.478691
G02 X172.309170 Y152.871482 Z-0.600000 I0.000000 J-0.412982
G02 X165.911920 Y147.968750 Z-0.600000 I-30.641988 J33.357660
G03 X157.866599 Y142.659200 Z-0.600000 I139.195352 J-219.666525
G03 X157.687960 Y142.319770 Z-0.600000 I0.233152 J-0.339430
G03 X158.047599 Y142.105513 Z-0.600000 I0.243642 J0.000000
G03 X160.939740 Y144.080250 Z-0.600000 I-8.117966 J14.994575
G02 X162.060853 Y144.785517 Z-0.600000 I3.055239 J-3.612983
G02 X164.882070 Y145.846010 Z-0.600000 I10.015419 J-22.361041
G02 X165.279259 Y145.788029 Z-0.600000 I0.137485 J-0.447613
G02 X165.312850 Y145.558880 Z-0.600000 I-0.086456 J-0.129710
G02 X164.789812 Y145.059305 Z-0.600000 I-2.395438 J1.984353
G02 X162.256970 Y143.255350 Z-0.600000 I-34.605017 J45.907056
G03 X159.685930 Y141.487984 Z-0.600000 I83.741138 J-124.574475
G03 X158.110200 Y140.340880 Z-0.600000 I33.678479 J-47.918576
G02 X156.526510 Y139.247365 Z-0.600000 I-13.929474 J18.479904
G02 X156.249700 Y139.167360 Z-0.600000 I-0.276810 J0.438864
G03 X155.676553 Y138.988656 Z-0.600000 I-0.000000 J-1.008461
G03 X145.728050 Y131.899620 Z-0.600000 I237.284620 J-343.522085
G02 X141.135155 Y128.545417 Z-0.600000 I-567.641803 J772.447616
G02 X139.348860 Y127.269840 Z-0.600000 I-83.846057 J115.528016
G03 X137.644280 Y125.958558 Z-0.600000 I14.279416 J-20.325859
G03 X137.544630 Y125.753190 Z-0.600000 I0.180103 J-0.214251
G03 X137.644003 Y125.694213 Z-0.600000 I0.066068 J-0.001886
G03 X139.965520 Y127.165040 Z-0.600000 I-18.904662 J32.406191
G02 X156.401120 Y138.399220 Z-0.600000 I3151.033858 J-4592.321603
G02 X157.328110 Y138.987370 Z-0.600000 I9.532648 J-13.999905
G02 X157.439983 Y138.936720 Z-0.600000 I0.038134 J-0.064647
G02 X157.381710 Y138.705000 Z-0.600000 I-0.279148 J-0.052987
G02 X156.832611 Y138.170725 Z-0.600000 I-2.514777 J2.035246
G02 X151.847110 Y134.471040 Z-0.600000 I-129.080983 J168.733814
G03 X146.800131 Y130.835971 Z-0.600000 I4797.407234 J-6666.107309
G03 X145.957380 Y130.225580 Z-0.600000 I133.742938 J-185.542322
G03 X145.231882 Y129.552192 Z-0.600000 I2.451455 J-3.368676
G03 X145.104690 Y129.220500 Z-0.600000 I0.409170 J-0.347135
G02 X144.960166 Y128.916161 Z-0.600000 I-0.417096 J0.011584
G02 X144.151340 Y128.397670 Z-0.600000 I-2.220193 J2.573304
G03 X138.551332 Y124.725851 Z-0.600000 I9.176031 J-20.100940
G03 X137.536610 Y122.448480 Z-0.600000 I2.048224 J-2.277371
G03 X137.738588 Y122.333802 Z-0.600000 I0.133544 J0.000000
G03 X147.432390 Y128.353720 Z-0.600000 I-165.178323 J276.799567
G02 X153.638751 Y132.253560 Z-0.600000 I160.220909 J-248.093502
G02 X153.729710 Y132.202550 Z-0.600000 I0.031176 J-0.051010
G02 X153.258049 Y131.233002 Z-0.600000 I-1.232332 J0.000000
G02 X143.487840 Y124.167120 Z-0.600000 I-95.137726 J121.262082
G03 X141.551364 Y122.811145 Z-0.600000 I27.416147 J-41.213896
G03 X141.494920 Y122.699480 Z-0.600000 I0.082233 J-0.111665
G03 X141.752243 Y122.548001 Z-0.600000 I0.173248 J0.000000
G03 X143.746170 Y123.949010 Z-0.600000 I-5.599494 J10.088632
G02 X144.373491 Y124.365909 Z-0.600000 I1.886655 J-2.158484
G02 X144.541320 Y124.337830 Z-0.600000 I0.064273 J-0.131440
G02 X144.540224 Y123.889761 Z-0.600000 I-0.223902 J-0.223489
G02 X140.235460 Y120.066000 Z-0.600000 I-36.790703 J37.083711
G03 X137.527904 Y117.726147 Z-0.600000 I26.806047 J-33.755021
G03 X137.454620 Y117.453460 Z-0.600000 I0.183730 J-0.195568
G02 X137.481559 Y117.122816 Z-0.600000 I-0.760765 J-0.228403
G02 X137.005970 Y113.996370 Z-0.600000 I-71.651492 J9.300102
G03 X136.541264 Y110.858578 Z-0.600000 I60.499229 J-10.563218
G03 X136.458220 Y109.499350 Z-0.600000 I11.237393 J-1.368718
G02 X136.293231 Y108.172266 Z-0.600000 I-5.462348 J0.005306
G02 X135.777950 Y106.795370 Z-0.600000 I-6.395896 J1.608694
G03 X135.124747 Y105.445783 Z-0.600000 I35.135276 J-17.838424
G03 X134.518400 Y104.061550 Z-0.600000 I36.352497 J-16.748697
G03 X134.324957 Y103.189950 Z-0.600000 I2.359957 J-0.981036
G03 X134.477800 Y103.114230 Z-0.600000 I0.093199 J-0.003994
G02 X134.855633 Y102.903202 Z-0.600000 I0.148261 J-0.178306
G02 X134.297950 Y101.852440 Z-0.600000 I-1.734591 J0.247246
G03 X133.700840 Y101.145569 Z-0.600000 I2.346100 J-2.587436
G03 X133.578260 Y100.726060 Z-0.600000 I0.656560 J-0.419509
G02 X133.176847 Y99.149543 Z-0.600000 I-3.296524 J0.000000
G02 X130.996210 Y95.984410 Z-0.600000 I-16.160451 J8.800087
G03 X130.182444 Y94.712998 Z-0.600000 I4.151861 J-3.553526
G03 X129.753510 Y93.280420 Z-0.600000 I4.873020 J-2.239554
G02 X129.224177 Y91.910351 Z-0.600000 I-3.362324 J0.511761
G02 X127.305040 Y89.594390 Z-0.600000 I-11.880294 J7.891555
G03 X125.171144 Y87.358941 Z-0.600000 I30.449133 J-31.202075
G03 X123.619120 Y85.448290 Z-0.600000 I20.671547 J-18.377205
G02 X117.873651 Y78.740738 Z-0.600000 I-50.288926 J37.261378
G02 X114.609030 Y76.320430 Z-0.600000 I-9.431789 J9.310137
G03 X114.012523 Y75.919201 Z-0.600000 I1.549883 J-2.948241
G03 X112.320070 Y74.391530 Z-0.600000 I21.594835 J-25.625493
G02 X110.607298 Y72.890650 Z-0.600000 I-16.242148 J16.807470
G02 X109.538520 Y72.184110 Z-0.600000 I-4.598726 J5.794818
G03 X108.415381 Y71.547507 Z-0.600000 I16.896624 J-31.119221
G03 X106.686990 Y70.498410 Z-0.600000 I44.162587 J-74.706379
G02 X104.891559 Y69.710120 Z-0.600000 I-3.626035 J5.819946
G02 X102.901350 Y69.449710 Z-0.600000 I-1.918148 J6.924260
G03 X100.989097 Y69.311978 Z-0.600000 I-0.116443 J-11.726933
G03 X100.832220 Y69.128920 Z-0.600000 I0.028366 J-0.183058
G02 X100.255907 Y68.196754 Z-0.600000 I-1.042029 J0.000000
G02 X95.083943 Y66.257050 Z-0.600000 I-11.830880 J23.680442
G02 X90.699044 Y65.525542 Z-0.600000 I-6.292090 J24.208826
G02 X85.539992 Y65.527210 Z-0.600000 I-2.568664 J33.590425
G01 X85.539959 Y65.528040 Z-0.600000
G00 Z5.000000

(Change tool to Cylindrical cutter)

G00 Z5.000000
G00 X110.963440 Y78.291330

G01 Z-0.600000 F100.0(Penetrate)
G02 X112.340860 Y78.807979 Z-0.600000 I1.693621 J-2.420835 F400.000000
G02 X112.707130 Y78.479020 Z-0.600000 I0.035410 J-0.328959
G03 X113.245175 Y77.952872 Z-0.600000 I0.526279 J0.000000
G03 X114.572150 Y78.520720 Z-0.600000 I-0.043282 J1.935538
G03 X114.661360 Y78.866719 Z-0.600000 I-0.249251 J0.248766
G03 X114.386610 Y79.166570 Z-0.600000 I-0.438468 J-0.125963
G02 X114.134637 Y79.824795 Z-0.600000 I0.170110 J0.442460
G02 X115.439990 Y81.227200 Z-0.600000 I3.118926 J-1.594373
G03 X116.810205 Y82.324843 Z-0.600000 I-3.474476 J5.741332
G03 X116.895090 Y82.745280 Z-0.600000 I-0.289166 J0.277169
G02 X116.855860 Y83.209183 Z-0.600000 I0.782791 J0.299806
G02 X117.041000 Y83.475910 Z-0.600000 I0.399640 J-0.079778
G03 X117.280235 Y83.747415 Z-0.600000 I-0.328641 J0.530733
G03 X117.385130 Y84.229800 Z-0.600000 I-1.056735 J0.482385
G03 X117.250389 Y84.528670 Z-0.600000 I-0.398833 J0.000000
G03 X117.025280 Y84.547770 Z-0.600000 I-0.125406 J-0.141921
G02 X116.827129 Y84.703120 Z-0.600000 I-0.070593 J0.114006
G02 X117.755630 Y86.801090 Z-0.600000 I10.590777 J-3.432726
G02 X118.971191 Y88.466020 Z-0.600000 I8.093428 J-4.632787
G02 X119.488760 Y88.693870 Z-0.600000 I0.517569 J-0.473912
G03 X120.522974 Y89.110951 Z-0.600000 I-0.000000 J1.490782
G03 X122.047320 Y91.158330 Z-0.600000 I-5.418638 J5.625523
G03 X121.860543 Y91.696795 Z-0.600000 I-0.349822 J0.180284
G03 X121.038720 Y91.617450 Z-0.600000 I-0.342169 J-0.751683
G02 X119.955564 Y90.911161 Z-0.600000 I-8.973665 J12.578194
G02 X119.758540 Y90.857060 Z-0.600000 I-0.197024 J0.331711
G02 X119.493801 Y91.208547 Z-0.600000 I0.000000 J0.275444
G02 X120.813300 Y94.529060 Z-0.600000 I17.454783 J-5.013720
G03 X121.968234 Y96.916550 Z-0.600000 I-44.948483 J23.216642
G01 X121.923350 Y96.986080 Z-0.600000
G03 X120.919282 Y96.448244 Z-0.600000 I-0.000000 J-1.206148
G03 X116.826110 Y89.328020 Z-0.600000 I52.200776 J-34.745057
G02 X114.216011 Y84.992809 Z-0.600000 I-26.524118 J13.016028
G02 X110.422780 Y80.502770 Z-0.600000 I-32.264446 J23.410039
G01 X107.165530 Y77.178830 Z-0.600000
G01 X108.586900 Y77.400940 Z-0.600000
G03 X109.953275 Y77.759661 Z-0.600000 I-1.074055 J6.872736
G03 X110.963440 Y78.291310 Z-0.600000 I-1.593331 J4.252933
G01 X110.963440 Y78.291330 Z-0.600000
G00 Z5.000000

(Change tool to Cylindrical cutter)

G00 Z5.000000
G00 X76.460748 Y84.052900

G01 Z-0.600000 F100.0(Penetrate)
G03 X75.204026 Y84.405225 Z-0.600000 I-0.941092 J-0.939329 F400.000000
G03 X74.563396 Y83.589200 Z-0.600000 I0.199405 J-0.816025
G03 X74.639554 Y83.284274 Z-0.600000 I0.648522 J-0.000000
G03 X75.013202 Y82.744900 Z-0.600000 I2.494486 J1.328932
G03 X75.459040 Y82.601802 Z-0.600000 I0.342813 J0.301993
G03 X76.107101 Y82.998100 Z-0.600000 I-0.271158 J1.171452
G03 X76.531198 Y83.752669 Z-0.600000 I-1.765175 J1.488559
G03 X76.460748 Y84.052900 Z-0.600000 I-0.277901 J0.093171
G01 X76.460748 Y84.052900 Z-0.600000
G00 Z5.000000

(Change tool to Cylindrical cutter)

G00 Z5.000000
G00 X85.178866 Y90.689550

G01 Z-0.600000 F100.0(Penetrate)
G03 X87.544406 Y91.901591 Z-0.600000 I-3.611811 J9.963605 F400.000000
G03 X87.877712 Y92.532870 Z-0.600000 I-0.431166 J0.631279
G03 X87.683405 Y92.719256 Z-0.600000 I-0.186548 J0.000000
G03 X86.816047 Y92.488670 Z-0.600000 I0.086205 J-2.070855
G02 X85.729818 Y92.039387 Z-0.600000 I-3.153454 J6.086363
G02 X85.077036 Y91.938610 Z-0.600000 I-0.652782 J2.063806
G03 X84.499297 Y91.733370 Z-0.600000 I0.000000 J-0.915772
G03 X83.192598 Y90.406350 Z-0.600000 I5.330520 J-6.555746
G03 X82.609157 Y89.515527 Z-0.600000 I4.790371 J-3.773907
G01 X82.682559 Y89.455690 Z-0.600000
G02 X83.433027 Y89.944355 Z-0.600000 I2.433800 J-2.917113
G02 X85.178866 Y90.689490 Z-0.600000 I7.561606 J-15.298915
G01 X85.178866 Y90.689550 Z-0.600000
G00 Z5.000000

(Change tool to Cylindrical cutter)

G00 Z5.000000
G00 X91.162590 Y91.668280

G01 Z-0.600000 F100.0(Penetrate)
G03 X91.162938 Y91.951225 Z-0.600000 I-0.266624 J0.141801 F400.000000
G03 X90.995324 Y91.984660 Z-0.600000 I-0.097415 J-0.051502
G03 X90.486785 Y91.447410 Z-0.600000 I1.933605 J-2.339581
G03 X90.396644 Y91.173470 Z-0.600000 I0.371187 J-0.273940
G03 X90.604220 Y91.060444 Z-0.600000 I0.134559 J0.000000
G03 X91.162590 Y91.668280 Z-0.600000 I-0.890441 J1.378360
G01 X91.162590 Y91.668280 Z-0.600000
G00 Z5.000000

(Change tool to Cylindrical cutter)

G00 Z5.000000
G00 X95.074648 Y94.978730

G01 Z-0.600000 F100.0(Penetrate)
G01 X95.025353 Y95.024538 Z-0.600000 F400.000000
G03 X94.085069 Y94.906030 Z-0.600000 I0.666939 J-9.081262
G03 X92.303242 Y94.112049 Z-0.600000 I0.718418 J-4.008601
G03 X91.836029 Y93.156770 Z-0.600000 I0.742990 J-0.955279
G03 X92.019946 Y93.030411 Z-0.600000 I0.135366 J0.000000
G03 X93.455338 Y93.778990 Z-0.600000 I-2.555066 J6.649773
G03 X95.033022 Y94.896008 Z-0.600000 I-25.144814 J37.187402
G03 X95.074648 Y94.978650 Z-0.600000 I-0.061225 J0.082642
G01 X95.074648 Y94.978730 Z-0.600000
G00 Z5.000000

(Change tool to Cylindrical cutter)

G00 Z5.000000
G00 X96.514033 Y95.904510

G01 Z-0.600000 F100.0(Penetrate)
G03 X96.607621 Y96.124361 Z-0.600000 I-0.116063 J0.179251 F400.000000
G03 X96.445283 Y96.259520 Z-0.600000 I-0.163852 J-0.031731
G03 X95.900039 Y96.150477 Z-0.600000 I-0.012163 J-1.356881
G03 X95.614391 Y95.904510 Z-0.600000 I0.244896 J-0.573254
G03 X95.741741 Y95.676322 Z-0.600000 I0.127350 J-0.078558
G03 X96.514003 Y95.904510 Z-0.600000 I0.000000 J1.420886
G01 X96.514033 Y95.904510 Z-0.600000
G00 Z5.000000

(Change tool to Cylindrical cutter)

G00 Z5.000000
G00 X128.769250 Y98.592910

G01 Z-0.600000 F100.0(Penetrate)
G03 X130.933183 Y100.798747 Z-0.600000 I-27.042013 J28.692629 F400.000000
G03 X130.879380 Y100.919680 Z-0.600000 I-0.053584 J0.048595
G03 X130.563169 Y100.807297 Z-0.600000 I0.001867 J-0.506304
G03 X128.000600 Y98.594960 Z-0.600000 I32.325162 J-40.032813
G03 X125.830065 Y96.405944 Z-0.600000 I23.466896 J-25.439379
G03 X125.890470 Y96.268190 Z-0.600000 I0.061039 J-0.055355
G03 X126.248928 Y96.393082 Z-0.600000 I0.005004 J0.562499
G03 X128.769250 Y98.592910 Z-0.600000 I-27.531175 J34.085871
G01 X128.769250 Y98.592910 Z-0.600000
G00 Z5.000000

(Change tool to Cylindrical cutter)

G00 Z5.000000
G00 X145.093320 Y133.780350

G01 Z-0.600000 F100.0(Penetrate)
G01 X146.352780 Y134.862660 Z-0.600000 F400.000000
G01 X145.019170 Y134.252220 Z-0.600000
G03 X143.793861 Y133.540158 Z-0.600000 I3.040197 J-6.641816
G03 X143.501120 Y133.160210 Z-0.600000 I0.488552 J-0.679168
G03 X143.711620 Y132.950893 Z-0.600000 I0.151587 J-0.058060
G03 X145.093320 Y133.780350 Z-0.600000 I-1.736199 J4.457677
G01 X145.093320 Y133.780350 Z-0.600000
G00 Z5.000000

(Change tool to Cylindrical cutter)

G00 Z5.000000
G00 X151.210710 Y137.694000

G01 Z-0.600000 F100.0(Penetrate)
G03 X152.786224 Y138.578802 Z-0.600000 I-9.491817 J18.746623 F400.000000
G03 X153.549710 Y139.143250 Z-0.600000 I-3.056192 J4.932460
G02 X154.301284 Y139.728847 Z-0.600000 I5.541221 J-6.336689
G02 X155.708790 Y140.637150 Z-0.600000 I14.804501 J-21.396356
G03 X156.604989 Y141.405588 Z-0.600000 I-1.818431 J3.027583
G03 X156.527910 Y141.621410 Z-0.600000 I-0.102304 J0.085138
G03 X155.954186 Y141.548098 Z-0.600000 I-0.175367 J-0.909188
G03 X154.548760 Y140.678120 Z-0.600000 I3.252044 J-6.823797
G02 X153.147158 Y139.678438 Z-0.600000 I-11.982412 J15.317509
G02 X150.670940 Y138.163560 Z-0.600000 I-30.083844 J46.393784
G03 X148.242110 Y136.600358 Z-0.600000 I14.695358 J-25.501466
G03 X147.252400 Y135.718130 Z-0.600000 I3.608429 J-5.044300
G01 X146.352780 Y134.724240 Z-0.600000
G01 X147.972090 Y135.799170 Z-0.600000
G02 X149.619113 Y136.826490 Z-0.600000 I18.953031 J-28.552010
G02 X151.210710 Y137.694000 Z-0.600000 I15.092575 J-25.796143
G01 X151.210710 Y137.694000 Z-0.600000
G00 Z5.000000

(Change tool to Cylindrical cutter)

G00 Z5.000000
G00 X125.503930 Y155.670224

G01 Z-0.600000 F100.0(Penetrate)
G03 X125.286753 Y155.704348 Z-0.600000 I-0.131965 J-0.131716 F400.000000
G03 X124.663450 Y155.238367 Z-0.600000 I1.067770 J-2.078125
G03 X124.665580 Y155.052766 Z-0.600000 I0.096200 J-0.091709
G03 X124.882760 Y155.018642 Z-0.600000 I0.131966 J0.131717
G03 X125.506059 Y155.484622 Z-0.600000 I-1.067787 J2.078137
G03 X125.503930 Y155.670224 Z-0.600000 I-0.096200 J0.091710
G01 X125.503930 Y155.670224 Z-0.600000
G00 Z5.000000

(Change tool to Cylindrical cutter)

G00 Z5.000000
G00 X128.743970 Y156.863668

G01 Z-0.600000 F100.0(Penetrate)
G03 X129.789011 Y157.601106 Z-0.600000 I-4.747899 J7.837559 F400.000000
G03 X130.543210 Y158.331665 Z-0.600000 I-3.903840 J4.784744
G03 X130.466179 Y158.482436 Z-0.600000 I-0.068824 J0.059900
G03 X129.799830 Y158.264525 Z-0.600000 I0.140729 J-1.558105
G03 X128.373314 Y157.377732 Z-0.600000 I30.627648 J-50.859132
G03 X127.100990 Y156.533368 Z-0.600000 I26.474839 J-41.274188
G03 X126.648568 Y156.051939 Z-0.600000 I0.876140 J-1.276647
G03 X126.741140 Y155.932169 Z-0.600000 I0.069750 J-0.041749
G03 X127.612280 Y156.260018 Z-0.600000 I-1.735110 J5.931715
G03 X128.743970 Y156.863640 Z-0.600000 I-4.949222 J10.641641
G01 X128.743970 Y156.863668 Z-0.600000
G00 Z5.000000

(Change tool to Cylindrical cutter)

G00 Z5.000000
G00 X182.517360 Y162.602690

G01 Z-0.600000 F100.0(Penetrate)
G03 X182.454711 Y162.900567 Z-0.600000 I-0.739481 J-0.000000 F400.000000
G03 X182.358680 Y162.963223 Z-0.600000 I-0.096031 J-0.042264
G03 X182.228816 Y162.911524 Z-0.600000 I-0.000000 J-0.188956
G03 X181.977590 Y162.602690 Z-0.600000 I1.053943 J-1.113943
G03 X181.960589 Y162.356783 Z-0.600000 I0.225574 J-0.139137
G03 X182.136280 Y162.242157 Z-0.600000 I0.175691 J0.077331
G03 X182.408852 Y162.350661 Z-0.600000 I0.000000 J0.396614
G03 X182.517360 Y162.602690 Z-0.600000 I-0.238436 J0.252029
G01 X182.517360 Y162.602690 Z-0.600000
G00 Z5.000000

(Change tool to Cylindrical cutter)

G00 Z5.000000
G00 X183.859290 Y162.820514

G01 Z-0.600000 F100.0(Penetrate)
G03 X183.618840 Y162.926097 Z-0.600000 I-0.255314 J-0.254854 F400.000000
G03 X183.169590 Y162.848924 Z-0.600000 I-0.044768 J-1.085593
G03 X183.146546 Y162.736697 Z-0.600000 I0.025550 J-0.063725
G03 X183.387000 Y162.631100 Z-0.600000 I0.255330 J0.254843
G03 X183.836266 Y162.708254 Z-0.600000 I0.044772 J1.085902
G03 X183.859290 Y162.820452 Z-0.600000 I-0.025544 J0.063703
G01 X183.859290 Y162.820514 Z-0.600000
G00 Z5.000000

(Change tool to Cylindrical cutter)

G00 Z5.000000
G00 X103.189190 Y68.101390

G01 Z-0.600000 F100.0(Penetrate)
G02 X106.322350 Y70.161516 Z-0.600000 I7.638456 J-8.204403 F400.000000
G02 X106.949580 Y69.751830 Z-0.600000 I0.179819 J-0.409686
G02 X106.202955 Y68.529773 Z-0.600000 I-1.373428 J-0.000000
G02 X103.111190 Y67.783120 Z-0.600000 I-3.091765 J6.027911
G02 X103.048957 Y67.862447 Z-0.600000 I0.000000 J0.064075
G02 X103.189190 Y68.101390 Z-0.600000 I0.469914 J-0.115165
G01 X103.189190 Y68.101390 Z-0.600000
G00 Z5.000000

(Change tool to Cylindrical cutter)

G00 Z5.000000
G00 X107.309430 Y70.101200

G01 Z-0.600000 F100.0(Penetrate)
G02 X107.377234 Y70.240820 Z-0.600000 I0.177652 J0.000000 F400.000000
G02 X108.029120 Y70.667360 Z-0.600000 I2.765075 J-3.514481
G02 X108.674481 Y70.929063 Z-0.600000 I1.541656 J-2.875143
G02 X108.748820 Y70.872990 Z-0.600000 I0.016022 J-0.056073
G02 X108.681018 Y70.733373 Z-0.600000 I-0.177650 J0.000000
G02 X108.029120 Y70.306830 Z-0.600000 I-2.764665 J3.513891
G02 X107.383771 Y70.045125 Z-0.600000 I-1.541516 J2.874737
G02 X107.309430 Y70.101200 Z-0.600000 I-0.016022 J0.056075
G01 X107.309430 Y70.101200 Z-0.600000
G00 Z5.000000

(Change tool to Cylindrical cutter)

G00 Z5.000000
G00 X52.055688 Y85.122100

G01 Z-0.600000 F100.0(Penetrate)
G02 X51.585609 Y86.220815 Z-0.600000 I7.360497 J3.799063 F400.000000
G02 X51.622107 Y86.379420 Z-0.600000 I0.145229 J0.050082
G02 X51.737657 Y86.367916 Z-0.600000 I0.053072 J-0.052990
G02 X52.362513 Y85.264330 Z-0.600000 I-7.450023 J-4.946933
G02 X52.816865 Y84.112650 Z-0.600000 I-8.170659 J-3.888891
G02 X52.783044 Y84.035826 Z-0.600000 I-0.060528 J-0.019209
G02 X52.699853 Y84.058152 Z-0.600000 I-0.028241 J0.060924
G02 X52.055688 Y85.122100 Z-0.600000 I7.495636 J5.265197
G01 X52.055688 Y85.122100 Z-0.600000
G00 Z5.000000

(Change tool to Cylindrical cutter)

G00 Z5.000000
G00 X50.512125 Y88.529070

G01 Z-0.600000 F100.0(Penetrate)
G02 X50.504139 Y88.922977 Z-0.600000 I0.453482 J0.206228 F400.000000
G02 X50.676163 Y88.932410 Z-0.600000 I0.088238 J-0.035887
G02 X51.118324 Y87.925278 Z-0.600000 I-5.895232 J-3.188811
G02 X51.080056 Y87.759170 Z-0.600000 I-0.152204 J-0.052397
G02 X50.959137 Y87.768175 Z-0.600000 I-0.056591 J0.056454
G02 X50.512125 Y88.529070 Z-0.600000 I3.408948 J2.514446
G01 X50.512125 Y88.529070 Z-0.600000
G00 Z5.000000

(Change tool to Cylindrical cutter)

G00 Z5.000000
G00 X49.219912 Y92.144690

G01 Z-0.600000 F100.0(Penetrate)
G02 X49.067465 Y93.080972 Z-0.600000 I5.480262 J1.372856 F400.000000
G02 X49.133482 Y93.259860 Z-0.600000 I0.227581 J0.017639
G02 X49.240116 Y93.242137 Z-0.600000 I0.046988 J-0.046943
G02 X49.528355 Y92.453720 Z-0.600000 I-3.595030 J-1.761212
G02 X49.680803 Y91.517410 Z-0.600000 I-5.480489 J-1.372886
G02 X49.614785 Y91.338550 Z-0.600000 I-0.227523 J-0.017634
G02 X49.508131 Y91.356247 Z-0.600000 I-0.047011 J0.046912
G02 X49.219912 Y92.144690 Z-0.600000 I3.596458 J1.761604
G01 X49.219912 Y92.144690 Z-0.600000
G00 Z5.000000

(Change tool to Cylindrical cutter)

G00 Z5.000000
G00 X82.120171 Y94.163600

G01 Z-0.600000 F100.0(Penetrate)
G02 X82.218968 Y94.547862 Z-0.600000 I0.796675 J0.000000 F400.000000
G02 X82.715710 Y95.245190 Z-0.600000 I3.249682 J-1.789322
G03 X82.898908 Y95.721312 Z-0.600000 I-0.527109 J0.476122
G03 X82.715710 Y95.904510 Z-0.600000 I-0.183198 J0.000000
G02 X82.292123 Y96.076454 Z-0.600000 I0.000000 J0.607729
G02 X82.120171 Y96.483390 Z-0.600000 I0.395545 J0.406936
G03 X81.985153 Y97.013098 Z-0.600000 I-1.106591 J0.000000
G03 X81.220559 Y98.133440 Z-0.600000 I-5.981986 J-3.261417
G02 X80.520110 Y99.277147 Z-0.600000 I3.457839 J2.904055
G02 X80.320937 Y100.258540 Z-0.600000 I2.318244 J0.981393
G03 X80.076923 Y101.068462 Z-0.600000 I-1.466137 J-0.000000
G03 X79.622487 Y101.312470 Z-0.600000 I-0.454436 J-0.301162
G03 X78.990605 Y101.193180 Z-0.600000 I-0.000000 J-1.733191
G03 X78.701627 Y100.951930 Z-0.600000 I0.216547 J-0.553087
G02 X78.249915 Y100.874710 Z-0.600000 I-0.259859 J0.160295
G02 X77.583279 Y101.855280 Z-0.600000 I1.284374 J1.590065
G02 X77.510615 Y103.065185 Z-0.600000 I2.405996 J0.751633
G02 X78.027658 Y104.258800 Z-0.600000 I2.854727 J-0.527801
G02 X80.128327 Y106.135725 Z-0.600000 I5.521992 J-4.066252
G02 X82.300096 Y106.718330 Z-0.600000 I2.179830 J-3.786582
G03 X84.953691 Y107.260110 Z-0.600000 I-0.013396 J6.835046
G03 X89.831543 Y109.910330 Z-0.600000 I-11.199390 J26.427063
G02 X92.883606 Y110.796097 Z-0.600000 I2.898694 J-4.286863
G02 X94.143486 Y109.782500 Z-0.600000 I-0.039706 J-1.339155
G03 X94.371778 Y108.956865 Z-0.600000 I17.096241 J4.282822
G03 X94.559927 Y108.407410 Z-0.600000 I7.755433 J2.348732
G02 X94.492655 Y107.950483 Z-0.600000 I-0.440196 J-0.168607
G02 X93.442088 Y106.961530 Z-0.600000 I-3.639713 J2.813987
G03 X90.763981 Y104.425434 Z-0.600000 I6.496209 J-9.542051
G03 X91.055414 Y103.836190 Z-0.600000 I0.291433 J-0.222552
G03 X91.301265 Y103.930466 Z-0.600000 I-0.000000 J0.367701
G03 X92.458803 Y105.098040 Z-0.600000 I-9.586298 J10.661476
G02 X93.900880 Y106.183413 Z-0.600000 I3.372411 J-2.980053
G02 X94.167243 Y105.909230 Z-0.600000 I0.086586 J-0.182357
G01 X94.220306 Y105.865807 Z-0.600000
G03 X94.848434 Y106.450030 Z-0.600000 I-3.433428 J4.321234
G02 X95.839035 Y107.385258 Z-0.600000 I7.088927 J-6.516415
G02 X95.963453 Y107.366190 Z-0.600000 I0.053627 J-0.065528
G02 X95.979186 Y107.192003 Z-0.600000 I-0.155133 J-0.101816
G02 X95.288550 Y105.779450 Z-0.600000 I-13.387005 J5.670159
G03 X94.806681 Y103.947373 Z-0.600000 I3.321914 J-1.853132
G03 X95.275800 Y103.475650 Z-0.600000 I0.469119 J-0.002597
G02 X95.569993 Y103.051734 Z-0.600000 I0.000000 J-0.314041
G02 X94.264984 Y100.769160 Z-0.600000 I-7.638605 J2.852855
G02 X91.614503 Y98.378492 Z-0.600000 I-8.945938 J7.253569
G02 X86.746328 Y95.861210 Z-0.600000 I-14.841899 J22.736837
G03 X84.395410 Y94.840597 Z-0.600000 I14.070393 J-35.628186
G03 X83.517103 Y94.328960 Z-0.600000 I2.583526 J-5.444727
G02 X82.409968 Y93.906075 Z-0.600000 I-1.391980 J1.983564
G02 X82.120162 Y94.163600 Z-0.600000 I-0.030483 J0.257525
G01 X82.120171 Y94.163600 Z-0.600000
G00 Z5.000000

(Change tool to Cylindrical cutter)

G00 Z5.000000
G00 X48.711256 Y94.822910

G01 Z-0.600000 F100.0(Penetrate)
G02 X48.798595 Y95.273570 Z-0.600000 I1.206347 J-0.000000 F400.000000
G02 X48.892758 Y95.273570 Z-0.600000 I0.047082 J-0.018961
G02 X48.980096 Y94.822910 Z-0.600000 I-1.119020 J-0.450660
G02 X48.892758 Y94.372250 Z-0.600000 I-1.206358 J0.000000
G02 X48.798603 Y94.372248 Z-0.600000 I-0.047078 J0.018959
G02 X48.711256 Y94.822910 Z-0.600000 I1.118905 J0.450662
G01 X48.711256 Y94.822910 Z-0.600000
G00 Z5.000000

(Change tool to Cylindrical cutter)

G00 Z5.000000
G00 X48.323001 Y96.835880

G01 Z-0.600000 F100.0(Penetrate)
G02 X48.428443 Y97.076648 Z-0.600000 I0.361555 J-0.014867 F400.000000
G02 X48.540407 Y97.053690 Z-0.600000 I0.048425 J-0.048335
G02 X48.617440 Y96.603453 Z-0.600000 I-1.014799 J-0.405335
G02 X48.511997 Y96.362690 Z-0.600000 I-0.361545 J0.014869
G02 X48.400039 Y96.385641 Z-0.600000 I-0.048424 J0.048329
G02 X48.322999 Y96.835880 Z-0.600000 I1.014831 J0.405356
G01 X48.323001 Y96.835880 Z-0.600000
G00 Z5.000000

(Change tool to Cylindrical cutter)

G00 Z5.000000
G00 X48.042578 Y99.870340

G01 Z-0.600000 F100.0(Penetrate)
G02 X48.117109 Y100.861800 Z-0.600000 I6.631783 J0.000000 F400.000000
G01 X48.192487 Y100.861800 Z-0.600000
G02 X48.267018 Y99.870349 Z-0.600000 I-6.557165 J-0.991451
G02 X48.192487 Y98.878880 Z-0.600000 I-6.631935 J0.000000
G01 X48.117107 Y98.878880 Z-0.600000
G02 X48.042578 Y99.870340 Z-0.600000 I6.557397 J0.991460
G01 X48.042578 Y99.870340 Z-0.600000
G00 Z5.000000

(Change tool to Cylindrical cutter)

G00 Z5.000000
G00 X47.692979 Y106.179630

G01 Z-0.600000 F100.0(Penetrate)
G02 X47.765688 Y107.344022 Z-0.600000 I9.535955 J-0.010992 F400.000000
G01 X47.837514 Y107.343310 Z-0.600000
G02 X47.907313 Y105.984008 Z-0.600000 I-12.907701 J-1.344247
G02 X47.834514 Y104.819600 Z-0.600000 I-9.525353 J0.011050
G01 X47.762687 Y104.820311 Z-0.600000
G02 X47.692882 Y106.179630 Z-0.600000 I12.909370 J1.344386
G01 X47.692979 Y106.179630 Z-0.600000
G00 Z5.000000

(Change tool to Cylindrical cutter)

G00 Z5.000000
G00 X95.493853 Y109.417140

G01 Z-0.600000 F100.0(Penetrate)
G02 X95.759811 Y110.331707 Z-0.600000 I2.848081 J-0.332274 F400.000000
G02 X96.064227 Y110.598370 Z-0.600000 I0.466203 J-0.225117
G02 X96.615161 Y110.169842 Z-0.600000 I0.131415 J-0.399463
G02 X95.943659 Y108.858170 Z-0.600000 I-1.869874 J0.129548
G02 X95.646444 Y108.887920 Z-0.600000 I-0.133969 J0.161114
G02 X95.493853 Y109.417140 Z-0.600000 I0.555046 J0.446646
G01 X95.493853 Y109.417140 Z-0.600000
G00 Z5.000000

(Change tool to Cylindrical cutter)

G00 Z5.000000
G00 X52.708133 Y110.000410

G01 Z-0.600000 F100.0(Penetrate)
G02 X50.956463 Y112.215068 Z-0.600000 I0.943849 J2.546598 F400.000000
G02 X51.683209 Y118.323330 Z-0.600000 I12.792543 J1.575338
G02 X53.805902 Y122.942109 Z-0.600000 I33.341683 J-12.525967
G02 X54.418936 Y123.304840 Z-0.600000 I0.613034 J-0.336664
G03 X54.616077 Y123.427357 Z-0.600000 I-0.000000 J0.219868
G03 X54.950730 Y124.381760 Z-0.600000 I-3.742870 J1.848276
G02 X56.650797 Y127.779798 Z-0.600000 I7.557404 J-1.656735
G02 X58.688327 Y128.712790 Z-0.600000 I2.037530 J-1.758350
G02 X59.636485 Y127.730730 Z-0.600000 I0.000000 J-0.948743
G02 X58.384359 Y120.062450 Z-0.600000 I-30.717510 J1.079384
G03 X58.118043 Y118.787164 Z-0.600000 I7.558207 J-2.243818
G03 X58.005032 Y116.997930 Z-0.600000 I14.816686 J-1.834033
G02 X57.404648 Y113.681855 Z-0.600000 I-9.617082 J0.028810
G02 X55.872275 Y111.248670 Z-0.600000 I-6.565007 J2.435392
G02 X54.023881 Y110.014111 Z-0.600000 I-3.776783 J3.653641
G02 X52.708133 Y110.000410 Z-0.600000 I-0.675782 J1.713015
G01 X52.708133 Y110.000410 Z-0.600000
G00 Z5.000000

(Change tool to Cylindrical cutter)

G00 Z5.000000
G00 X48.025493 Y111.587590

G01 Z-0.600000 F100.0(Penetrate)
G02 X48.107978 Y112.217001 Z-0.600000 I2.540385 J-0.012811 F400.000000
G01 X48.189250 Y112.214320 Z-0.600000
G02 X48.264477 Y111.401588 Z-0.600000 I-4.124957 J-0.791658
G02 X48.182050 Y110.772200 Z-0.600000 I-2.541477 J0.012751
G01 X48.100776 Y110.774881 Z-0.600000
G02 X48.025554 Y111.587590 Z-0.600000 I4.124196 J0.791558
G01 X48.025493 Y111.587590 Z-0.600000
G00 Z5.000000

(Change tool to Cylindrical cutter)

G00 Z5.000000
G00 X48.682847 Y114.862410

G01 Z-0.600000 F100.0(Penetrate)
G02 X48.788290 Y115.103186 Z-0.600000 I0.361574 J-0.014868 F400.000000
G02 X48.900254 Y115.080230 Z-0.600000 I0.048426 J-0.048333
G02 X48.977286 Y114.629981 Z-0.600000 I-1.014876 J-0.405346
G02 X48.871844 Y114.389220 Z-0.600000 I-0.361541 J0.014868
G02 X48.759885 Y114.412171 Z-0.600000 I-0.048425 J0.048329
G02 X48.682845 Y114.862410 Z-0.600000 I1.014828 J0.405356
G01 X48.682847 Y114.862410 Z-0.600000
