%
(Header)
(Generated by gcodetools from Inkscape.)
(Using default header. To add your own header create file "header" in the output dir.)
M3
(Header end.)
G21 (All units in mm)

(Start cutting path id: path70856)
(Change tool to Cylindrical cutter)

G00 Z5.000000
G00 X110.828150 Y23.629970

G01 Z-0.300000 F100.0(Penetrate)
G03 X108.372355 Y27.624909 Z-0.300000 I-20.794633 J-10.030723 F400.000000
G03 X106.739390 Y28.976090 Z-0.300000 I-3.746220 J-2.865133
G02 X106.012022 Y29.597061 Z-0.300000 I0.894004 J1.783666
G02 X105.664260 Y30.475350 Z-0.300000 I1.581782 J1.134306
G03 X102.675515 Y41.000204 Z-0.300000 I-37.589306 J-4.987460
G03 X98.390988 Y46.698530 Z-0.300000 I-14.691713 J-6.586670
G03 X97.131997 Y47.729371 Z-0.300000 I-31.403475 J-37.069570
G03 X96.745188 Y48.000660 Z-0.300000 I-2.541196 J-3.211884
G02 X96.606954 Y48.321491 Z-0.300000 I0.160385 J0.259299
G02 X97.084498 Y49.647350 Z-0.300000 I4.859338 J-1.001290
G01 X97.826708 Y51.044840 Z-0.300000
G01 X97.797708 Y54.361010 Z-0.300000
G03 X97.667843 Y57.652158 Z-0.300000 I-53.652467 J-0.468923
G03 X97.532628 Y58.133960 Z-0.300000 I-1.235187 J-0.086774
G02 X97.396977 Y58.615181 Z-0.300000 I1.105123 J0.571251
G02 X97.295318 Y61.404540 Z-0.300000 I38.669630 J2.805861
G03 X96.976603 Y68.932246 Z-0.300000 I-89.630694 J-0.024269
G03 X96.250988 Y73.769130 Z-0.300000 I-37.776935 J-3.194314
G02 X95.877289 Y75.641095 Z-0.300000 I56.812031 J12.314633
G02 X95.489208 Y77.940740 Z-0.300000 I85.366437 J15.588738
G03 X95.067887 Y80.230981 Z-0.300000 I-40.838425 J-6.328917
G03 X94.729828 Y81.501630 Z-0.300000 I-12.885184 J-2.747833
G02 X94.283655 Y83.804722 Z-0.300000 I9.441538 J3.023851
G02 X94.497838 Y84.684310 Z-0.300000 I1.472421 J0.107331
G02 X94.681962 Y84.734439 Z-0.300000 I0.118725 J-0.072867
G02 X95.286978 Y84.264760 Z-0.300000 I-1.053966 J-1.982177
G03 X95.970602 Y83.658225 Z-0.300000 I3.194686 J2.912202
G03 X96.850498 Y83.148990 Z-0.300000 I3.107312 J4.354259
G01 X97.788518 Y82.719380 Z-0.300000
G01 X97.224428 Y82.365010 Z-0.300000
G03 X96.888009 Y81.711843 Z-0.300000 I0.383780 J-0.610890
G03 X97.327128 Y80.615580 Z-0.300000 I1.860649 J0.109223
G02 X98.228969 Y78.963449 Z-0.300000 I-3.548655 J-3.009294
G02 X99.397858 Y73.825120 Z-0.300000 I-34.883012 J-10.637454
G03 X100.153015 Y69.627438 Z-0.300000 I79.181354 J12.077849
G03 X100.605310 Y68.006820 Z-0.300000 I12.205285 J2.532923
G02 X100.991984 Y66.380127 Z-0.300000 I-7.426425 J-2.624605
G02 X101.327560 Y62.352100 Z-0.300000 I-45.662475 J-5.832147
G02 X101.448310 Y58.289412 Z-0.300000 I-214.236054 J-8.400624
G02 X101.512270 Y53.223810 Z-0.300000 I-332.845740 J-6.735796
G01 X101.537670 Y48.157350 Z-0.300000
G01 X102.092820 Y47.625070 Z-0.300000
G02 X102.596295 Y47.051145 Z-0.300000 I-3.064124 J-3.195795
G02 X103.479170 Y45.738640 Z-0.300000 I-15.313036 J-11.253726
G03 X105.359436 Y43.346699 Z-0.300000 I11.232776 J6.894909
G03 X106.512020 Y42.684350 Z-0.300000 I1.785422 J1.772888
G02 X106.963981 Y42.439642 Z-0.300000 I-0.269609 J-1.037675
G02 X107.495620 Y41.789330 Z-0.300000 I-1.927525 J-2.118248
G03 X108.004896 Y41.086808 Z-0.300000 I4.185562 J2.498366
G03 X108.453530 Y40.689140 Z-0.300000 I1.755107 J1.528146
G02 X108.834884 Y40.279619 Z-0.300000 I-0.704319 J-1.038199
G02 X108.959680 Y39.815070 Z-0.300000 I-0.802237 J-0.464549
G03 X109.254149 Y38.471539 Z-0.300000 I3.212204 J-0.000000
G03 X110.284370 Y36.938220 Z-0.300000 I5.263271 J2.423580
G03 X110.928374 Y36.681988 Z-0.300000 I0.593841 J0.555114
G03 X111.172300 Y36.993120 Z-0.300000 I-0.016321 J0.263980
G02 X111.247004 Y38.599712 Z-0.300000 I3.535636 J0.640631
G02 X112.049230 Y40.135000 Z-0.300000 I4.014596 J-1.120491
G01 X112.799870 Y41.042980 Z-0.300000
G01 X112.258150 Y41.868380 Z-0.300000
G02 X111.785856 Y42.714550 Z-0.300000 I5.653399 J3.710362
G02 X111.716380 Y43.027050 Z-0.300000 I0.668608 J0.312621
G02 X111.755714 Y43.354829 Z-0.300000 I1.384134 J0.000151
G02 X112.278990 Y45.336340 Z-0.300000 I51.817023 J-12.623951
G01 X112.841650 Y47.312360 Z-0.300000
G01 X112.486160 Y50.605740 Z-0.300000
G02 X112.211049 Y55.500846 Z-0.300000 I47.455630 J5.122351
G02 X112.456760 Y56.782630 Z-0.300000 I3.382149 J0.016102
G03 X113.171829 Y60.446164 Z-0.300000 I-9.125861 J3.682789
G03 X112.472760 Y64.942780 Z-0.300000 I-14.627223 J0.028619
G02 X112.240933 Y66.051167 Z-0.300000 I5.181508 J1.662188
G02 X112.317820 Y66.457390 Z-0.300000 I0.721552 J0.073817
G03 X112.446210 Y66.874781 Z-0.300000 I-1.098274 J0.566271
G03 X112.872140 Y71.024660 Z-0.300000 I-111.930285 J13.584964
G02 X113.347293 Y75.171084 Z-0.300000 I68.601384 J-5.760828
G02 X113.686340 Y76.623400 Z-0.300000 I8.698763 J-1.265017
G03 X114.220695 Y80.044616 Z-0.300000 I-10.377517 J3.373187
G03 X113.658440 Y82.951660 Z-0.300000 I-7.977874 J-0.035115
G02 X113.489355 Y84.193796 Z-0.300000 I2.427504 J0.963018
G02 X113.891030 Y85.115360 Z-0.300000 I1.669834 J-0.179497
G03 X114.043099 Y85.603982 Z-0.300000 I-0.481097 J0.417701
G03 X113.753450 Y86.343660 Z-0.300000 I-1.525697 J-0.170894
G02 X113.367902 Y87.149751 Z-0.300000 I1.916688 J1.411988
G02 X113.185880 Y88.500270 Z-0.300000 I5.354632 J1.409219
G03 X113.110954 Y89.895373 Z-0.300000 I-16.132371 J-0.166846
G03 X113.007130 Y90.340890 Z-0.300000 I-1.729814 J-0.168264
G03 X112.801856 Y90.347761 Z-0.300000 I-0.104067 J-0.039270
G03 X111.717410 Y87.511950 Z-0.300000 I22.115407 J-10.082436
G01 X111.449460 Y86.654130 Z-0.300000
G01 X110.928230 Y87.951070 Z-0.300000
G02 X110.019822 Y91.297191 Z-0.300000 I13.774278 J5.535820
G02 X110.193210 Y92.879680 Z-0.300000 I3.095245 J0.461609
G03 X110.565709 Y94.331788 Z-0.300000 I-6.088554 J2.335683
G03 X110.813480 Y97.415390 Z-0.300000 I-27.512078 J3.762387
G03 X110.695045 Y100.457039 Z-0.300000 I-24.021603 J0.587785
G03 X110.446380 Y100.991940 Z-0.300000 I-0.897930 J-0.092180
G01 X110.003060 Y101.450950 Z-0.300000
G01 X109.374100 Y100.987250 Z-0.300000
G02 X108.435125 Y100.816474 Z-0.300000 I-0.643852 J0.873321
G02 X107.795410 Y101.433480 Z-0.300000 I0.255947 J0.905500
G03 X107.442512 Y102.111922 Z-0.300000 I-2.176079 J-0.700904
G03 X107.006910 Y102.475720 Z-0.300000 I-1.004250 J-0.759775
G03 X106.462721 Y102.569123 Z-0.300000 I-0.423868 J-0.837569
G03 X105.433170 Y102.272320 Z-0.300000 I0.453087 J-3.505724
G02 X103.279070 Y101.861586 Z-0.300000 I-1.900528 J4.113376
G02 X101.558830 Y102.489480 Z-0.300000 I0.176827 J3.154869
G03 X100.607563 Y103.135412 Z-0.300000 I-7.276866 J-9.693233
G03 X100.413920 Y103.189950 Z-0.300000 I-0.193643 J-0.316509
G02 X100.230390 Y103.255270 Z-0.300000 I0.000000 J0.290495
G02 X99.514298 Y103.923200 Z-0.300000 I4.637022 J5.689204
G03 X98.723528 Y104.482331 Z-0.300000 I-1.761108 J-1.651953
G03 X96.463408 Y105.262080 Z-0.300000 I-5.913346 J-13.474594
G03 X92.100613 Y105.967728 Z-0.300000 I-6.067649 J-23.674622
G03 X90.761001 Y105.660840 Z-0.300000 I-0.164861 J-2.357602
G02 X89.958671 Y105.270284 Z-0.300000 I-3.302182 J5.764356
G02 X89.284116 Y105.060990 Z-0.300000 I-1.566173 J3.856092
G03 X88.662596 Y104.801449 Z-0.300000 I0.403691 J-1.840664
G03 X88.267059 Y104.401520 Z-0.300000 I0.715009 J-1.102716
G03 X88.193517 Y103.894026 Z-0.300000 I0.530963 J-0.336018
G03 X88.797607 Y102.531180 Z-0.300000 I5.108670 J1.449142
G02 X89.570942 Y101.129232 Z-0.300000 I-12.587581 J-7.857759
G02 X90.295929 Y99.430260 Z-0.300000 I-17.783821 J-8.592899
G02 X91.841518 Y94.545079 Z-0.300000 I-47.911932 J-17.845616
G02 X91.708918 Y94.038200 Z-0.300000 I-0.517106 J-0.135509
G01 X91.645992 Y94.035769 Z-0.300000
G02 X90.572028 Y95.046090 Z-0.300000 I16.576894 J18.697090
G03 X89.437195 Y96.009229 Z-0.300000 I-6.526991 J-6.540393
G03 X88.886320 Y96.257460 Z-0.300000 I-0.888515 J-1.236425
G02 X88.440904 Y96.569991 Z-0.300000 I0.159360 J0.700783
G02 X87.880090 Y97.824850 Z-0.300000 I3.859009 J2.477394
G03 X87.391079 Y99.209029 Z-0.300000 I-10.152328 J-2.808205
G03 X86.893758 Y100.098300 Z-0.300000 I-4.654671 J-2.019407
G03 X86.173946 Y100.742441 Z-0.300000 I-1.733396 J-1.212770
G03 X84.873656 Y101.200960 Z-0.300000 I-2.065074 J-3.783267
G02 X82.935225 Y101.814265 Z-0.300000 I1.412599 J7.834688
G02 X81.265199 Y102.875430 Z-0.300000 I3.173909 J6.839691
G03 X79.719112 Y103.525599 Z-0.300000 I-1.825548 J-2.177747
G03 X77.640038 Y103.233670 Z-0.300000 I-0.437873 J-4.430925
G02 X73.743522 Y102.203862 Z-0.300000 I-6.250341 J15.763013
G02 X68.244596 Y101.916720 Z-0.300000 I-4.393810 J31.346629
G03 X67.714960 Y101.911565 Z-0.300000 I-0.207197 J-5.922959
G03 X65.699907 Y101.778140 Z-0.300000 I4.701371 J-86.285283
G03 X63.729027 Y101.463785 Z-0.300000 I0.966619 J-12.395815
G03 X62.391337 Y100.973690 Z-0.300000 I1.496777 J-6.156005
G02 X59.738089 Y100.040540 Z-0.300000 I-5.019805 J10.034334
G02 X56.399704 Y99.680830 Z-0.300000 I-3.372764 J15.630611
G02 X54.882245 Y99.854121 Z-0.300000 I-0.012401 J6.622027
G02 X54.771302 Y100.061250 Z-0.300000 I0.035549 J0.152318
G03 X54.913226 Y100.446144 Z-0.300000 I-40.207108 J15.044369
G03 X55.668706 Y102.531280 Z-0.300000 I-1179.840552 J428.655719
G02 X56.465140 Y104.599146 Z-0.300000 I49.835942 J-18.006910
G02 X57.106759 Y106.044210 Z-0.300000 I24.964819 J-10.219579
G03 X57.711314 Y107.500438 Z-0.300000 I-13.251175 J6.354848
G03 X58.271116 Y109.337580 Z-0.300000 I-20.557784 J7.268096
G02 X58.825945 Y111.178227 Z-0.300000 I22.684756 J-5.833959
G02 X59.603606 Y113.179850 Z-0.300000 I27.611401 J-9.575568
G03 X60.409432 Y115.173892 Z-0.300000 I-42.451283 J18.315118
G03 X61.467505 Y118.119920 Z-0.300000 I-91.619211 J34.568286
G02 X63.216737 Y122.699125 Z-0.300000 I64.333341 J-21.951296
G02 X64.120127 Y124.377330 Z-0.300000 I9.461112 J-4.010731
G03 X65.497664 Y126.986155 Z-0.300000 I-12.198179 J8.109105
G03 X65.515097 Y127.820370 Z-0.300000 I-1.085961 J0.439983
G03 X65.242228 Y128.078004 Z-0.300000 I-0.389426 J-0.139135
G03 X63.888391 Y128.298240 Z-0.300000 I-1.557085 J-5.300441
G02 X62.440588 Y128.443947 Z-0.300000 I0.422366 J11.462607
G02 X61.988901 Y128.612180 Z-0.300000 I0.205111 J1.241184
G03 X61.541726 Y128.819624 Z-0.300000 I-1.121704 J-1.832297
G03 X58.590311 Y129.736080 Z-0.300000 I-26.515386 J-80.181179
G03 X50.814540 Y131.690558 Z-0.300000 I-30.631780 J-105.421710
G03 X46.095266 Y132.395760 Z-0.300000 I-8.095444 J-38.031920
G02 X43.375132 Y132.749577 Z-0.300000 I2.808493 J32.224639
G02 X42.172203 Y133.076290 Z-0.300000 I1.141698 J6.581536
G03 X40.974985 Y133.440216 Z-0.300000 I-3.458445 J-9.226122
G03 X38.980665 Y133.828800 Z-0.300000 I-5.960524 J-25.279060
G02 X34.061751 Y134.909589 Z-0.300000 I6.111551 J39.548968
G02 X33.379056 Y135.435010 Z-0.300000 I0.322759 J1.125604
G02 X33.417293 Y135.558928 Z-0.300000 I0.074938 J0.044735
G02 X34.588129 Y135.995420 Z-0.300000 I3.407688 J-7.352145
G03 X38.816715 Y137.759009 Z-0.300000 I-5.488207 J19.110430
G03 X43.666099 Y141.080420 Z-0.300000 I-15.992465 J28.550444
G02 X45.131253 Y142.205817 Z-0.300000 I16.590876 J-20.083217
G02 X45.335941 Y142.271330 Z-0.300000 I0.204688 J-0.287005
G03 X45.549981 Y142.323419 Z-0.300000 I-0.000000 J0.465805
G03 X47.202764 Y143.237150 Z-0.300000 I-15.731829 J30.407844
G02 X48.842042 Y144.201772 Z-0.300000 I662.166465 J-1123.409285
G02 X51.173970 Y145.570080 Z-0.300000 I1331.816788 J-2267.068003
G03 X57.450521 Y149.915811 Z-0.300000 I-25.599109 J43.678354
G03 X60.047964 Y152.761688 Z-0.300000 I-8.119545 J10.019024
G01 X60.626886 Y153.626618 Z-0.300000
G01 X60.191171 Y154.832358 Z-0.300000
G03 X59.650955 Y155.974437 Z-0.300000 I-6.251924 J-2.258423
G03 X58.963752 Y156.894138 Z-0.300000 I-4.719172 J-2.809589
G03 X52.167055 Y163.336116 Z-0.300000 I-52.313045 J-48.387124
G03 X47.140280 Y166.709418 Z-0.300000 I-19.022155 J-22.914134
G03 X46.079303 Y167.260889 Z-0.300000 I-28.458829 J-53.455715
G03 X44.494250 Y168.051738 Z-0.300000 I-60.076059 J-118.423110
G02 X42.022140 Y169.526312 Z-0.300000 I7.769128 J15.834388
G02 X41.993771 Y169.835058 Z-0.300000 I0.118812 J0.166593
G02 X42.166637 Y169.925260 Z-0.300000 I0.221833 J-0.214385
G02 X44.853378 Y170.294698 Z-0.300000 I9.458987 J-58.836162
G03 X47.547864 Y170.705475 Z-0.300000 I-4.143419 J36.221284
G03 X49.265543 Y171.137188 Z-0.300000 I-2.887198 J15.120422
G02 X52.612212 Y171.939814 Z-0.300000 I7.530573 J-24.021309
G02 X55.056584 Y172.113218 Z-0.300000 I2.121116 J-12.585006
G03 X56.224510 Y172.236232 Z-0.300000 I0.114353 J4.520117
G03 X57.217698 Y172.631138 Z-0.300000 I-0.872094 J3.639698
G02 X58.211923 Y173.064421 Z-0.300000 I2.446493 J-4.256474
G02 X59.729871 Y173.409068 Z-0.300000 I2.991358 J-9.659879
G03 X61.244190 Y173.732595 Z-0.300000 I-1.756668 J11.928110
G03 X61.638388 Y173.947018 Z-0.300000 I-0.274708 J0.974590
G02 X62.027401 Y174.184142 Z-0.300000 I0.868192 J-0.986652
G02 X63.421628 Y174.645248 Z-0.300000 I4.977887 J-12.713030
G03 X65.395558 Y175.717469 Z-0.300000 I-1.282207 J4.713595
G03 X65.912054 Y176.872198 Z-0.300000 I-1.032565 J1.154729
G03 X65.854891 Y177.400323 Z-0.300000 I-2.468226 J-0.000000
G03 X65.270610 Y179.800598 Z-0.300000 I-52.143581 J-11.421666
G02 X64.657374 Y182.200099 Z-0.300000 I102.151222 J27.384703
G02 X64.236312 Y184.054658 Z-0.300000 I60.604914 J14.734919
G01 X63.843461 Y185.915958 Z-0.300000
G01 X65.661905 Y186.072798 Z-0.300000
G03 X71.084594 Y187.860468 Z-0.300000 I-1.065047 J12.349079
G03 X73.134104 Y190.662868 Z-0.300000 I-2.398768 J3.904963
G02 X74.104802 Y193.698049 Z-0.300000 I23.248813 J-5.762522
G02 X74.753710 Y194.764128 Z-0.300000 I3.417163 J-1.349449
G01 X75.520238 Y195.642598 Z-0.300000
G01 X75.381818 Y199.310891 Z-0.300000
G01 X75.243399 Y202.979183 Z-0.300000
G01 X76.650700 Y203.732453 Z-0.300000
G03 X77.996047 Y204.571983 Z-0.300000 I-5.635839 J10.529155
G03 X79.247995 Y205.603755 Z-0.300000 I-7.306340 J10.140926
G02 X80.471242 Y206.680297 Z-0.300000 I17.151219 J-18.255239
G02 X81.392250 Y207.370459 Z-0.300000 I7.945047 J-9.642904
G03 X82.465371 Y208.258702 Z-0.300000 I-4.154149 J6.111152
G03 X97.077468 Y223.068768 Z-0.300000 I-1165.986181 J1165.013606
G03 X100.308112 Y226.543109 Z-0.300000 I-72.956537 J71.078419
G03 X101.654550 Y228.226952 Z-0.300000 I-15.734647 J13.962012
G02 X103.011302 Y229.902045 Z-0.300000 I15.216900 J-10.938015
G02 X107.853630 Y235.038934 Z-0.300000 I148.655707 J-135.280697
G01 X112.791180 Y240.095885 Z-0.300000
G01 X114.533440 Y238.800815 Z-0.300000
G03 X117.459211 Y236.906452 Z-0.300000 I16.100481 J21.660022
G03 X118.322660 Y236.681382 Z-0.300000 I0.863449 J1.543716
G02 X118.508500 Y236.617332 Z-0.300000 I0.000000 J-0.301631
G02 X121.114840 Y234.497283 Z-0.300000 I-54.289734 J-69.404674
G02 X123.926921 Y231.741538 Z-0.300000 I-17.346986 J-20.514265
G02 X125.503810 Y229.515032 Z-0.300000 I-9.680399 J-8.527654
G03 X126.037782 Y229.003126 Z-0.300000 I1.105653 J0.618865
G03 X128.928820 Y227.783456 Z-0.300000 I10.286687 J20.346784
G02 X131.962524 Y226.731409 Z-0.300000 I-150.855536 J-439.910109
G02 X132.019370 Y226.699728 Z-0.300000 I-0.063209 J-0.180259
G02 X132.051183 Y226.646711 Z-0.300000 I-0.056420 J-0.069907
G02 X132.388840 Y224.769859 Z-0.300000 I-84.087662 J-16.096700
G03 X134.472124 Y218.707472 Z-0.300000 I19.343051 J3.257918
G03 X138.939130 Y212.639748 Z-0.300000 I23.845029 J12.876358
G03 X145.659464 Y207.177866 Z-0.300000 I27.157069 J26.548917
G03 X149.256660 Y206.052694 Z-0.300000 I3.871225 J6.063640
G02 X151.732031 Y205.158477 Z-0.300000 I-0.165068 J-4.330211
G02 X156.884700 Y200.190817 Z-0.300000 I-19.526755 J-25.410098
G03 X158.345623 Y198.617988 Z-0.300000 I14.572344 J12.070631
G03 X159.438600 Y197.736528 Z-0.300000 I5.609078 J5.836685
G02 X160.513485 Y196.849956 Z-0.300000 I-3.979012 J-5.919060
G02 X161.230000 Y195.937508 Z-0.300000 I-3.503860 J-3.489017
G03 X161.954038 Y195.044147 Z-0.300000 I3.701025 J2.259469
G03 X162.864230 Y194.394418 Z-0.300000 I2.815585 J2.981895
G02 X163.753733 Y193.782196 Z-0.300000 I-2.102029 J-4.006352
G02 X163.882600 Y193.496838 Z-0.300000 I-0.251510 J-0.285358
G03 X164.395385 Y192.365687 Z-0.300000 I1.503994 J0.000000
G03 X166.805220 Y190.935778 Z-0.300000 I5.045929 J5.758327
G02 X167.778827 Y190.407846 Z-0.300000 I-1.315957 J-3.588598
G02 X168.039820 Y190.012238 Z-0.300000 I-0.419304 J-0.560522
G02 X168.018695 Y189.265410 Z-0.300000 I-1.380543 J-0.334662
G02 X164.615490 Y178.717988 Z-0.300000 I-299.145603 J90.698825
G02 X160.236472 Y166.747044 Z-0.300000 I-289.295138 J99.038879
G02 X156.753800 Y158.540268 Z-0.300000 I-139.377729 J54.304744
G03 X155.457419 Y155.585370 Z-0.300000 I82.821063 J-38.097320
G03 X155.400300 Y155.300478 Z-0.300000 I0.681922 J-0.284892
G03 X155.509107 Y155.056490 Z-0.300000 I0.327961 J-0.000000
G03 X157.785950 Y153.157658 Z-0.300000 I26.989117 J30.047515
G02 X160.100263 Y151.234333 Z-0.300000 I-26.321537 J-34.026432
G02 X161.664560 Y149.697930 Z-0.300000 I-15.200785 J-17.041312
G03 X164.405592 Y147.196335 Z-0.300000 I16.108249 J14.897542
G03 X166.090030 Y146.297990 Z-0.300000 I3.537338 J4.604296
G01 X166.707030 Y146.090230 Z-0.300000
G01 X165.665910 Y145.686020 Z-0.300000
G03 X163.637972 Y144.613673 Z-0.300000 I3.584238 J-9.231941
G03 X160.970240 Y142.456340 Z-0.300000 I12.553329 J-18.251402
G02 X158.035639 Y140.288420 Z-0.300000 I-10.361955 J10.956271
G02 X155.018900 Y139.088310 Z-0.300000 I-5.881350 J10.392392
G03 X151.377747 Y136.775091 Z-0.300000 I1.626648 J-6.582760
G03 X148.931270 Y131.577330 Z-0.300000 I9.342139 J-7.571782
G02 X148.153824 Y128.910234 Z-0.300000 I-16.055622 J3.233281
G02 X146.828990 Y126.133780 Z-0.300000 I-18.734640 J7.235251
G03 X145.347984 Y122.854318 Z-0.300000 I15.989931 J-9.195200
G03 X142.702930 Y113.948300 Z-0.300000 I116.462340 J-39.434673
G02 X140.494557 Y108.104059 Z-0.300000 I-27.470868 J7.041102
G02 X139.678820 Y108.019360 Z-0.300000 I-0.435320 J0.222039
G01 X139.107350 Y108.728100 Z-0.300000
G01 X138.762990 Y108.038640 Z-0.300000
G03 X138.511214 Y107.323161 Z-0.300000 I2.725064 J-1.360987
G03 X138.293480 Y105.873340 Z-0.300000 I11.119406 J-2.411168
G02 X137.739915 Y104.075259 Z-0.300000 I-4.412554 J0.374217
G02 X136.714860 Y103.068990 Z-0.300000 I-2.249547 J1.266313
G03 X136.343080 Y102.645274 Z-0.300000 I0.383208 J-0.711201
G03 X135.949250 Y101.058330 Z-0.300000 I6.351939 J-2.418692
G02 X135.635326 Y99.373080 Z-0.300000 I-13.844175 J1.706995
G02 X135.162400 Y97.919940 Z-0.300000 I-10.751640 J2.695604
G03 X134.571319 Y95.927216 Z-0.300000 I10.131197 J-4.089135
G03 X134.739940 Y95.759220 Z-0.300000 I0.140607 J-0.027491
G03 X135.418986 Y96.252357 Z-0.300000 I-0.196287 J0.984376
G03 X136.675450 Y99.208110 Z-0.300000 I-12.819921 J7.194565
G02 X138.046431 Y102.109486 Z-0.300000 I10.354030 J-3.117965
G02 X138.657560 Y102.166130 Z-0.300000 I0.328598 J-0.220186
G02 X139.017330 Y101.318345 Z-0.300000 I-0.900511 J-0.882374
G02 X138.771590 Y98.011410 Z-0.300000 I-16.339015 J-0.448438
G02 X137.855151 Y93.915361 Z-0.300000 I-46.629053 J8.282114
G02 X137.368620 Y92.830200 Z-0.300000 I-3.669875 J0.993737
G03 X136.977823 Y91.822233 Z-0.300000 I2.184798 J-1.426806
G03 X136.875350 Y89.796880 Z-0.300000 I9.063019 J-1.473812
G02 X136.772971 Y87.800278 Z-0.300000 I-8.980485 J-0.540438
G02 X136.445940 Y87.178800 Z-0.300000 I-1.095487 J0.179679
G03 X136.118588 Y86.549477 Z-0.300000 I0.765347 J-0.797907
G03 X135.891020 Y83.582010 Z-0.300000 I19.233977 J-2.967467
G02 X135.725880 Y80.563046 Z-0.300000 I-27.677709 J-0.000000
G02 X135.478950 Y79.827160 Z-0.300000 I-1.812792 J0.198918
G03 X135.077929 Y78.646609 Z-0.300000 I2.559482 J-1.527816
G03 X134.510810 Y71.573550 Z-0.300000 I95.887610 J-11.247551
G02 X133.604448 Y62.997637 Z-0.300000 I-69.477877 J3.007051
G02 X131.432560 Y53.350210 Z-0.300000 I-90.168217 J15.231036
G02 X128.936102 Y46.171265 Z-0.300000 I-61.875150 J17.493371
G02 X127.390370 Y43.621900 Z-0.300000 I-9.136127 J3.796133
G03 X124.478535 Y39.657204 Z-0.300000 I30.052021 J-25.123069
G03 X121.443030 Y34.356190 Z-0.300000 I50.833077 J-32.628015
G02 X120.047457 Y31.796292 Z-0.300000 I-43.830065 J22.234375
G02 X119.122000 Y30.383810 Z-0.300000 I-14.236554 J8.318351
G03 X118.192166 Y28.975492 Z-0.300000 I14.281236 J-10.440225
G03 X117.419140 Y27.515950 Z-0.300000 I14.570297 J-8.651434
G02 X116.660102 Y26.047070 Z-0.300000 I-19.382814 J9.085437
G02 X115.884300 Y24.807630 Z-0.300000 I-14.565257 J8.254306
G02 X113.003361 Y21.160007 Z-0.300000 I-29.225540 J20.121189
G02 X112.318680 Y20.855580 Z-0.300000 I-0.684681 J0.617738
G02 X112.208035 Y20.921737 Z-0.300000 I0.000000 J0.125604
G02 X110.828150 Y23.629970 Z-0.300000 I61.443466 J33.012002
G01 X110.828150 Y23.629970 Z-0.300000
G00 Z5.000000

(Change tool to Cylindrical cutter)

G00 Z5.000000
G00 X111.821550 Y27.001320

G01 Z-0.300000 F100.0(Penetrate)
G03 X112.117591 Y28.399683 Z-0.300000 I-2.538578 J1.267948 F400.000000
G03 X111.740650 Y28.759680 Z-0.300000 I-0.376941 J-0.017342
G03 X110.982754 Y28.433075 Z-0.300000 I0.000000 J-1.042662
G03 X110.656160 Y27.611840 Z-0.300000 I0.869219 J-0.821235
G03 X110.933278 Y26.621659 Z-0.300000 I1.907587 J0.000000
G03 X111.425790 Y26.344540 Z-0.300000 I0.492512 J0.299102
G03 X111.475921 Y26.372859 Z-0.300000 I0.000000 J0.058531
G03 X111.821530 Y27.001320 Z-0.300000 I-7.763506 J4.678641
G01 X111.821550 Y27.001320 Z-0.300000
G00 Z5.000000

(Change tool to Cylindrical cutter)

G00 Z5.000000
G00 X116.791850 Y32.415760

G01 Z-0.300000 F100.0(Penetrate)
G03 X116.861034 Y33.963072 Z-0.300000 I-3.905637 J0.949833 F400.000000
G03 X116.328080 Y35.501060 Z-0.300000 I-4.389845 J-0.659864
G01 X115.895500 Y36.260150 Z-0.300000
G01 X115.364520 Y35.710380 Z-0.300000
G03 X115.079580 Y35.118603 Z-0.300000 I0.752568 J-0.726849
G03 X115.191320 Y34.379990 Z-0.300000 I1.342080 J-0.174723
G02 X115.370573 Y33.602351 Z-0.300000 I-1.797433 J-0.823805
G02 X115.224720 Y32.949910 Z-0.300000 I-1.387263 J-0.032400
G02 X114.862669 Y32.334336 Z-0.300000 I-4.669667 J2.332219
G02 X114.686780 Y32.163800 Z-0.300000 I-0.507030 J0.346971
G03 X114.319895 Y31.504169 Z-0.300000 I0.429043 J-0.670478
G03 X114.668980 Y30.855920 Z-0.300000 I0.757275 J-0.010321
G02 X114.807830 Y30.691285 Z-0.300000 I-0.195876 J-0.306067
G02 X115.008720 Y30.051860 Z-0.300000 I-3.241775 J-1.369749
G01 X115.152720 Y29.373050 Z-0.300000
G01 X115.848840 Y30.386790 Z-0.300000
G03 X116.451058 Y31.442482 Z-0.300000 I-6.018724 J4.132988
G03 X116.791870 Y32.415760 Z-0.300000 I-4.766545 J2.215405
G01 X116.791850 Y32.415760 Z-0.300000
G00 Z5.000000

(Change tool to Cylindrical cutter)

G00 Z5.000000
G00 X112.988820 Y30.831190

G01 Z-0.300000 F100.0(Penetrate)
G03 X112.698415 Y32.201766 Z-0.300000 I-3.379440 J-0.000000 F400.000000
G03 X112.251860 Y32.492170 Z-0.300000 I-0.446555 J-0.198132
G03 X111.783791 Y32.011860 Z-0.300000 I0.000000 J-0.468225
G03 X112.298660 Y30.680810 Z-0.300000 I2.119426 J0.054719
G03 X112.747188 Y30.531192 Z-0.300000 I0.350061 J0.302307
G03 X112.988860 Y30.831190 Z-0.300000 I-0.065364 J0.299998
G01 X112.988820 Y30.831190 Z-0.300000
G00 Z5.000000

(Change tool to Cylindrical cutter)

G00 Z5.000000
G00 X109.595900 Y31.976980

G01 Z-0.300000 F100.0(Penetrate)
G03 X109.198033 Y34.087868 Z-0.300000 I-5.798602 J-0.000000 F400.000000
G03 X108.104460 Y35.792820 Z-0.300000 I-4.802047 J-1.876889
G02 X107.755236 Y36.255578 Z-0.300000 I1.719683 J1.660925
G02 X106.849600 Y37.959600 Z-0.300000 I22.925843 J13.277055
G03 X105.705211 Y39.716465 Z-0.300000 I-7.547483 J-3.665138
G03 X105.269740 Y39.825340 Z-0.300000 I-0.293478 J-0.248511
G03 X105.154800 Y39.630768 Z-0.300000 I0.068132 J-0.171483
G03 X105.356640 Y39.136350 Z-0.300000 I1.022297 J0.128932
G02 X105.697989 Y38.553344 Z-0.300000 I-2.246471 J-1.706736
G02 X105.778870 Y38.164020 Z-0.300000 I-0.896568 J-0.389324
G03 X106.004562 Y37.135180 Z-0.300000 I2.457879 J-0.000000
G03 X107.134610 Y35.222600 Z-0.300000 I9.928800 J4.576296
G02 X107.746911 Y34.160408 Z-0.300000 I-4.394514 J-3.240797
G02 X108.019750 Y33.188370 Z-0.300000 I-3.394904 J-1.477218
G03 X108.683697 Y31.364052 Z-0.300000 I4.566832 J0.629086
G03 X109.423520 Y30.955260 Z-0.300000 I0.739823 J0.465062
G03 X109.516924 Y31.034223 Z-0.300000 I0.000000 J0.094724
G03 X109.595910 Y31.976980 Z-0.300000 I-5.586753 J0.942757
G01 X109.595900 Y31.976980 Z-0.300000
G00 Z5.000000

(Change tool to Cylindrical cutter)

G00 Z5.000000
G00 X122.225110 Y43.814940

G01 Z-0.300000 F100.0(Penetrate)
G02 X122.995578 Y45.634299 Z-0.300000 I24.205911 J-9.177980 F400.000000
G02 X123.366350 Y46.246950 Z-0.300000 I3.078898 J-1.444807
G03 X123.669164 Y46.868003 Z-0.300000 I-1.412288 J1.072954
G03 X123.803750 Y47.907030 Z-0.300000 I-3.943425 J1.039027
G02 X124.048390 Y48.886067 Z-0.300000 I2.081351 J0.000000
G02 X124.970060 Y50.095030 Z-0.300000 I4.167888 J-2.221643
G03 X125.992633 Y51.260564 Z-0.300000 I-5.747556 J6.073920
G03 X126.136380 Y51.703730 Z-0.300000 I-0.611258 J0.443166
G02 X126.370230 Y54.243136 Z-0.300000 I13.904778 J-0.000000
G02 X127.630780 Y59.748840 Z-0.300000 I67.061994 J-12.456918
G03 X128.185206 Y62.100433 Z-0.300000 I-33.355377 J9.105226
G03 X128.396020 Y63.591110 Z-0.300000 I-13.165983 J2.622198
G02 X128.681668 Y65.028092 Z-0.300000 I6.539825 J-0.553128
G02 X129.067810 Y65.702320 Z-0.300000 I1.759010 J-0.559726
G03 X129.392447 Y66.367980 Z-0.300000 I-1.002087 J0.900702
G03 X129.378980 Y67.458790 Z-0.300000 I-2.878482 J0.509950
G02 X129.390495 Y68.541170 Z-0.300000 I2.536611 J0.514265
G02 X129.796900 Y69.316340 Z-0.300000 I1.650968 J-0.371448
G01 X130.448120 Y70.023170 Z-0.300000
G01 X130.118260 Y71.941320 Z-0.300000
G01 X129.788400 Y73.859480 Z-0.300000
G01 X130.620140 Y75.845220 Z-0.300000
G02 X131.506229 Y77.802377 Z-0.300000 I34.793401 J-14.573311
G02 X132.016380 Y78.709190 Z-0.300000 I7.952809 J-3.877148
G03 X132.381174 Y79.647017 Z-0.300000 I-2.127009 J1.367222
G03 X132.602820 Y82.112340 Z-0.300000 I-15.077242 J2.598151
G02 X132.694308 Y84.627339 Z-0.300000 I45.516778 J-0.396593
G02 X132.805930 Y85.280060 Z-0.300000 I3.141812 J-0.201378
G01 X132.987110 Y85.922850 Z-0.300000
G01 X132.010260 Y85.077430 Z-0.300000
G03 X131.243694 Y84.108360 Z-0.300000 I2.161618 J-2.497635
G03 X130.676760 Y82.522920 Z-0.300000 I5.437476 J-2.838460
G02 X130.172635 Y80.879127 Z-0.300000 I-9.175064 J1.914643
G02 X129.526710 Y79.720570 Z-0.300000 I-5.160678 J2.117873
G03 X128.889523 Y78.565990 Z-0.300000 I4.332195 J-3.143957
G03 X128.579800 Y77.355230 Z-0.300000 I4.463078 J-1.786689
G02 X128.213299 Y76.180184 Z-0.300000 I-3.371311 J0.406844
G02 X127.189390 Y74.714150 Z-0.300000 I-6.341714 J3.338611
G03 X126.127916 Y73.262699 Z-0.300000 I6.469587 J-5.845197
G03 X125.807800 Y72.346060 Z-0.300000 I2.195738 J-1.281030
G02 X125.518860 Y71.417721 Z-0.300000 I-3.059792 J0.443208
G02 X124.945480 Y70.603990 Z-0.300000 I-2.904401 J1.437653
G03 X124.385494 Y69.797298 Z-0.300000 I2.200217 J-2.125049
G03 X124.227860 Y69.101520 Z-0.300000 I1.456729 J-0.695778
G02 X124.118471 Y68.367272 Z-0.300000 I-2.518931 J0.000000
G02 X123.609910 Y67.073620 Z-0.300000 I-8.448267 J2.574398
G01 X122.991950 Y65.805180 Z-0.300000
G01 X123.503880 Y65.233560 Z-0.300000
G02 X123.914019 Y64.378065 Z-0.300000 I-1.264114 J-1.132099
G02 X123.715140 Y63.954800 Z-0.300000 I-0.406809 J-0.067209
G03 X122.327733 Y62.653643 Z-0.300000 I2.151590 J-3.684480
G03 X121.896490 Y61.254310 Z-0.300000 I2.097405 J-1.412489
G02 X121.809423 Y60.728682 Z-0.300000 I-1.663417 J0.005510
G02 X121.470320 Y59.986540 Z-0.300000 I-3.738395 J1.259622
G03 X121.090812 Y58.611236 Z-0.300000 I2.364872 J-1.392587
G03 X121.452120 Y57.098120 Z-0.300000 I3.262976 J-0.020549
G03 X121.838440 Y56.701885 Z-0.300000 I0.839079 J0.431639
G03 X122.054310 Y56.768790 Z-0.300000 I0.075510 J0.138071
G03 X122.232657 Y57.205261 Z-0.300000 I-2.586910 J1.311717
G03 X122.422860 Y57.933150 Z-0.300000 I-7.042362 J2.229015
G02 X122.630940 Y58.653661 Z-0.300000 I4.796785 J-0.994988
G02 X122.956320 Y59.360280 Z-0.300000 I4.943630 J-1.848189
G03 X123.301942 Y60.060904 Z-0.300000 I-7.275657 J4.024688
G03 X123.494650 Y60.594580 Z-0.300000 I-4.018498 J1.752690
G02 X123.731567 Y61.097062 Z-0.300000 I1.686405 J-0.488034
G02 X124.390780 Y61.906040 Z-0.300000 I5.117834 J-3.497303
G03 X125.097855 Y62.693596 Z-0.300000 I-10.455003 J10.097782
G03 X125.444660 Y63.169550 Z-0.300000 I-3.455250 J2.882004
G02 X126.062057 Y63.609667 Z-0.300000 I0.848224 J-0.536789
G02 X126.348410 Y63.383090 Z-0.300000 I0.053536 J-0.226577
G02 X126.286839 Y63.114100 Z-0.300000 I-0.618366 J-0.000000
G02 X125.693660 Y62.027790 Z-0.300000 I-11.201773 J5.411615
G03 X125.223974 Y60.920761 Z-0.300000 I3.469856 J-2.125329
G03 X125.174810 Y60.020490 Z-0.300000 I2.214522 J-0.572414
G02 X125.008001 Y58.665119 Z-0.300000 I-2.567800 J-0.371924
G02 X124.016460 Y57.192480 Z-0.300000 I-4.057994 J1.662156
G03 X123.228539 Y55.950601 Z-0.300000 I2.245573 J-2.295613
G03 X123.284400 Y55.085010 Z-0.300000 I1.055102 J-0.366507
G02 X123.434484 Y53.913998 Z-0.300000 I-1.602884 J-0.800560
G02 X122.755390 Y52.581750 Z-0.300000 I-2.812277 J0.594315
G03 X122.332432 Y51.848488 Z-0.300000 I1.497257 J-1.352259
G03 X122.025000 Y50.315960 Z-0.300000 I6.546827 J-2.110423
G02 X121.770444 Y48.733512 Z-0.300000 I-10.603491 J0.894003
G02 X121.026760 Y46.144350 Z-0.300000 I-29.235568 J6.995934
G03 X120.179348 Y42.722546 Z-0.300000 I20.457196 J-6.882073
G03 X120.306490 Y41.709670 Z-0.300000 I1.786514 J-0.290163
G01 X120.680190 Y40.851630 Z-0.300000
G01 X121.100710 Y41.405150 Z-0.300000
G03 X121.456515 Y41.994529 Z-0.300000 I-2.576628 J1.957587
G03 X122.225080 Y43.814940 Z-0.300000 I-24.162420 J11.273649
G01 X122.225110 Y43.814940 Z-0.300000
G00 Z5.000000

(Change tool to Cylindrical cutter)

G00 Z5.000000
G00 X119.401230 Y45.188230

G01 Z-0.300000 F100.0(Penetrate)
G03 X119.703507 Y47.859726 Z-0.300000 I-9.959441 J2.479751 F400.000000
G03 X119.244400 Y53.591510 Z-0.300000 I-46.965257 J-0.877568
G02 X119.199679 Y54.594684 Z-0.300000 I5.155555 J0.732414
G02 X119.341700 Y55.457760 Z-0.300000 I3.940273 J-0.205156
G03 X119.513683 Y56.325648 Z-0.300000 I-5.435582 J1.528116
G03 X119.704320 Y58.537640 Z-0.300000 I-35.309669 J4.157313
G03 X119.684822 Y60.742871 Z-0.300000 I-17.320309 J0.949559
G03 X119.460210 Y61.901800 Z-0.300000 I-4.959378 J-0.359946
G01 X119.094250 Y63.042560 Z-0.300000
G01 X119.646530 Y64.144720 Z-0.300000
G03 X120.194519 Y65.671113 Z-0.300000 I-6.063682 J3.038479
G03 X120.039780 Y65.864210 Z-0.300000 I-0.153923 J0.035202
G03 X119.891029 Y65.828018 Z-0.300000 I0.001663 J-0.330614
G03 X119.213410 Y65.442090 Z-0.300000 I3.907917 J-7.649445
G03 X118.426535 Y64.354338 Z-0.300000 I0.962737 J-1.524926
G03 X118.260020 Y61.626560 Z-0.300000 I7.249947 J-1.811539
G02 X118.550084 Y57.566055 Z-0.300000 I-39.160726 J-4.838072
G02 X118.363270 Y56.388130 Z-0.300000 I-3.386198 J-0.066741
G03 X118.159844 Y55.318887 Z-0.300000 I3.527120 J-1.225017
G03 X118.288870 Y54.606210 Z-0.300000 I1.651779 J-0.068972
G02 X118.833554 Y52.013805 Z-0.300000 I-6.368096 J-2.691409
G02 X118.395860 Y47.134800 Z-0.300000 I-23.638327 J-0.338548
G03 X118.322706 Y44.719071 Z-0.300000 I7.308405 J-1.430289
G03 X118.762430 Y44.388950 Z-0.300000 I0.382074 J0.051007
G03 X119.103402 Y44.585655 Z-0.300000 I-0.080678 J0.533724
G03 X119.401320 Y45.188230 Z-0.300000 I-1.229776 J0.982945
G01 X119.401230 Y45.188230 Z-0.300000
G00 Z5.000000

(Change tool to Cylindrical cutter)

G00 Z5.000000
G00 X123.739170 Y71.189320

G01 Z-0.300000 F100.0(Penetrate)
G03 X124.305929 Y71.961185 Z-0.300000 I-3.239766 J2.972881 F400.000000
G03 X125.294330 Y73.878910 Z-0.300000 I-19.318541 J11.170406
G02 X126.242048 Y75.826758 Z-0.300000 I38.990737 J-17.766310
G02 X126.589660 Y76.378550 Z-0.300000 I3.448272 J-1.786919
G03 X126.866372 Y76.941749 Z-0.300000 I-1.329396 J1.002737
G03 X126.984610 Y77.821740 Z-0.300000 I-3.215556 J0.879991
G03 X126.761031 Y78.637309 Z-0.300000 I-1.599302 J-0.000000
G03 X125.895770 Y79.658380 Z-0.300000 I-3.445525 J-2.042607
G03 X124.778503 Y80.497549 Z-0.300000 I-8.073319 J-9.585445
G03 X124.521440 Y80.575440 Z-0.300000 I-0.257063 J-0.385245
G03 X124.066158 Y80.169090 Z-0.300000 I0.000000 J-0.458228
G03 X124.305290 Y78.678570 Z-0.300000 I2.786042 J-0.317464
G02 X124.518652 Y77.349837 Z-0.300000 I-2.271709 J-1.046278
G02 X123.997870 Y75.973920 Z-0.300000 I-2.969810 J0.337552
G03 X123.427724 Y74.999315 Z-0.300000 I5.704370 J-3.991140
G03 X123.058420 Y74.019850 Z-0.300000 I5.393287 J-2.592875
G02 X122.770686 Y73.001351 Z-0.300000 I-217.104649 J60.783878
G02 X122.506740 Y72.084400 Z-0.300000 I-176.819939 J50.401478
G03 X122.384367 Y71.196773 Z-0.300000 I2.959830 J-0.860307
G03 X122.517940 Y70.821940 Z-0.300000 I0.607835 J0.005388
G03 X122.942928 Y70.689801 Z-0.300000 I0.310394 J0.248800
G03 X123.739200 Y71.189320 Z-0.300000 I-0.511170 J1.699264
G01 X123.739170 Y71.189320 Z-0.300000
G00 Z5.000000

(Change tool to Cylindrical cutter)

G00 Z5.000000
G00 X128.150920 Y97.700980

G01 Z-0.300000 F100.0(Penetrate)
G03 X128.165695 Y97.854552 Z-0.300000 I-0.154733 J0.092384 F400.000000
G03 X128.071720 Y97.920540 Z-0.300000 I-0.093975 J-0.033923
G02 X127.619369 Y98.282716 Z-0.300000 I0.000000 J0.463577
G02 X127.807980 Y99.097070 Z-0.300000 I0.941300 J0.211007
G03 X127.932134 Y99.407340 Z-0.300000 I-0.448394 J0.359400
G03 X127.984540 Y101.154840 Z-0.300000 I-15.667239 J1.344379
G03 X127.778157 Y102.552632 Z-0.300000 I-5.851906 J-0.149895
G03 X127.586490 Y102.607030 Z-0.300000 I-0.112290 J-0.030784
G03 X126.649693 Y100.671706 Z-0.300000 I2.026946 J-2.175538
G03 X127.205280 Y97.903910 Z-0.300000 I5.109095 J-0.414097
G03 X127.717654 Y97.512335 Z-0.300000 I0.670816 J0.346751
G03 X128.150940 Y97.700980 Z-0.300000 I0.085085 J0.396489
G01 X128.150920 Y97.700980 Z-0.300000
G00 Z5.000000

(Change tool to Cylindrical cutter)

G00 Z5.000000
G00 X122.754960 Y101.615530

G01 Z-0.300000 F100.0(Penetrate)
G03 X123.660325 Y102.277570 Z-0.300000 I-6.327297 J9.602897 F400.000000
G03 X124.011640 Y102.632100 Z-0.300000 I-1.432562 J1.770901
G03 X123.981802 Y102.811167 Z-0.300000 I-0.095794 J0.076057
G03 X123.638230 Y102.871190 Z-0.300000 I-0.243457 J-0.380231
G01 X122.950890 Y102.714880 Z-0.300000
G01 X124.234350 Y104.701560 Z-0.300000
G02 X125.547784 Y106.658128 Z-0.300000 I56.209526 J-36.314010
G02 X125.701130 Y106.805530 Z-0.300000 I0.447182 J-0.311751
G02 X125.888131 Y106.825989 Z-0.300000 I0.114139 J-0.178411
G02 X126.964670 Y106.342560 Z-0.300000 I-2.866338 J-7.823369
G02 X127.849781 Y105.645624 Z-0.300000 I-1.539101 J-2.865179
G02 X128.044900 Y105.134790 Z-0.300000 I-0.571140 J-0.510834
G03 X128.320221 Y104.781221 Z-0.300000 I0.364689 J0.000000
G03 X128.909740 Y104.916190 Z-0.300000 I0.162772 J0.643979
G03 X129.246920 Y105.396997 Z-0.300000 I-0.729694 J0.870352
G03 X129.415170 Y106.300440 Z-0.300000 I-2.612635 J0.953943
G01 X129.432870 Y107.275790 Z-0.300000
G01 X128.605790 Y106.980760 Z-0.300000
G02 X128.159888 Y107.089235 Z-0.300000 I-0.140397 J0.393585
G02 X128.177310 Y107.439890 Z-0.300000 I0.178813 J0.166876
G03 X128.733958 Y108.018483 Z-0.300000 I-3.153974 J3.591416
G03 X129.182170 Y108.677500 Z-0.300000 I-3.655842 J2.968344
G01 X129.577250 Y109.379590 Z-0.300000
G01 X129.076150 Y109.106410 Z-0.300000
G03 X128.595037 Y108.804301 Z-0.300000 I2.209888 J-4.053421
G03 X127.975610 Y108.316940 Z-0.300000 I5.179807 J-7.220763
G02 X126.897962 Y107.841690 Z-0.300000 I-1.318990 J1.531433
G02 X126.424960 Y108.130450 Z-0.300000 I-0.053430 J0.444257
G02 X126.395870 Y108.459580 Z-0.300000 I0.587894 J0.217811
G02 X126.643670 Y109.342460 Z-0.300000 I4.750449 J-0.857103
G03 X126.755616 Y110.223348 Z-0.300000 I-1.725581 J0.666850
G03 X126.511750 Y110.474980 Z-0.300000 I-0.286148 J-0.033331
G02 X126.146107 Y110.665683 Z-0.300000 I0.092414 J0.623073
G02 X125.875580 Y111.148930 Z-0.300000 I0.826183 J0.779852
G03 X125.711833 Y111.752584 Z-0.300000 I-384.670767 J-104.021418
G03 X125.553220 Y112.333760 Z-0.300000 I-382.621567 J-104.112051
G03 X124.939695 Y113.186560 Z-0.300000 I-1.451834 J-0.397393
G03 X124.445490 Y113.076540 Z-0.300000 I-0.194707 J-0.290371
G03 X124.392947 Y112.753406 Z-0.300000 I0.377272 J-0.227184
G03 X124.676780 Y112.040510 Z-0.300000 I2.360997 J0.527057
G02 X124.976401 Y111.297906 Z-0.300000 I-2.231868 J-1.332247
G02 X125.036280 Y110.497120 Z-0.300000 I-2.545914 J-0.593003
G02 X124.768090 Y109.796544 Z-0.300000 I-1.324983 J0.105600
G02 X123.982300 Y109.115430 Z-0.300000 I-2.031134 J1.549452
G03 X122.285120 Y107.906349 Z-0.300000 I4.634892 J-8.301673
G03 X122.230830 Y107.551760 Z-0.300000 I0.187643 J-0.210180
G03 X122.618948 Y107.408224 Z-0.300000 I0.283098 J0.168991
G03 X124.278300 Y108.239780 Z-0.300000 I-2.112758 J6.287337
G02 X125.569262 Y109.051574 Z-0.300000 I9.953300 J-14.395947
G02 X125.820130 Y109.118010 Z-0.300000 I0.250868 J-0.440428
G02 X126.154109 Y108.669900 Z-0.300000 I0.000000 J-0.348513
G02 X125.140530 Y106.840720 Z-0.300000 I-4.671318 J1.393044
G02 X124.532988 Y106.156503 Z-0.300000 I-82.741210 J72.857216
G02 X123.149500 Y104.617070 Z-0.300000 I-420.052361 J376.109498
G03 X121.809990 Y103.043992 Z-0.300000 I26.873794 J-24.240461
G03 X121.076820 Y102.037260 Z-0.300000 I10.249140 J-8.234454
G01 X120.390450 Y100.994360 Z-0.300000
G01 X121.101330 Y100.994360 Z-0.300000
G03 X121.775489 Y101.116802 Z-0.300000 I-0.000000 J1.917156
G03 X122.754960 Y101.615530 Z-0.300000 I-1.734682 J4.617986
G01 X122.754960 Y101.615530 Z-0.300000
G00 Z5.000000

(Change tool to Cylindrical cutter)

G00 Z5.000000
G00 X65.874022 Y103.077380

G01 Z-0.300000 F100.0(Penetrate)
G01 X65.849711 Y103.144392 Z-0.300000 F400.000000
G03 X65.184426 Y103.151480 Z-0.300000 I-0.369325 J-3.439568
G03 X64.428960 Y102.986995 Z-0.300000 I0.257651 J-3.000514
G03 X64.273942 Y102.826260 Z-0.300000 I0.084540 J-0.236653
G03 X64.346980 Y102.714399 Z-0.300000 I0.082257 J-0.026067
G03 X64.963536 Y102.752160 Z-0.300000 I0.197091 J1.834331
G03 X65.710831 Y102.972095 Z-0.300000 I-1.559440 J6.678219
G03 X65.874022 Y103.077370 Z-0.300000 I-0.143341 J0.401320
G01 X65.874022 Y103.077380 Z-0.300000
G00 Z5.000000

(Change tool to Cylindrical cutter)

G00 Z5.000000
G00 X61.944149 Y106.471230

G01 Z-0.300000 F100.0(Penetrate)
G02 X63.152989 Y107.710131 Z-0.300000 I14.830047 J-13.261006 F400.000000
G02 X65.725427 Y110.023350 Z-0.300000 I54.405037 J-57.914690
G03 X69.126662 Y113.210087 Z-0.300000 I-36.009164 J41.841378
G03 X85.327761 Y130.008950 Z-0.300000 I-988.100561 J969.152131
G02 X90.980015 Y135.688737 Z-0.300000 I120.572048 J-114.335263
G02 X92.855798 Y137.217390 Z-0.300000 I10.480198 J-10.944863
G03 X94.834126 Y138.628162 Z-0.300000 I-44.186233 J64.054913
G03 X95.359758 Y139.062660 Z-0.300000 I-3.635090 J4.932725
G01 X95.861628 Y139.526840 Z-0.300000
G01 X95.714948 Y138.758390 Z-0.300000
G02 X95.052761 Y136.725500 Z-0.300000 I-8.337333 J1.591481
G02 X94.018848 Y135.166680 Z-0.300000 I-5.874482 J2.774058
G03 X93.653504 Y134.655494 Z-0.300000 I2.140557 J-1.915998
G01 X93.693758 Y134.586780 Z-0.300000
G03 X94.983623 Y134.904731 Z-0.300000 I-0.000000 J2.775340
G03 X97.482458 Y136.575460 Z-0.300000 I-6.603397 J12.580470
G01 X98.816328 Y137.688320 Z-0.300000
G01 X100.170970 Y136.774510 Z-0.300000
G03 X102.404299 Y135.739165 Z-0.300000 I4.337590 J6.430143
G03 X103.552260 Y135.821440 Z-0.300000 I0.459971 J1.631883
G02 X105.078833 Y136.127447 Z-0.300000 I1.447501 J-3.260328
G02 X106.478580 Y135.756540 Z-0.300000 I-0.068395 J-3.084782
G01 X107.157230 Y135.389430 Z-0.300000
G01 X106.415030 Y135.198180 Z-0.300000
G03 X102.334422 Y133.588499 Z-0.300000 I4.441605 J-17.236751
G03 X102.231700 Y132.916800 Z-0.300000 I0.204494 J-0.374977
G03 X102.670290 Y132.788031 Z-0.300000 I0.332476 J0.321112
G03 X107.475320 Y134.153610 Z-0.300000 I-12.673483 J53.730340
G02 X110.129142 Y135.028922 Z-0.300000 I124.091495 J-371.767031
G02 X113.935660 Y136.258920 Z-0.300000 I248.792217 J-763.441137
G03 X120.594030 Y139.029236 Z-0.300000 I-13.076839 J40.816537
G03 X122.726410 Y140.818830 Z-0.300000 I-2.940698 J5.669180
G03 X123.609889 Y142.497522 Z-0.300000 I-4.494809 J3.437403
G03 X123.763260 Y143.989600 Z-0.300000 I-3.362538 J1.099557
G03 X123.594381 Y144.062286 Z-0.300000 I-0.105131 J-0.011732
G03 X123.086920 Y143.478860 Z-0.300000 I1.127518 J-1.493116
G02 X121.694409 Y141.499618 Z-0.300000 I-10.053093 J5.593452
G02 X120.569870 Y140.600230 Z-0.300000 I-3.066134 J2.680985
G02 X120.122141 Y140.511490 Z-0.300000 I-0.366675 J0.676163
G02 X119.986710 Y140.662030 Z-0.300000 I0.015952 J0.150540
G02 X120.063307 Y141.016834 Z-0.300000 I0.860041 J-0.000000
G02 X120.516150 Y141.831100 Z-0.300000 I5.162269 J-2.337872
G03 X120.948606 Y142.665270 Z-0.300000 I-3.506862 J2.347232
G03 X121.480900 Y144.342880 Z-0.300000 I-13.821367 J5.308680
G03 X121.744225 Y146.767458 Z-0.300000 I-8.495970 J2.149307
G03 X121.380840 Y147.527130 Z-0.300000 I-1.044368 J-0.032820
G03 X121.214021 Y147.487635 Z-0.300000 I-0.069058 J-0.080367
G03 X120.966400 Y146.535790 Z-0.300000 I3.217491 J-1.345157
G02 X120.736160 Y145.335610 Z-0.300000 I-7.951238 J0.903175
G02 X120.412610 Y144.503240 Z-0.300000 I-4.119635 J1.122271
G03 X120.014052 Y143.690836 Z-0.300000 I20.723503 J-10.670736
G03 X119.359950 Y142.247850 Z-0.300000 I64.741021 J-30.216676
G02 X118.369162 Y140.682587 Z-0.300000 I-5.680110 J2.499215
G02 X116.037210 Y138.414290 Z-0.300000 I-14.461743 J12.534740
G02 X114.689731 Y137.718781 Z-0.300000 I-2.305507 J2.813629
G02 X114.009620 Y137.860740 Z-0.300000 I-0.201111 J0.736646
G03 X113.472863 Y138.077841 Z-0.300000 I-0.627246 J-0.778706
G03 X112.191850 Y138.025930 Z-0.300000 I-0.443693 J-4.882700
G02 X111.115223 Y138.442418 Z-0.300000 I-0.191492 J1.104780
G02 X111.014640 Y139.539820 Z-0.300000 I0.806626 J0.627242
G02 X111.819024 Y140.597573 Z-0.300000 I3.446292 J-1.786055
G02 X112.905150 Y141.296110 Z-0.300000 I2.494909 J-2.685575
G03 X115.635367 Y143.149254 Z-0.300000 I-3.162660 J7.597285
G03 X117.773120 Y146.290120 Z-0.300000 I-7.812531 J7.615343
G03 X118.461119 Y148.926516 Z-0.300000 I-7.460477 J3.354869
G03 X118.127960 Y150.314608 Z-0.300000 I-2.236626 J0.197209
G03 X117.928523 Y150.515066 Z-0.300000 I-0.540163 J-0.337972
G03 X116.952940 Y151.058178 Z-0.300000 I-5.312757 J-8.395454
G02 X116.007952 Y151.637128 Z-0.300000 I2.473928 J5.098753
G02 X115.574570 Y152.100828 Z-0.300000 I1.121308 J1.482368
G03 X115.180147 Y152.619863 Z-0.300000 I-3.911556 J-2.563070
G03 X114.398340 Y153.443068 Z-0.300000 I-10.665518 J-9.346317
G02 X113.154366 Y155.289610 Z-0.300000 I3.778665 J3.887891
G02 X112.692440 Y157.640348 Z-0.300000 I5.815138 J2.363443
G02 X113.140219 Y160.528829 Z-0.300000 I9.407471 J0.020581
G02 X114.124460 Y162.115648 Z-0.300000 I3.660082 J-1.171552
G02 X116.262449 Y163.380146 Z-0.300000 I3.696972 J-3.811083
G02 X120.304800 Y164.013958 Z-0.300000 I4.230313 J-13.772628
G02 X126.621910 Y163.807058 Z-0.300000 I0.901039 J-69.030531
G02 X128.013550 Y163.407348 Z-0.300000 I-0.284254 J-3.612099
G02 X129.098066 Y162.750717 Z-0.300000 I-4.615504 J-8.847068
G02 X129.603980 Y162.300498 Z-0.300000 I-1.626267 J-2.336806
G03 X130.089636 Y161.817443 Z-0.300000 I4.028100 J3.564123
G03 X131.649870 Y160.509738 Z-0.300000 I31.300055 J35.759755
G02 X133.719520 Y158.446126 Z-0.300000 I-8.500609 J-10.595138
G02 X133.777540 Y157.873628 Z-0.300000 I-0.409744 J-0.330715
G03 X133.792269 Y157.309162 Z-0.300000 I0.520126 J-0.268853
G03 X134.993770 Y155.794268 Z-0.300000 I5.926164 J3.466274
G02 X137.080735 Y153.475797 Z-0.300000 I-13.613951 J-14.353085
G02 X138.397160 Y151.354058 Z-0.300000 I-10.060283 J-7.711118
G03 X139.318189 Y150.560422 Z-0.300000 I1.391526 J0.683637
G03 X141.089770 Y150.496488 Z-0.300000 I1.000289 J3.140720
G02 X142.339712 Y150.747588 Z-0.300000 I3.932825 J-16.340522
G02 X142.438770 Y150.714628 Z-0.300000 I0.017991 J-0.111264
G02 X142.463555 Y150.354023 Z-0.300000 I-0.201938 J-0.195033
G02 X141.257890 Y149.097630 Z-0.300000 I-5.261491 J3.842363
G02 X140.650806 Y148.639435 Z-0.300000 I-9.308252 J11.701670
G02 X139.071880 Y147.533390 Z-0.300000 I-55.918302 J78.145711
G03 X136.038384 Y145.153428 Z-0.300000 I16.986213 J-24.773826
G03 X136.132870 Y144.905970 Z-0.300000 I0.094486 J-0.105691
G03 X136.442964 Y144.931767 Z-0.300000 I-0.000000 J1.876649
G03 X138.753800 Y145.345080 Z-0.300000 I-17.651587 J105.356761
G02 X141.068134 Y145.721288 Z-0.300000 I8.164397 J-42.918525
G02 X142.003550 Y145.784200 Z-0.300000 I0.935416 J-6.922760
G03 X142.908167 Y145.909718 Z-0.300000 I-0.000000 J3.322587
G03 X143.691090 Y146.261690 Z-0.300000 I-0.799178 J2.824430
G02 X144.493419 Y146.566095 Z-0.300000 I1.127290 J-1.761667
G02 X148.063300 Y146.949370 Z-0.300000 I5.688584 J-36.167495
G02 X153.112364 Y147.114732 Z-0.300000 I5.809409 J-100.215803
G02 X154.558470 Y146.998570 Z-0.300000 I0.062708 J-8.278748
G03 X155.503002 Y146.969257 Z-0.300000 I0.578687 J3.414536
G03 X156.330590 Y147.186810 Z-0.300000 I-0.300014 J2.824163
G01 X157.142050 Y147.537860 Z-0.300000
G01 X157.005970 Y146.935480 Z-0.300000
G02 X156.631280 Y146.274877 Z-0.300000 I-1.279144 J0.288960
G02 X154.638140 Y144.680120 Z-0.300000 I-10.217903 J10.727514
G03 X153.408801 Y143.740756 Z-0.300000 I6.722525 J-10.071814
G03 X151.298230 Y141.771990 Z-0.300000 I27.678012 J-31.787268
G03 X149.430621 Y139.651815 Z-0.300000 I15.673899 J-15.689397
G03 X149.250630 Y139.124960 Z-0.300000 I0.681088 J-0.526855
G01 X149.250630 Y138.523500 Z-0.300000
G01 X149.925590 Y139.319420 Z-0.300000
G02 X151.170936 Y140.467365 Z-0.300000 I5.275556 J-4.473701
G02 X156.857870 Y144.289230 Z-0.300000 I65.955957 J-92.000428
G03 X158.028119 Y145.216881 Z-0.300000 I-3.660361 J5.819582
G03 X158.878240 Y146.284280 Z-0.300000 I-4.033418 J4.084619
G02 X159.678390 Y147.403571 Z-0.300000 I8.714332 J-5.383982
G02 X160.155950 Y147.839210 Z-0.300000 I1.747057 J-1.435599
G03 X160.635962 Y148.244329 Z-0.300000 I-1.683713 J2.481914
G03 X160.701740 Y148.407850 Z-0.300000 I-0.170366 J0.163521
G03 X160.625063 Y148.562532 Z-0.300000 I-0.194360 J0.000000
G03 X159.523920 Y149.303950 Z-0.300000 I-6.958465 J-9.146199
G02 X158.374026 Y150.042945 Z-0.300000 I9.569674 J16.154778
G02 X156.668640 Y151.289408 Z-0.300000 I25.599656 J36.814803
G03 X154.947612 Y152.508810 Z-0.300000 I-16.775524 J-21.852284
G03 X153.517440 Y153.345578 Z-0.300000 I-9.288949 J-14.235729
G02 X152.660608 Y154.510141 Z-0.300000 I0.759211 J1.456083
G02 X152.998510 Y156.222288 Z-0.300000 I2.354532 J0.424737
G03 X153.570588 Y157.382439 Z-0.300000 I-4.963394 J3.168608
G03 X154.034140 Y159.076548 Z-0.300000 I-10.206147 J3.703137
G02 X155.163586 Y163.441704 Z-0.300000 I33.053872 J-6.223709
G02 X156.470750 Y166.422678 Z-0.300000 I16.636746 J-5.518165
G03 X157.970468 Y169.866449 Z-0.300000 I-17.222595 J9.548659
G03 X159.005860 Y174.197288 Z-0.300000 I-26.312108 J8.579734
G02 X159.502907 Y175.972059 Z-0.300000 I7.674500 J-1.192353
G02 X160.708910 Y178.316958 Z-0.300000 I14.691525 J-6.073407
G03 X161.475180 Y179.690716 Z-0.300000 I-13.549643 J8.458456
G03 X161.765050 Y180.451068 Z-0.300000 I-3.831291 J1.896040
G03 X162.597771 Y184.343682 Z-0.300000 I-33.024520 J9.100093
G03 X162.815480 Y187.280718 Z-0.300000 I-18.531094 J2.850211
G03 X162.582113 Y188.140511 Z-0.300000 I-1.728104 J-0.007480
G03 X161.923980 Y188.817618 Z-0.300000 I-1.680622 J-0.975127
G02 X159.779326 Y190.563168 Z-0.300000 I5.656791 J9.140443
G02 X156.200770 Y194.855478 Z-0.300000 I31.862706 J30.202263
G03 X154.021660 Y197.517995 Z-0.300000 I-25.444272 J-18.601612
G03 X151.689290 Y199.791496 Z-0.300000 I-20.849513 J-19.056249
G02 X150.926258 Y200.580337 Z-0.300000 I4.135803 J4.763943
G02 X150.727300 Y200.977042 Z-0.300000 I0.801017 J0.649976
G03 X150.312772 Y201.421347 Z-0.300000 I-0.611331 J-0.154835
G03 X148.375120 Y201.749677 Z-0.300000 I-2.058582 J-6.267068
G01 X147.181530 Y201.771567 Z-0.300000
G01 X144.951210 Y204.175982 Z-0.300000
G03 X142.612015 Y206.316180 Z-0.300000 I-14.199911 J-13.171777
G03 X141.891360 Y206.546152 Z-0.300000 I-0.675174 J-0.871637
G02 X141.104094 Y206.649939 Z-0.300000 I-0.095526 J2.313155
G02 X140.368800 Y207.022852 Z-0.300000 I0.745694 J2.381693
G01 X139.675750 Y207.533802 Z-0.300000
G01 X138.992620 Y206.848268 Z-0.300000
G02 X138.262420 Y206.276102 Z-0.300000 I-2.688521 J2.679073
G02 X137.854480 Y206.162733 Z-0.300000 I-0.407940 J0.677270
G02 X136.932567 Y206.615413 Z-0.300000 I-0.000000 J1.165108
G02 X136.932860 Y207.355340 Z-0.300000 I0.478504 J0.369774
G03 X137.071071 Y207.609757 Z-0.300000 I-0.714802 J0.553062
G03 X137.257220 Y208.282045 Z-0.300000 I-4.943078 J1.730601
G03 X137.222188 Y208.905248 Z-0.300000 I-1.190513 J0.245663
G03 X136.916440 Y209.324947 Z-0.300000 I-0.799536 J-0.261239
G03 X136.409937 Y209.605137 Z-0.300000 I-1.394442 J-1.922848
G03 X136.046290 Y209.675665 Z-0.300000 I-0.363647 J-0.902234
G03 X135.836818 Y209.527793 Z-0.300000 I0.000000 J-0.222303
G03 X135.790290 Y208.955204 Z-0.300000 I1.051506 J-0.373629
G02 X135.474881 Y207.845306 Z-0.300000 I-1.288806 J-0.233515
G02 X134.537540 Y207.563776 Z-0.300000 I-0.700329 J0.630531
G02 X133.124411 Y208.359006 Z-0.300000 I0.798160 J3.071521
G02 X132.710160 Y209.338962 Z-0.300000 I0.951972 J0.979956
G02 X133.041555 Y210.003070 Z-0.300000 I0.831125 J0.000000
G02 X134.239260 Y210.489577 Z-0.300000 I1.516040 J-2.014719
G03 X135.090258 Y210.707253 Z-0.300000 I-0.448960 J3.527510
G03 X135.413890 Y210.950921 Z-0.300000 I-0.276493 J0.703981
G03 X135.823847 Y212.149446 Z-0.300000 I-1.575061 J1.208127
G03 X135.424490 Y213.144686 Z-0.300000 I-1.422652 J0.006881
G03 X134.526048 Y213.220344 Z-0.300000 I-0.492460 J-0.475636
G03 X134.419230 Y212.404400 Z-0.300000 I0.338190 J-0.459238
G02 X134.566082 Y212.091430 Z-0.300000 I-0.574460 J-0.460486
G02 X134.581930 Y211.608885 Z-0.300000 I-1.406975 J-0.287742
G02 X134.357022 Y211.281150 Z-0.300000 I-0.438852 J0.060124
G02 X133.664410 Y211.102794 Z-0.300000 I-0.692612 J1.255634
G02 X132.971490 Y211.357003 Z-0.300000 I0.000000 J1.071481
G02 X132.163420 Y212.375402 Z-0.300000 I2.149771 J2.535571
G03 X131.421097 Y213.577185 Z-0.300000 I-7.925000 J-4.064997
G03 X130.761380 Y214.287470 Z-0.300000 I-3.382937 J-2.480577
G02 X130.094171 Y214.985814 Z-0.300000 I3.087612 J3.617860
G02 X129.744970 Y215.594672 Z-0.300000 I1.983135 J1.541963
G03 X129.377673 Y216.114468 Z-0.300000 I-1.271088 J-0.508507
G03 X128.985240 Y216.262414 Z-0.300000 I-0.392433 J-0.446497
G02 X128.532052 Y216.365887 Z-0.300000 I-0.000000 J1.044161
G02 X127.912180 Y216.779375 Z-0.300000 I1.164412 J2.416986
G02 X127.570008 Y217.352466 Z-0.300000 I0.739259 J0.830079
G02 X127.618800 Y218.013954 Z-0.300000 I1.067907 J0.253774
G02 X128.556596 Y219.043241 Z-0.300000 I1.843007 J-0.737324
G02 X129.975370 Y219.221456 Z-0.300000 I0.954594 J-1.862986
G03 X130.509423 Y219.182214 Z-0.300000 I0.396625 J1.744128
G03 X130.589580 Y219.268786 Z-0.300000 I-0.006671 J0.086572
G03 X130.572349 Y219.454074 Z-0.300000 I-1.004842 J0.000000
G03 X130.061110 Y222.085599 Z-0.300000 I-204.926624 J-38.446668
G02 X129.571872 Y224.719383 Z-0.300000 I89.669353 J18.018841
G02 X129.530970 Y225.192369 Z-0.300000 I2.830784 J0.483057
G03 X129.332030 Y225.524650 Z-0.300000 I-0.378498 J-0.000917
G03 X127.355700 Y226.364858 Z-0.300000 I-5.527253 J-10.256697
G02 X125.197203 Y227.098108 Z-0.300000 I19.540975 J61.067240
G02 X124.496450 Y227.393202 Z-0.300000 I2.414156 J6.712406
G02 X123.883862 Y227.821614 Z-0.300000 I1.034728 J2.131739
G02 X121.962910 Y229.843425 Z-0.300000 I22.929164 J23.708799
G03 X117.453184 Y234.118556 Z-0.300000 I-24.791851 J-21.636124
G03 X115.751630 Y234.705315 Z-0.300000 I-1.701554 J-2.173806
G03 X115.466020 Y234.503116 Z-0.300000 I0.000000 J-0.302814
G03 X114.681130 Y231.666564 Z-0.300000 I20.202618 J-7.117047
G02 X113.753065 Y228.368908 Z-0.300000 I-22.965911 J4.683917
G02 X113.396140 Y228.118565 Z-0.300000 I-0.356925 J0.129269
G03 X113.235844 Y228.066200 Z-0.300000 I0.000000 J-0.271528
G03 X112.472610 Y227.443119 Z-0.300000 I5.474100 J-7.484409
G03 X111.676337 Y225.955922 Z-0.300000 I1.694574 J-1.864075
G03 X112.009940 Y224.385199 Z-0.300000 I2.256813 J-0.341467
G02 X112.538593 Y223.509629 Z-0.300000 I-16.890105 J-10.795319
G02 X112.564690 Y223.411069 Z-0.300000 I-0.173068 J-0.098560
G02 X112.531807 Y223.317101 Z-0.300000 I-0.150706 J0.000000
G02 X111.429030 Y221.987108 Z-0.300000 I-35.486406 J28.301726
G03 X110.394458 Y220.603723 Z-0.300000 I9.465680 J-8.157509
G03 X109.521390 Y219.030160 Z-0.300000 I11.394672 J-7.351150
G02 X108.676822 Y217.432924 Z-0.300000 I-17.680414 J8.326932
G02 X107.478350 Y215.564242 Z-0.300000 I-25.417549 J14.982795
G03 X106.268476 Y213.700970 Z-0.300000 I28.497642 J-19.828738
G03 X105.353800 Y212.051100 Z-0.300000 I21.418897 J-12.952967
G03 X104.739587 Y210.338791 Z-0.300000 I6.555203 J-3.317695
G03 X104.755210 Y209.377884 Z-0.300000 I2.000920 J-0.448049
G02 X104.794450 Y208.412127 Z-0.300000 I-2.221808 J-0.573951
G02 X104.343590 Y207.002452 Z-0.300000 I-5.301619 J0.918693
G03 X103.775662 Y205.584613 Z-0.300000 I10.356357 J-4.970994
G03 X103.534890 Y204.516048 Z-0.300000 I5.618014 J-1.827275
G02 X103.343123 Y203.437757 Z-0.300000 I-11.508894 J1.490589
G02 X103.235850 Y203.198698 Z-0.300000 I-0.647603 J0.147000
G03 X102.100221 Y201.005143 Z-0.300000 I7.067373 J-5.049603
G03 X101.402870 Y197.934088 Z-0.300000 I13.333732 J-4.642421
G02 X101.123488 Y196.661814 Z-0.300000 I-6.197587 J0.694130
G02 X100.454500 Y195.079828 Z-0.300000 I-10.290125 J3.419034
G03 X99.760357 Y193.496806 Z-0.300000 I11.605534 J-6.032638
G03 X99.013178 Y191.095688 Z-0.300000 I26.030432 J-9.416951
G02 X97.929302 Y187.497056 Z-0.300000 I-50.083300 J13.122096
G02 X96.812258 Y184.646018 Z-0.300000 I-32.523135 J11.098304
G03 X96.366521 Y183.414128 Z-0.300000 I8.461633 J-3.758277
G03 X96.158398 Y182.340658 Z-0.300000 I6.205098 J-1.759944
G02 X95.899592 Y181.284417 Z-0.300000 I-4.056903 J0.434219
G02 X94.607538 Y178.388608 Z-0.300000 I-32.295760 J12.673590
G01 X93.174198 Y175.534348 Z-0.300000
G01 X93.185498 Y172.899648 Z-0.300000
G03 X93.400066 Y170.306958 Z-0.300000 I16.634847 J0.071458
G03 X93.868308 Y168.691248 Z-0.300000 I6.865140 J1.113851
G02 X94.052112 Y167.118383 Z-0.300000 I-2.572837 J-1.097833
G02 X93.532538 Y166.742738 Z-0.300000 I-0.451878 J0.077869
G02 X91.311278 Y167.861260 Z-0.300000 I0.586557 J3.929684
G02 X89.844857 Y170.426018 Z-0.300000 I3.962426 J3.967147
G02 X89.757868 Y171.410629 Z-0.300000 I2.918972 J0.754036
G02 X89.956719 Y171.884348 Z-0.300000 I0.812088 J-0.062292
G03 X90.087546 Y172.272706 Z-0.300000 I-0.402493 J0.351803
G03 X89.911089 Y172.550068 Z-0.300000 I-0.343187 J-0.023523
G02 X89.546949 Y172.844847 Z-0.300000 I0.653869 J1.180025
G02 X89.008765 Y173.587728 Z-0.300000 I3.902606 J3.393647
G01 X88.529195 Y174.391128 Z-0.300000
G01 X88.141582 Y173.895518 Z-0.300000
G03 X87.818792 Y173.377563 Z-0.300000 I2.262842 J-1.769763
G03 X87.753964 Y173.094888 Z-0.300000 I0.583870 J-0.282675
G02 X87.531207 Y172.933578 Z-0.300000 I-0.169785 J0.000000
G02 X86.921125 Y173.368378 Z-0.300000 I0.393046 J1.196907
G02 X86.528061 Y174.439338 Z-0.300000 I1.547257 J1.175486
G02 X86.781405 Y175.961988 Z-0.300000 I3.552263 J0.191362
G03 X87.021176 Y176.721395 Z-0.300000 I-4.754341 J1.918668
G03 X87.341160 Y178.373398 Z-0.300000 I-22.299423 J5.176263
G02 X87.765903 Y179.972307 Z-0.300000 I7.792037 J-1.214047
G02 X88.366734 Y181.059438 Z-0.300000 I4.153108 J-1.585726
G03 X88.909578 Y182.151393 Z-0.300000 I-2.667100 J2.006806
G03 X89.132337 Y183.745708 Z-0.300000 I-5.593982 J1.594315
G02 X89.341764 Y185.342910 Z-0.300000 I6.195255 J-0.000000
G02 X89.811950 Y186.292708 Z-0.300000 I2.590980 J-0.691353
G03 X90.741971 Y187.933995 Z-0.300000 I-5.232411 J4.049039
G03 X91.260148 Y189.999248 Z-0.300000 I-7.850756 J3.067405
G02 X91.624981 Y191.203490 Z-0.300000 I3.588280 J-0.429709
G02 X92.818258 Y193.073068 Z-0.300000 I10.014896 J-5.076506
G01 X94.221718 Y194.855478 Z-0.300000
G01 X94.360358 Y197.051068 Z-0.300000
G02 X94.549837 Y199.235454 Z-0.300000 I46.711184 J-2.951434
G02 X94.643998 Y199.619738 Z-0.300000 I1.512839 J-0.167012
G03 X94.619279 Y199.961591 Z-0.300000 I-0.372796 J0.144864
G03 X93.835658 Y201.048061 Z-0.300000 I-5.317030 J-3.009100
G02 X93.072266 Y202.157103 Z-0.300000 I3.799476 J3.432567
G02 X92.993018 Y202.702822 Z-0.300000 I0.765407 J0.389764
G03 X93.015482 Y204.534854 Z-0.300000 I-5.315070 J0.981327
G03 X92.651538 Y204.845386 Z-0.300000 I-0.363944 J-0.058006
G03 X92.499154 Y204.793319 Z-0.300000 I-0.000000 J-0.249022
G03 X91.508638 Y203.961086 Z-0.300000 I9.830015 J-12.705170
G03 X90.721732 Y202.974170 Z-0.300000 I2.691458 J-2.953177
G03 X90.298543 Y201.820393 Z-0.300000 I3.297264 J-1.863887
G02 X89.065446 Y198.475060 Z-0.300000 I-10.689568 J2.040271
G02 X87.661208 Y197.189548 Z-0.300000 I-2.696267 J1.535565
G03 X86.736919 Y196.297526 Z-0.300000 I0.806172 J-1.760207
G03 X86.028817 Y193.935878 Z-0.300000 I6.375181 J-3.198474
G02 X85.707870 Y192.061612 Z-0.300000 I-18.166785 J2.146243
G02 X85.472469 Y191.466418 Z-0.300000 I-2.021875 J0.455511
G02 X84.087485 Y189.406020 Z-0.300000 I-17.795018 J10.465992
G02 X83.785749 Y189.256748 Z-0.300000 I-0.301736 J0.230326
G02 X82.845656 Y189.719440 Z-0.300000 I-0.000000 J1.186382
G02 X82.113426 Y191.429138 Z-0.300000 I2.962132 J2.280271
G03 X81.508633 Y191.803883 Z-0.300000 I-0.462785 J-0.071474
G03 X80.968125 Y191.064648 Z-0.300000 I0.235260 J-0.739235
G03 X81.197993 Y190.066098 Z-0.300000 I2.283786 J-0.000000
G03 X82.136182 Y188.662068 Z-0.300000 I5.578191 J2.711939
G02 X82.794837 Y187.799174 Z-0.300000 I-5.517903 J-4.894694
G02 X82.875628 Y187.529268 Z-0.300000 I-0.416052 J-0.271582
G02 X82.799502 Y187.257084 Z-0.300000 I-0.517520 J-0.001996
G02 X82.212573 Y186.445828 Z-0.300000 I-5.549232 J3.396827
G03 X81.153280 Y184.600291 Z-0.300000 I4.476615 J-3.796239
G03 X80.760724 Y182.325618 Z-0.300000 I6.514119 J-2.295397
G03 X80.850787 Y180.786844 Z-0.300000 I12.537893 J-0.038191
G03 X81.086705 Y179.620908 Z-0.300000 I7.419235 J0.894387
G02 X81.315812 Y178.455431 Z-0.300000 I-6.706511 J-1.923606
G02 X81.373061 Y177.001248 Z-0.300000 I-10.411938 J-1.138124
G03 X81.394065 Y175.543869 Z-0.300000 I16.343976 J-0.493283
G03 X81.488164 Y175.052648 Z-0.300000 I1.921736 J0.113505
G02 X81.426377 Y174.670108 Z-0.300000 I-0.398579 J-0.131882
G02 X80.883722 Y174.240508 Z-0.300000 I-1.074423 J0.799641
G03 X80.238699 Y173.832024 Z-0.300000 I0.974062 J-2.251614
G03 X80.119895 Y173.569528 Z-0.300000 I0.230587 J-0.262496
G02 X79.628209 Y173.160158 Z-0.300000 I-0.416261 J0.000000
G02 X78.087835 Y173.943938 Z-0.300000 I0.550395 J2.987248
G02 X77.573564 Y174.714857 Z-0.300000 I1.439910 J1.517538
G02 X77.569755 Y175.299948 Z-0.300000 I0.779008 J0.297629
G03 X77.522972 Y175.875941 Z-0.300000 I-0.646471 J0.237389
G03 X76.498982 Y177.196358 Z-0.300000 I-5.013751 J-2.830927
G01 X75.192801 Y178.451688 Z-0.300000
G01 X75.274911 Y180.748318 Z-0.300000
G02 X75.547521 Y182.978556 Z-0.300000 I13.086866 J-0.467876
G02 X75.919144 Y183.807998 Z-0.300000 I2.096868 J-0.441507
G03 X76.286256 Y184.625808 Z-0.300000 I-1.707190 J1.257655
G03 X76.364252 Y185.907128 Z-0.300000 I-4.253620 J0.901957
G02 X76.379167 Y187.226845 Z-0.300000 I6.674243 J0.584511
G02 X76.635026 Y188.359758 Z-0.300000 I5.157258 J-0.569374
G02 X77.063073 Y189.419706 Z-0.300000 I10.904431 J-3.787217
G02 X77.151628 Y189.476308 Z-0.300000 I0.088555 J-0.040972
G02 X77.228927 Y189.415499 Z-0.300000 I0.000000 J-0.079534
G02 X77.563829 Y187.774728 Z-0.300000 I-22.410719 J-5.428880
G01 X77.847215 Y186.073148 Z-0.300000
G01 X78.244729 Y187.716068 Z-0.300000
G03 X78.439284 Y189.320400 Z-0.300000 I-6.744241 J1.631826
G03 X78.253429 Y189.911648 Z-0.300000 I-1.020513 J0.004044
G02 X77.846603 Y191.058181 Z-0.300000 I1.851188 J1.302304
G02 X78.088876 Y192.296938 Z-0.300000 I2.430681 J0.167683
G03 X79.040751 Y195.071372 Z-0.300000 I-10.595414 J5.185667
G03 X79.169863 Y197.473728 Z-0.300000 I-7.768409 J1.622151
G02 X79.050676 Y199.902912 Z-0.300000 I24.483403 J2.418787
G02 X79.171763 Y201.969929 Z-0.300000 I17.831668 J-0.007535
G03 X78.876165 Y202.381907 Z-0.300000 I-0.373854 J0.043792
G03 X78.367370 Y202.140899 Z-0.300000 I-0.096474 J-0.453898
G03 X78.075980 Y201.178290 Z-0.300000 I2.459632 J-1.269958
G03 X77.893271 Y197.897328 Z-0.300000 I29.367222 J-3.280962
G01 X77.893271 Y194.571978 Z-0.300000
G01 X77.217407 Y193.700868 Z-0.300000
G03 X76.414972 Y192.107394 Z-0.300000 I3.668137 J-2.845967
G03 X75.759232 Y188.496128 Z-0.300000 I18.919945 J-5.300683
G02 X75.438478 Y186.837383 Z-0.300000 I-8.035812 J0.693513
G02 X75.099825 Y186.333378 Z-0.300000 I-0.996580 J0.303849
G03 X74.735019 Y185.875590 Z-0.300000 I0.868447 J-1.066303
G03 X74.707881 Y185.539028 Z-0.300000 I0.410319 J-0.202460
G02 X74.694471 Y185.193419 Z-0.300000 I-0.501108 J-0.153621
G02 X74.402605 Y184.763558 Z-0.300000 I-1.100591 J0.433261
G02 X73.993002 Y184.659658 Z-0.300000 I-0.298896 J0.318999
G02 X73.383463 Y185.030348 Z-0.300000 I0.315530 J1.205326
G01 X72.786151 Y185.692398 Z-0.300000
G01 X70.992532 Y185.068258 Z-0.300000
G02 X69.178103 Y184.537819 Z-0.300000 I-6.160087 J17.702852
G02 X67.749402 Y184.295298 Z-0.300000 I-2.553858 J10.715348
G01 X66.299889 Y184.146468 Z-0.300000
G01 X66.435176 Y183.353348 Z-0.300000
G03 X67.146605 Y181.317650 Z-0.300000 I6.384334 J1.089012
G03 X68.952224 Y178.783648 Z-0.300000 I11.810708 J6.505492
G02 X69.500831 Y177.364115 Z-0.300000 I-1.577839 J-1.425564
G02 X68.959024 Y176.385598 Z-0.300000 I-1.148634 J-0.003258
G03 X68.795484 Y176.103704 Z-0.300000 I0.183424 J-0.294798
G03 X68.933884 Y175.709638 Z-0.300000 I0.569866 J-0.021194
G02 X68.982159 Y174.508530 Z-0.300000 I-0.730006 J-0.630865
G02 X67.273067 Y173.442908 Z-0.300000 I-2.184894 J1.600860
G03 X63.988899 Y172.576730 Z-0.300000 I3.673234 J-20.586453
G03 X62.847834 Y171.881668 Z-0.300000 I1.076630 J-3.051634
G02 X62.615560 Y171.769804 Z-0.300000 I-0.293045 J0.311397
G02 X61.527316 Y171.692078 Z-0.300000 I-1.088244 J7.579453
G03 X60.430383 Y171.574343 Z-0.300000 I-0.000000 J-5.168916
G03 X58.999791 Y171.143188 Z-0.300000 I2.011975 J-9.264785
G02 X57.565307 Y170.732304 Z-0.300000 I-2.928492 J7.514513
G02 X56.079159 Y170.592628 Z-0.300000 I-1.495008 J7.930702
G03 X54.571886 Y170.532681 Z-0.300000 I0.020389 J-19.491717
G03 X53.256976 Y170.370838 Z-0.300000 I1.179992 J-15.009428
G03 X49.433761 Y169.450286 Z-0.300000 I4.672070 J-27.803435
G03 X49.159516 Y169.076008 Z-0.300000 I0.118276 J-0.374278
G03 X49.236396 Y168.956238 Z-0.300000 I0.131734 J0.000000
G03 X49.848703 Y168.760358 Z-0.300000 I1.119294 J2.443884
G02 X50.511350 Y168.551408 Z-0.300000 I-0.567548 J-2.955083
G02 X53.082579 Y167.311658 Z-0.300000 I-20.761344 J-46.345040
G03 X60.032110 Y164.260544 Z-0.300000 I27.397600 J52.963541
G03 X62.954185 Y163.708048 Z-0.300000 I3.139230 J8.599485
G02 X64.170084 Y163.636348 Z-0.300000 I-0.410045 J-17.299082
G01 X64.213879 Y163.589148 Z-0.300000
G02 X63.869580 Y162.711628 Z-0.300000 I-1.229932 J-0.023735
G02 X62.358238 Y161.664288 Z-0.300000 I-3.369851 J3.248668
G02 X60.986375 Y161.534347 Z-0.300000 I-0.886099 J2.048311
G02 X58.568031 Y162.509538 Z-0.300000 I1.739344 J7.799521
G03 X55.729401 Y163.989001 Z-0.300000 I-12.488039 J-20.497707
G03 X55.362907 Y163.916798 Z-0.300000 I-0.131400 J-0.299272
G03 X55.356220 Y163.819508 Z-0.300000 I0.054500 J-0.052621
G03 X56.191202 Y162.782208 Z-0.300000 I11.408245 J8.328435
G03 X58.472684 Y160.763555 Z-0.300000 I9.404712 J8.330615
G03 X60.041737 Y160.131948 Z-0.300000 I2.195935 J3.190451
G03 X62.018794 Y160.252227 Z-0.300000 I0.723731 J4.412680
G03 X66.406808 Y161.990478 Z-0.300000 I-7.116249 J24.371792
G01 X66.455177 Y161.951082 Z-0.300000
G02 X66.247764 Y161.408118 Z-0.300000 I-2.856672 J0.780153
G03 X66.096383 Y159.924364 Z-0.300000 I1.886120 J-0.942033
G03 X66.782518 Y159.396818 Z-0.300000 I0.686135 J0.182426
G02 X66.978224 Y159.251093 Z-0.300000 I-0.000000 J-0.204277
G02 X67.034805 Y158.553568 Z-0.300000 I-1.609858 J-0.481644
G03 X67.117851 Y157.786952 Z-0.300000 I1.630307 J-0.211199
G03 X67.507695 Y157.236218 Z-0.300000 I1.184727 J0.425279
G03 X68.111439 Y156.822879 Z-0.300000 I2.781726 J3.415530
G03 X68.341145 Y156.762118 Z-0.300000 I0.229706 J0.403821
G02 X68.565872 Y156.692021 Z-0.300000 I0.000000 J-0.395277
G02 X69.482411 Y155.973408 Z-0.300000 I-5.500821 J-7.959701
G01 X70.372359 Y155.184708 Z-0.300000
G01 X71.253971 Y155.660478 Z-0.300000
G01 X72.135580 Y156.136258 Z-0.300000
G01 X72.830041 Y155.351398 Z-0.300000
G03 X73.586169 Y154.703441 Z-0.300000 I2.712166 J2.399780
G03 X74.052943 Y154.566538 Z-0.300000 I0.466774 J0.727289
G03 X74.447119 Y155.231253 Z-0.300000 I0.000000 J0.449231
G03 X72.270453 Y157.827168 Z-0.300000 I-7.574791 J-4.140915
G03 X70.229245 Y159.162497 Z-0.300000 I-7.938664 J-9.907405
G03 X69.278114 Y159.396818 Z-0.300000 I-0.951131 J-1.813208
G02 X67.896051 Y159.896406 Z-0.300000 I-0.000000 J2.161467
G02 X67.396459 Y160.961658 Z-0.300000 I0.885892 J1.065252
G01 X67.396459 Y161.648268 Z-0.300000
G01 X68.434357 Y161.545008 Z-0.300000
G02 X69.425032 Y161.299151 Z-0.300000 I-0.352155 J-3.537883
G02 X71.138090 Y160.442088 Z-0.300000 I-4.727236 J-11.589101
G03 X72.931079 Y159.515437 Z-0.300000 I8.185696 J13.640637
G03 X74.230814 Y159.084878 Z-0.300000 I2.942024 J6.704095
G02 X74.709079 Y158.807911 Z-0.300000 I-0.210834 J-0.915483
G02 X75.889040 Y157.295238 Z-0.300000 I-8.301529 J-7.692161
G03 X77.381013 Y155.676801 Z-0.300000 I5.541672 J3.611735
G03 X77.928306 Y155.716248 Z-0.300000 I0.251643 J0.324997
G02 X78.249957 Y155.760187 Z-0.300000 I0.188727 J-0.182275
G02 X79.465239 Y154.813148 Z-0.300000 I-2.994063 J-5.095381
G03 X82.628457 Y151.771117 Z-0.300000 I58.263094 J57.418522
G03 X82.797311 Y151.776498 Z-0.300000 I0.081658 J0.089602
G03 X82.998657 Y152.479316 Z-0.300000 I-0.559720 J0.540600
G03 X82.092177 Y155.084708 Z-0.300000 I-10.835457 J-2.309532
G02 X82.224964 Y155.224460 Z-0.300000 I0.092004 J0.045542
G02 X83.355395 Y154.537868 Z-0.300000 I-1.919682 J-4.434525
G03 X84.391363 Y153.766374 Z-0.300000 I9.483490 J11.653203
G03 X84.748869 Y153.590448 Z-0.300000 I0.803833 J1.182286
G02 X85.047076 Y153.367136 Z-0.300000 I-0.181928 J-0.553709
G02 X85.740011 Y152.150128 Z-0.300000 I-6.784937 J-4.668955
G03 X86.816458 Y150.632100 Z-0.300000 I4.609172 J2.127731
G03 X89.927565 Y148.092400 Z-0.300000 I16.453324 J16.979770
G02 X90.986532 Y147.174320 Z-0.300000 I-3.455994 J-5.056119
G02 X91.146898 Y146.762000 Z-0.300000 I-0.449877 J-0.412320
G03 X91.299308 Y146.350310 Z-0.300000 I0.632234 J0.000000
G03 X92.048138 Y145.711610 Z-0.300000 I2.411761 J2.069293
G02 X95.583847 Y142.927994 Z-0.300000 I-10.153753 J-16.534462
G02 X95.588228 Y142.187310 Z-0.300000 I-0.370885 J-0.372548
G02 X95.125245 Y142.080553 Z-0.300000 I-0.315067 J0.309068
G02 X91.126358 Y143.774460 Z-0.300000 I12.358368 J34.742113
G03 X89.283012 Y144.364765 Z-0.300000 I-2.878713 J-5.816099
G03 X88.890320 Y144.135830 Z-0.300000 I-0.057101 J-0.353315
G03 X89.038575 Y143.341828 Z-0.300000 I0.737149 J-0.273203
G03 X90.330398 Y142.507460 Z-0.300000 I2.134709 J1.887870
G02 X92.507283 Y141.576823 Z-0.300000 I-3.381327 J-10.920712
G02 X93.675528 Y140.646330 Z-0.300000 I-2.212116 J-3.975956
G01 X94.189628 Y140.075700 Z-0.300000
G01 X91.979068 Y140.076130 Z-0.300000
G02 X89.772034 Y140.143948 Z-0.300000 I0.006543 J36.159157
G02 X86.621377 Y140.404640 Z-0.300000 I4.543807 J74.084634
G03 X82.982028 Y140.458503 Z-0.300000 I-2.121301 J-20.352962
G03 X81.710338 Y140.039310 Z-0.300000 I0.205448 J-2.761793
G02 X80.523793 Y139.715078 Z-0.300000 I-1.125177 J1.784417
G02 X79.834562 Y140.093910 Z-0.300000 I0.025088 J0.862039
G03 X79.599764 Y140.169001 Z-0.300000 I-0.165134 J-0.111713
G03 X79.393029 Y139.929250 Z-0.300000 I0.114890 J-0.308076
G02 X79.223236 Y139.318417 Z-0.300000 I-5.019122 J1.066147
G02 X78.456672 Y137.221560 Z-0.300000 I-60.147048 J20.799871
G02 X77.198657 Y135.440151 Z-0.300000 I-4.163814 J1.605544
G02 X76.409043 Y135.464820 Z-0.300000 I-0.381307 J0.444446
G01 X75.916877 Y135.943540 Z-0.300000
G01 X75.473702 Y135.484690 Z-0.300000
G03 X75.178462 Y134.852584 Z-0.300000 I0.771907 J-0.745539
G03 X75.341870 Y134.244460 Z-0.300000 I0.869368 J-0.092411
G02 X75.579216 Y133.794608 Z-0.300000 I-1.416971 J-1.035145
G02 X75.648011 Y133.379160 Z-0.300000 I-1.133982 J-0.401199
G02 X75.556558 Y132.960765 Z-0.300000 I-1.061090 J0.012741
G02 X73.793096 Y129.207550 Z-0.300000 I-90.846590 J40.393720
G01 X71.943384 Y125.475060 Z-0.300000
G01 X71.154325 Y125.406860 Z-0.300000
G02 X70.462746 Y125.445065 Z-0.300000 I-0.211461 J2.450677
G02 X70.365263 Y125.563860 Z-0.300000 I0.023642 J0.118795
G03 X69.968828 Y126.162804 Z-0.300000 I-0.650666 J-0.000000
G03 X69.226186 Y126.047360 Z-0.300000 I-0.278354 J-0.655774
G02 X68.940316 Y125.858430 Z-0.300000 I-0.889575 J1.035272
G02 X68.193534 Y125.538120 Z-0.300000 I-3.394669 J6.883770
G03 X66.493557 Y124.256678 Z-0.300000 I1.268443 J-3.451059
G03 X64.376268 Y120.315440 Z-0.300000 I13.110640 J-9.582559
G02 X63.716585 Y118.690959 Z-0.300000 I-26.554476 J9.837277
G02 X63.036661 Y117.288950 Z-0.300000 I-20.452253 J9.052738
G03 X62.371295 Y115.893221 Z-0.300000 I16.456650 J-8.701603
G03 X62.307079 Y115.579100 Z-0.300000 I0.736173 J-0.314121
G02 X62.256978 Y115.258085 Z-0.300000 I-1.053476 J-0.000000
G02 X61.564878 Y113.259260 Z-0.300000 I-42.527452 J13.606039
G03 X60.883860 Y111.258434 Z-0.300000 I34.202900 J-12.757909
G03 X60.822677 Y110.852400 Z-0.300000 I1.316720 J-0.406034
G03 X61.142453 Y110.608443 Z-0.300000 I0.252946 J0.000000
G03 X62.054860 Y111.189950 Z-0.300000 I-0.483599 J1.765340
G03 X62.537106 Y112.056494 Z-0.300000 I-1.946716 J1.650842
G03 X63.287313 Y115.006840 Z-0.300000 I-22.888766 J7.390652
G02 X64.243237 Y116.771191 Z-0.300000 I3.223913 J-0.605579
G02 X67.608516 Y119.142190 Z-0.300000 I9.545208 J-9.974241
G02 X70.123243 Y120.130388 Z-0.300000 I6.751771 J-13.487856
G02 X70.363893 Y119.948660 Z-0.300000 I0.052777 J-0.180314
G02 X69.870168 Y118.807949 Z-0.300000 I-1.592229 J0.011949
G02 X67.260943 Y116.991470 Z-0.300000 I-7.186949 J7.541262
G03 X65.489730 Y115.532999 Z-0.300000 I2.174977 J-4.446106
G03 X64.602396 Y113.479960 Z-0.300000 I3.749822 J-2.838966
G02 X64.283755 Y112.113477 Z-0.300000 I-11.309478 J1.916792
G02 X64.025457 Y111.548640 Z-0.300000 I-2.153519 J0.643317
G03 X63.721837 Y110.997277 Z-0.300000 I4.139059 J-2.638543
G03 X63.367367 Y110.147850 Z-0.300000 I9.499064 J-4.462678
G02 X62.949912 Y109.352118 Z-0.300000 I-3.212833 J1.178140
G02 X62.377228 Y108.745620 Z-0.300000 I-2.408904 J1.700974
G01 X61.705175 Y108.210820 Z-0.300000
G01 X61.192113 Y108.992560 Z-0.300000
G03 X60.665597 Y109.631025 Z-0.300000 I-3.185727 J-2.090809
G03 X60.538806 Y109.629100 Z-0.300000 I-0.062437 J-0.064082
G03 X60.367116 Y109.001945 Z-0.300000 I0.487053 J-0.470414
G03 X60.919507 Y108.029120 Z-0.300000 I1.949922 J0.463965
G02 X61.219934 Y107.485487 Z-0.300000 I-0.746289 J-0.767249
G02 X61.150484 Y106.947950 Z-0.300000 I-0.797041 J-0.170277
G02 X60.785972 Y106.434559 Z-0.300000 I-1.881073 J0.949478
G02 X59.773291 Y105.520190 Z-0.300000 I-7.122499 J6.870336
G03 X58.537693 Y104.220322 Z-0.300000 I3.823034 J-4.871196
G03 X58.277987 Y103.402160 Z-0.300000 I1.158891 J-0.818162
G03 X58.444848 Y103.300701 Z-0.300000 I0.114276 J0.000000
G03 X59.533075 Y104.052650 Z-0.300000 I-2.412572 J4.654914
G03 X60.754858 Y105.211650 Z-0.300000 I-20.148156 J22.463065
G03 X61.944151 Y106.471180 Z-0.300000 I-22.612123 J22.542420
G01 X61.944149 Y106.471230 Z-0.300000
G00 Z5.000000

(Change tool to Cylindrical cutter)

G00 Z5.000000
G00 X66.336169 Y112.933400

G01 Z-0.300000 F100.0(Penetrate)
G02 X66.663715 Y113.869542 Z-0.300000 I1.501544 J-0.000000 F400.000000
G02 X67.099131 Y113.890210 Z-0.300000 I0.226782 J-0.180835
G02 X67.264301 Y112.947489 Z-0.300000 I-0.614500 J-0.593494
G02 X66.436752 Y112.411390 Z-0.300000 I-0.827549 J0.370673
G02 X66.381661 Y112.456879 Z-0.300000 I0.000000 J0.056105
G02 X66.336169 Y112.933400 Z-0.300000 I2.473010 J0.476521
G01 X66.336169 Y112.933400 Z-0.300000
G00 Z5.000000

(Change tool to Cylindrical cutter)

G00 Z5.000000
G00 X65.488732 Y114.238130

G01 Z-0.300000 F100.0(Penetrate)
G02 X65.879711 Y115.397054 Z-0.300000 I1.930873 J-0.005993 F400.000000
G02 X66.861281 Y116.052410 Z-0.300000 I1.433690 J-1.084574
G02 X68.231070 Y115.886603 Z-0.300000 I0.474092 J-1.824418
G02 X68.320370 Y115.264460 Z-0.300000 I-0.185855 J-0.344157
G02 X66.061168 Y113.835425 Z-0.300000 I-4.381646 J4.426733
G02 X65.488732 Y114.238130 Z-0.300000 I-0.145488 J0.401397
G01 X65.488732 Y114.238130 Z-0.300000
G00 Z5.000000

(Change tool to Cylindrical cutter)

G00 Z5.000000
G00 X149.462690 Y157.371728

G01 Z-0.300000 F100.0(Penetrate)
G03 X148.674866 Y157.909842 Z-0.300000 I-3.108816 J-3.705688 F400.000000
G03 X147.841300 Y158.258478 Z-0.300000 I-2.081481 J-3.805870
G02 X145.669770 Y159.405310 Z-0.300000 I1.831535 J6.097335
G02 X144.271350 Y161.145208 Z-0.300000 I3.307444 J4.090243
G02 X144.169983 Y161.702027 Z-0.300000 I0.906174 J0.452602
G02 X144.386570 Y162.259138 Z-0.300000 I1.123804 J-0.116242
G03 X144.439582 Y162.736095 Z-0.300000 I-0.382572 J0.283946
G03 X144.108250 Y162.887248 Z-0.300000 I-0.250852 J-0.111155
G02 X142.404729 Y162.930030 Z-0.300000 I-0.787812 J2.567729
G02 X139.026904 Y164.523198 Z-0.300000 I6.870061 J18.943273
G02 X136.036751 Y166.714396 Z-0.300000 I9.548105 J16.165346
G02 X135.466910 Y167.991278 Z-0.300000 I1.145678 J1.276882
G02 X135.590115 Y168.260564 Z-0.300000 I0.355887 J-0.000000
G02 X135.838010 Y168.311928 Z-0.300000 I0.170045 J-0.196796
G03 X138.729389 Y167.855368 Z-0.300000 I2.983434 J9.510214
G03 X139.865080 Y168.274728 Z-0.300000 I0.015746 J1.704850
G02 X141.157890 Y168.799839 Z-0.300000 I1.410793 J-1.619348
G02 X142.343790 Y168.411098 Z-0.300000 I0.094374 J-1.715337
G03 X143.518024 Y168.003304 Z-0.300000 I1.138415 J1.383554
G03 X143.949210 Y168.443198 Z-0.300000 I-0.008796 J0.439894
G03 X143.806030 Y169.089741 Z-0.300000 I-1.531356 J0.000000
G03 X143.297500 Y169.842478 Z-0.300000 I-2.612386 J-1.216718
G01 X142.645800 Y170.538648 Z-0.300000
G01 X143.350520 Y170.961288 Z-0.300000
G02 X144.060379 Y171.374890 Z-0.300000 I16.695348 J-27.838030
G02 X145.009490 Y171.899988 Z-0.300000 I27.894145 J-49.298152
G03 X145.942905 Y172.445832 Z-0.300000 I-7.697783 J14.234512
G03 X146.298540 Y172.712768 Z-0.300000 I-1.460094 J2.315639
G02 X146.672197 Y172.906995 Z-0.300000 I0.573900 J-0.647541
G02 X147.545840 Y173.009478 Z-0.300000 I0.873643 J-3.672557
G02 X148.375694 Y172.822361 Z-0.300000 I0.000000 J-1.933742
G02 X149.154610 Y172.245118 Z-0.300000 I-1.077816 J-2.268519
G01 X149.850860 Y171.480768 Z-0.300000
G01 X149.993400 Y172.354278 Z-0.300000
G02 X150.662655 Y173.784280 Z-0.300000 I2.859318 J-0.466580
G02 X151.441460 Y174.026408 Z-0.300000 I0.584375 J-0.506066
G02 X151.726424 Y173.674530 Z-0.300000 I-0.095883 J-0.368976
G02 X151.477260 Y173.229038 Z-0.300000 I-0.483990 J-0.021729
G03 X151.253503 Y172.791069 Z-0.300000 I0.213437 J-0.385187
G03 X151.583290 Y172.350808 Z-0.300000 I0.546910 J0.066027
G02 X152.058946 Y171.656837 Z-0.300000 I-0.309777 J-0.722321
G02 X151.648290 Y170.550018 Z-0.300000 I-1.546457 J-0.055818
G03 X151.273781 Y169.934870 Z-0.300000 I1.331948 J-1.232481
G03 X151.330200 Y169.670748 Z-0.300000 I0.239996 J-0.086822
G02 X151.508619 Y169.030408 Z-0.300000 I-0.502063 J-0.484918
G02 X150.947100 Y167.993418 Z-0.300000 I-2.141639 J0.489153
G03 X150.377771 Y167.307729 Z-0.300000 I4.273755 J-4.127706
G03 X150.310930 Y167.098298 Z-0.300000 I0.294679 J-0.209431
G03 X150.603898 Y166.829055 Z-0.300000 I0.270204 J0.000000
G03 X151.695130 Y167.215328 Z-0.300000 I-0.192676 J2.278831
G02 X152.439266 Y167.265731 Z-0.300000 I0.415233 J-0.612081
G02 X153.067150 Y166.534158 Z-0.300000 I-0.549529 J-1.106874
G02 X153.166262 Y165.729081 Z-0.300000 I-2.088589 J-0.665764
G02 X152.887910 Y163.719418 Z-0.300000 I-13.686355 J0.871547
G03 X152.474172 Y161.698457 Z-0.300000 I103.572787 J-22.256583
G03 X152.205740 Y160.213848 Z-0.300000 I55.595761 J-10.818852
G02 X151.311141 Y157.318806 Z-0.300000 I-11.173242 J1.866909
G02 X150.629020 Y156.810518 Z-0.300000 I-0.810102 J0.375309
G02 X150.239378 Y156.870325 Z-0.300000 I-0.096833 J0.668294
G02 X149.462700 Y157.371738 Z-0.300000 I1.610639 J3.347079
G01 X149.462690 Y157.371728 Z-0.300000
G00 Z5.000000

(Change tool to Cylindrical cutter)

G00 Z5.000000
G00 X150.128390 Y164.893118

G01 Z-0.300000 F100.0(Penetrate)
G03 X149.442368 Y165.234818 Z-0.300000 I-1.013197 J-1.174663 F400.000000
G03 X149.144600 Y165.105378 Z-0.300000 I-0.058718 J-0.272140
G03 X149.215383 Y164.709670 Z-0.300000 I0.263197 J-0.157105
G03 X149.952340 Y164.454008 Z-0.300000 I0.724500 J0.898416
G01 X150.629010 Y164.461008 Z-0.300000
G01 X150.128390 Y164.892818 Z-0.300000
G01 X150.128390 Y164.893118 Z-0.300000
G00 Z5.000000

(Change tool to Cylindrical cutter)

G00 Z5.000000
G00 X144.330910 Y165.149288

G01 Z-0.300000 F100.0(Penetrate)
G03 X144.580892 Y165.837190 Z-0.300000 I-0.646333 J0.624248 F400.000000
G03 X144.249910 Y166.289458 Z-0.300000 I-0.525484 J-0.037318
G03 X142.828701 Y166.047833 Z-0.300000 I-0.512034 J-1.288777
G03 X142.941890 Y165.153788 Z-0.300000 I0.355288 J-0.409207
G03 X143.838036 Y164.940849 Z-0.300000 I0.903147 J1.808691
G03 X144.330870 Y165.148788 Z-0.300000 I0.002363 J0.682399
G01 X144.330910 Y165.149288 Z-0.300000
G00 Z5.000000

(Change tool to Cylindrical cutter)

G00 Z5.000000
G00 X85.489312 Y183.054268

G01 Z-0.300000 F100.0(Penetrate)
G02 X85.249659 Y183.897125 Z-0.300000 I3.735527 J1.517638 F400.000000
G02 X85.129033 Y185.176708 Z-0.300000 I8.551748 J1.451646
G03 X84.990870 Y186.394008 Z-0.300000 I-6.582931 J-0.130668
G03 X84.838184 Y186.567248 Z-0.300000 I-0.228958 J-0.047888
G02 X84.550666 Y187.112593 Z-0.300000 I0.146915 J0.425922
G02 X85.298094 Y188.240298 Z-0.300000 I2.092185 J-0.575127
G03 X86.184608 Y189.511538 Z-0.300000 I-1.660561 J2.102741
G03 X86.397676 Y191.608568 Z-0.300000 I-4.711349 J1.538035
G02 X86.354994 Y192.796977 Z-0.300000 I7.666835 J0.870327
G02 X86.481856 Y193.648848 Z-0.300000 I4.043919 J-0.166846
G02 X87.368169 Y195.142035 Z-0.300000 I3.027446 J-0.787366
G02 X88.585604 Y195.623978 Z-0.300000 I1.217435 J-1.296709
G03 X89.273032 Y195.909778 Z-0.300000 I0.000000 J0.969626
G03 X90.278262 Y197.325558 Z-0.300000 I-3.739380 J3.719786
G02 X90.882132 Y197.875888 Z-0.300000 I0.991490 J-0.481475
G02 X91.239568 Y197.686698 Z-0.300000 I0.094974 J-0.252812
G02 X91.196729 Y196.458659 Z-0.300000 I-2.216992 J-0.537429
G02 X90.057372 Y193.964928 Z-0.300000 I-10.823872 J3.438156
G03 X89.612814 Y192.853882 Z-0.300000 I3.034329 J-1.858575
G03 X89.543372 Y191.572848 Z-0.300000 I3.998299 J-0.859139
G02 X89.324366 Y188.416644 Z-0.300000 I-9.160192 J-0.950082
G02 X88.186419 Y186.073198 Z-0.300000 I-6.062425 J1.495825
G03 X87.661316 Y184.800365 Z-0.300000 I2.028746 J-1.581683
G03 X87.851300 Y183.302138 Z-0.300000 I3.072400 J-0.371561
G02 X87.679018 Y182.634452 Z-0.300000 I-0.548730 J-0.214482
G02 X86.561685 Y182.230928 Z-0.300000 I-1.117333 J1.345152
G02 X85.961106 Y182.434886 Z-0.300000 I0.000000 J0.986217
G02 X85.489308 Y183.054268 Z-0.300000 I0.904945 J1.178700
G01 X85.489312 Y183.054268 Z-0.300000
G00 Z5.000000

(Change tool to Cylindrical cutter)

G00 Z5.000000
G00 X138.235230 Y183.476768

G01 Z-0.300000 F100.0(Penetrate)
G02 X137.879022 Y183.833269 Z-0.300000 I0.938010 J1.293448 F400.000000
G02 X137.799540 Y184.078598 Z-0.300000 I0.338876 J0.245329
G02 X137.882758 Y184.334108 Z-0.300000 I0.433864 J-0.000000
G02 X139.350360 Y186.206848 Z-0.300000 I27.490412 J-20.031866
G03 X140.862597 Y188.078961 Z-0.300000 I-45.515446 J38.312839
G03 X142.139020 Y189.805688 Z-0.300000 I-37.437914 J29.009823
G02 X147.341728 Y196.173469 Z-0.300000 I47.276329 J-33.317181
G02 X148.149820 Y196.178248 Z-0.300000 I0.406327 J-0.383258
G02 X148.182816 Y196.058335 Z-0.300000 I-0.093426 J-0.090204
G02 X147.903290 Y195.128628 Z-0.300000 I-7.718876 J1.813887
G02 X147.427888 Y194.264849 Z-0.300000 I-3.100048 J1.143475
G02 X145.858130 Y192.454418 Z-0.300000 I-15.502255 J11.855675
G03 X144.221994 Y190.699641 Z-0.300000 I33.829796 J-33.182697
G03 X144.161260 Y190.539528 Z-0.300000 I0.180685 J-0.160113
G03 X144.463030 Y190.272776 Z-0.300000 I0.268784 J0.000000
G03 X146.162420 Y190.786988 Z-0.300000 I-0.640988 J5.183575
G03 X146.956254 Y191.311496 Z-0.300000 I-1.791604 J3.574544
G03 X148.364240 Y192.653428 Z-0.300000 I-10.803687 J12.745088
G02 X149.741885 Y194.038119 Z-0.300000 I22.540524 J-21.048168
G02 X150.141890 Y194.330468 Z-0.300000 I1.362038 J-1.443773
G02 X150.360710 Y194.283888 Z-0.300000 I0.082626 J-0.149114
G02 X150.431310 Y193.946038 Z-0.300000 I-0.324152 J-0.244039
G02 X150.227930 Y193.342851 Z-0.300000 I-3.374015 J0.801754
G02 X149.925460 Y192.804428 Z-0.300000 I-2.984745 J1.322571
G03 X149.043264 Y191.162254 Z-0.300000 I6.757408 J-4.688213
G03 X148.962720 Y190.389828 Z-0.300000 I1.325934 J-0.528672
G03 X149.385916 Y189.767662 Z-0.300000 I0.897625 J0.155552
G03 X150.595870 Y189.393558 Z-0.300000 I1.344021 J2.203215
G02 X151.769794 Y189.277820 Z-0.300000 I-0.662717 J-12.733255
G02 X151.920110 Y189.200778 Z-0.300000 I-0.037644 J-0.258609
G02 X151.993348 Y187.977964 Z-0.300000 I-0.677314 J-0.654167
G02 X150.040120 Y186.719398 Z-0.300000 I-2.700381 J2.045913
G03 X149.390690 Y186.494795 Z-0.300000 I0.686656 J-3.036637
G03 X148.850930 Y186.154358 Z-0.300000 I1.152014 J-2.424620
G02 X148.300041 Y185.871184 Z-0.300000 I-0.949520 J1.169764
G02 X147.354730 Y185.743858 Z-0.300000 I-0.945311 J3.445492
G03 X146.414075 Y185.596508 Z-0.300000 I0.000000 J-3.076167
G03 X145.645670 Y185.194958 Z-0.300000 I0.779988 J-2.428563
G02 X144.906934 Y184.705680 Z-0.300000 I-3.997736 J5.233645
G02 X144.681790 Y184.646068 Z-0.300000 I-0.225144 J0.395361
G03 X144.449122 Y184.596959 Z-0.300000 I0.000000 J-0.575720
G03 X143.439420 Y184.097168 Z-0.300000 I5.223283 J-11.822148
G02 X142.407111 Y183.684055 Z-0.300000 I-2.192958 J3.983530
G02 X141.340280 Y183.543038 Z-0.300000 I-1.087038 J4.117798
G03 X140.244670 Y183.484229 Z-0.300000 I0.055802 J-11.274528
G03 X139.454560 Y183.349298 Z-0.300000 I0.612786 J-5.969050
G02 X138.698379 Y183.299362 Z-0.300000 I-0.523457 J2.176306
G02 X138.235230 Y183.476768 Z-0.300000 I0.099674 J0.953483
G01 X138.235230 Y183.476768 Z-0.300000
G00 Z5.000000

(Change tool to Cylindrical cutter)

G00 Z5.000000
G00 X66.947312 Y103.903510

G01 Z-0.300000 F100.0(Penetrate)
G02 X67.769925 Y104.211790 Z-0.300000 I1.122269 J-1.742990 F400.000000
G02 X70.471290 Y104.418310 Z-0.300000 I2.850156 J-19.510467
G03 X73.994020 Y104.734123 Z-0.300000 I-0.163104 J21.624370
G03 X74.868136 Y105.178930 Z-0.300000 I-0.283354 J1.638126
G01 X75.560669 Y105.850580 Z-0.300000
G01 X74.712439 Y105.734880 Z-0.300000
G02 X73.861674 Y105.646474 Z-0.300000 I-1.808424 J13.265360
G02 X71.319520 Y105.491610 Z-0.300000 I-8.474640 J118.171806
G03 X67.769979 Y105.035949 Z-0.300000 I1.155992 J-23.058102
G03 X66.472681 Y104.482570 Z-0.300000 I0.730903 J-3.510802
G03 X65.551319 Y103.618784 Z-0.300000 I2.358372 J-3.438853
G03 X65.553360 Y103.424328 Z-0.300000 I0.122215 J-0.095956
G03 X65.758146 Y103.360959 Z-0.300000 I0.150324 J0.123213
G03 X66.947312 Y103.903510 Z-0.300000 I-1.275847 J4.370896
G01 X66.947312 Y103.903510 Z-0.300000
G00 Z5.000000

(Change tool to Cylindrical cutter)

G00 Z5.000000
G00 X126.136380 Y104.397510

G01 Z-0.300000 F100.0(Penetrate)
G03 X126.982148 Y105.346495 Z-0.300000 I-15.028800 J14.245569 F400.000000
G01 X126.963930 Y105.385520 Z-0.300000
G03 X126.304147 Y105.145571 Z-0.300000 I0.000000 J-1.027070
G03 X125.145760 Y103.861500 Z-0.300000 I4.003492 J-4.776172
G03 X125.265196 Y103.729640 Z-0.300000 I0.075854 J-0.051315
G03 X126.136380 Y104.397510 Z-0.300000 I-1.659214 J3.066443
G01 X126.136380 Y104.397510 Z-0.300000
G00 Z5.000000

(Change tool to Cylindrical cutter)

G00 Z5.000000
G00 X85.823439 Y103.725040

G01 Z-0.300000 F100.0(Penetrate)
G03 X85.717313 Y103.801599 Z-0.300000 I-0.265845 J-0.256681 F400.000000
G03 X84.674796 Y104.275600 Z-0.300000 I-12.245416 J-25.549058
G01 X83.618853 Y104.730170 Z-0.300000
G01 X84.213836 Y104.179620 Z-0.300000
G03 X84.854077 Y103.744608 Z-0.300000 I1.760810 J1.902868
G03 X85.362481 Y103.629060 Z-0.300000 I0.508404 J1.060700
G03 X85.808009 Y103.674961 Z-0.300000 I0.000000 J2.185168
G01 X85.823439 Y103.725060 Z-0.300000
G01 X85.823439 Y103.725040 Z-0.300000
G00 Z5.000000

(Change tool to Cylindrical cutter)

G00 Z5.000000
G00 X69.686605 Y107.226710

G01 Z-0.300000 F100.0(Penetrate)
G02 X70.279905 Y107.474165 Z-0.300000 I1.618918 J-3.046557 F400.000000
G02 X71.531577 Y107.801170 Z-0.300000 I4.154577 J-13.343388
G03 X74.714877 Y108.765340 Z-0.300000 I-4.075602 J19.193060
G03 X77.560176 Y110.201800 Z-0.300000 I-6.666056 J16.740109
G02 X82.756720 Y112.541262 Z-0.300000 I11.336697 J-18.240548
G02 X83.512824 Y111.977810 Z-0.300000 I0.168109 J-0.563452
G03 X83.728582 Y111.529360 Z-0.300000 I0.573928 J0.000000
G03 X84.344457 Y111.313600 Z-0.300000 I0.615875 J0.771112
G03 X84.455328 Y111.381871 Z-0.300000 I0.000000 J0.124162
G03 X84.781715 Y112.181000 Z-0.300000 I-4.872514 J2.456289
G02 X85.148969 Y112.992874 Z-0.300000 I3.660200 J-1.166704
G02 X85.663887 Y113.649200 Z-0.300000 I2.886081 J-1.734112
G03 X86.262019 Y114.667126 Z-0.300000 I-1.628239 J1.641446
G03 X86.081542 Y115.140490 Z-0.300000 I-0.409914 J0.114801
G03 X85.911572 Y115.150938 Z-0.300000 I-0.094368 J-0.147419
G03 X85.619857 Y114.919410 Z-0.300000 I0.361682 J-0.755241
G02 X84.590658 Y114.215547 Z-0.300000 I-1.671694 J1.339989
G02 X82.717779 Y114.007130 Z-0.300000 I-1.467549 J4.668446
G03 X80.963230 Y113.824851 Z-0.300000 I-0.394094 J-4.742051
G03 X80.288648 Y113.282340 Z-0.300000 I0.327604 J-1.098016
G02 X79.810847 Y112.768747 Z-0.300000 I-1.274047 J0.706212
G02 X77.428650 Y111.415420 Z-0.300000 I-12.147271 J18.608960
G02 X74.895869 Y110.263846 Z-0.300000 I-21.664878 J44.288794
G02 X73.546123 Y109.780730 Z-0.300000 I-5.079496 J12.064239
G03 X72.176550 Y109.344670 Z-0.300000 I10.613780 J-35.704473
G03 X70.365261 Y108.699940 Z-0.300000 I21.434274 J-63.083580
G02 X68.546741 Y108.116325 Z-0.300000 I-7.269082 J19.525151
G02 X67.873586 Y108.024560 Z-0.300000 I-0.689708 J2.544540
G03 X67.493019 Y107.735868 Z-0.300000 I0.002479 J-0.398455
G03 X67.655699 Y107.264220 Z-0.300000 I0.417880 J-0.119745
G03 X68.567976 Y106.958907 Z-0.300000 I0.941897 J1.298793
G03 X69.686605 Y107.226720 Z-0.300000 I0.042345 J2.293237
G01 X69.686605 Y107.226710 Z-0.300000
G00 Z5.000000

(Change tool to Cylindrical cutter)

G00 Z5.000000
G00 X81.476280 Y109.906280

G01 Z-0.300000 F100.0(Penetrate)
G03 X81.198386 Y110.417408 Z-0.300000 I-0.362138 J0.134217 F400.000000
G03 X80.582604 Y110.106030 Z-0.300000 I-0.118509 J-0.530212
G03 X80.588386 Y109.718508 Z-0.300000 I0.425965 J-0.187449
G03 X80.843965 Y109.557130 Z-0.300000 I0.255579 J0.121696
G03 X81.270394 Y109.667042 Z-0.300000 I-0.000000 J0.882175
G03 X81.476280 Y109.906280 Z-0.300000 I-0.219074 J0.396743
G01 X81.476280 Y109.906280 Z-0.300000
G00 Z5.000000

(Change tool to Cylindrical cutter)

G00 Z5.000000
G00 X129.529300 Y114.058080

G01 Z-0.300000 F100.0(Penetrate)
G03 X129.993391 Y114.715824 Z-0.300000 I-2.136606 J2.000143 F400.000000
G03 X129.925950 Y114.826530 Z-0.300000 I-0.067441 J0.034811
G03 X129.641924 Y114.741607 Z-0.300000 I-0.000000 J-0.517427
G03 X129.173690 Y114.332520 Z-0.300000 I1.249429 J-1.902583
G03 X129.203534 Y114.031783 Z-0.300000 I0.156752 J-0.136294
G03 X129.529300 Y114.058080 Z-0.300000 I0.148420 J0.192317
G01 X129.529300 Y114.058080 Z-0.300000
G00 Z5.000000

(Change tool to Cylindrical cutter)

G00 Z5.000000
G00 X130.545430 Y117.963550

G01 Z-0.300000 F100.0(Penetrate)
G03 X131.405208 Y118.918003 Z-0.300000 I-18.358853 J17.402245 F400.000000
G03 X131.437960 Y119.006450 Z-0.300000 I-0.103575 J0.088642
G03 X131.390519 Y119.060398 Z-0.300000 I-0.054317 J0.000068
G03 X130.642740 Y119.107920 Z-0.300000 I-0.747779 J-5.859557
G02 X129.996459 Y119.278827 Z-0.300000 I-0.000000 J1.307399
G02 X129.780050 Y119.598530 Z-0.300000 I0.215510 J0.378976
G02 X129.809863 Y120.066470 Z-0.300000 I1.169745 J0.160393
G02 X130.045120 Y120.580510 Z-0.300000 I1.654635 J-0.446410
G03 X130.291872 Y121.098123 Z-0.300000 I-1.589907 J1.075548
G03 X130.377530 Y121.674800 Z-0.300000 I-1.898357 J0.576677
G03 X130.032478 Y121.867267 Z-0.300000 I-0.226204 J0.000000
G03 X129.197490 Y120.946130 Z-0.300000 I1.176801 J-1.905758
G03 X128.874839 Y119.334121 Z-0.300000 I2.897929 J-1.418329
G03 X129.346100 Y118.474980 Z-0.300000 I1.144214 J0.068811
G02 X129.528612 Y118.172474 Z-0.300000 I-0.266008 J-0.366803
G02 X129.427900 Y117.904330 Z-0.300000 I-0.294801 J-0.042261
G03 X129.125207 Y117.290431 Z-0.300000 I0.568946 J-0.662101
G03 X129.379100 Y117.022110 Z-0.300000 I0.253893 J-0.014040
G03 X129.616909 Y117.106113 Z-0.300000 I-0.000000 J0.378614
G03 X130.545410 Y117.963550 Z-0.300000 I-5.971809 J7.398199
G01 X130.545430 Y117.963550 Z-0.300000
G00 Z5.000000

(Change tool to Cylindrical cutter)

G00 Z5.000000
G00 X126.337140 Y120.996520

G01 Z-0.300000 F100.0(Penetrate)
G03 X126.534717 Y123.461523 Z-0.300000 I-16.201864 J2.539044 F400.000000
G03 X126.348440 Y123.499080 Z-0.300000 I-0.096836 J0.000437
G03 X126.223367 Y123.048072 Z-0.300000 I1.763122 J-0.731793
G03 X126.151280 Y122.173270 Z-0.300000 I6.641953 J-0.987693
G02 X126.040529 Y121.309755 Z-0.300000 I-3.923583 J0.064362
G02 X125.739880 Y120.481360 Z-0.300000 I-3.920221 J0.954010
G03 X125.458369 Y119.660244 Z-0.300000 I3.067479 J-1.510466
G03 X125.452500 Y119.085200 Z-0.300000 I1.469866 J-0.302555
G01 X125.561610 Y118.494250 Z-0.300000
G01 X125.839300 Y119.043000 Z-0.300000
G03 X126.052972 Y119.612389 Z-0.300000 I-2.483434 J1.256734
G03 X126.337140 Y120.996520 Z-0.300000 I-14.558316 J3.710119
G01 X126.337140 Y120.996520 Z-0.300000
G00 Z5.000000

(Change tool to Cylindrical cutter)

G00 Z5.000000
G00 X134.618020 Y123.278330

G01 Z-0.300000 F100.0(Penetrate)
G03 X135.163062 Y124.505632 Z-0.300000 I-6.771961 J3.742088 F400.000000
G03 X135.202830 Y124.979900 Z-0.300000 I-0.919037 J0.315864
G03 X135.057106 Y125.018542 Z-0.300000 I-0.081559 J-0.013475
G03 X134.445890 Y124.047980 Z-0.300000 I3.714026 J-3.016662
G03 X133.748603 Y122.222322 Z-0.300000 I11.479472 J-5.430426
G03 X133.860910 Y122.071950 Z-0.300000 I0.112307 J-0.033247
G03 X133.929177 Y122.109706 Z-0.300000 I-0.000000 J0.080595
G03 X134.618020 Y123.278330 Z-0.300000 I-20.681844 J12.978206
G01 X134.618020 Y123.278330 Z-0.300000
G00 Z5.000000

(Change tool to Cylindrical cutter)

G00 Z5.000000
G00 X130.471200 Y124.552670

G01 Z-0.300000 F100.0(Penetrate)
G03 X130.553539 Y125.153509 Z-0.300000 I-1.525079 J0.515059 F400.000000
G03 X130.415100 Y125.604250 Z-0.300000 I-0.971859 J-0.051863
G02 X130.314967 Y126.043357 Z-0.300000 I0.615705 J0.371374
G02 X130.517100 Y126.682270 Z-0.300000 I1.584812 J-0.149956
G03 X130.715131 Y127.326635 Z-0.300000 I-1.339737 J0.764351
G03 X130.608500 Y127.853710 Z-0.300000 I-0.978563 J0.076353
G02 X130.467855 Y128.384249 Z-0.300000 I1.127493 J0.582808
G02 X130.568000 Y128.836380 Z-0.300000 I0.902720 J0.037207
G03 X130.721379 Y129.307224 Z-0.300000 I-1.362252 J0.704162
G03 X130.783480 Y130.236070 Z-0.300000 I-5.356971 J0.824657
G03 X130.687009 Y130.593799 Z-0.300000 I-0.766057 J-0.014716
G03 X130.590560 Y130.582920 Z-0.300000 I-0.045955 J-0.025561
G02 X130.372283 Y130.001189 Z-0.300000 I-3.934169 J1.144360
G02 X129.945380 Y129.194040 Z-0.300000 I-8.021355 J3.726047
G03 X129.660651 Y128.400185 Z-0.300000 I1.880242 J-1.122368
G03 X129.746150 Y127.881090 Z-0.300000 I0.842440 J-0.127832
G02 X129.871161 Y127.370924 Z-0.300000 I-0.994594 J-0.514115
G02 X129.749150 Y127.021910 Z-0.300000 I-0.554591 J-0.001956
G03 X129.597690 Y126.657944 Z-0.300000 I0.553911 J-0.444000
G03 X129.622600 Y125.906530 Z-0.300000 I2.565391 J-0.291076
G02 X129.589210 Y125.188772 Z-0.300000 I-1.579467 J-0.286179
G02 X129.294810 Y124.732110 Z-0.300000 I-0.884262 J0.246837
G03 X129.171061 Y124.164459 Z-0.300000 I0.305013 J-0.363808
G03 X129.704330 Y123.870730 Z-0.300000 I0.470821 J0.223839
G03 X130.153723 Y124.073325 Z-0.300000 I-0.098921 J0.819140
G03 X130.471070 Y124.552670 Z-0.300000 I-0.745513 J0.838282
G01 X130.471200 Y124.552670 Z-0.300000
G00 Z5.000000

(Change tool to Cylindrical cutter)

G00 Z5.000000
G00 X116.839760 Y125.387860

G01 Z-0.300000 F100.0(Penetrate)
G03 X118.641346 Y126.927085 Z-0.300000 I-5.449814 J8.202680 F400.000000
G03 X118.926420 Y127.658630 Z-0.300000 I-0.796092 J0.731545
G03 X118.810464 Y127.841244 Z-0.300000 I-0.201774 J0.000000
G03 X118.069880 Y128.061160 Z-0.300000 I-1.094612 J-2.329247
G02 X117.009921 Y129.079270 Z-0.300000 I0.172218 J1.240116
G02 X117.564980 Y130.863460 Z-0.300000 I1.991632 J0.358839
G03 X119.558817 Y133.326192 Z-0.300000 I-11.165573 J11.078162
G03 X119.510720 Y133.835440 Z-0.300000 I-0.342918 J0.224508
G03 X119.178380 Y133.849711 Z-0.300000 I-0.173680 J-0.167748
G03 X117.038260 Y131.680290 Z-0.300000 I13.316726 J-15.277183
G02 X116.311994 Y130.935021 Z-0.300000 I-5.743639 J4.870678
G02 X115.427650 Y130.241350 Z-0.300000 I-5.852799 J6.551039
G01 X114.494690 Y129.601530 Z-0.300000
G01 X115.226160 Y128.867490 Z-0.300000
G02 X115.820905 Y127.609277 Z-0.300000 I-1.469428 J-1.464255
G02 X115.541040 Y125.712870 Z-0.300000 I-3.916227 J-0.390912
G03 X115.337092 Y124.848750 Z-0.300000 I2.562734 J-1.060980
G03 X115.469440 Y124.706650 Z-0.300000 I0.132348 J-0.009417
G03 X115.791595 Y124.782309 Z-0.300000 I-0.000000 J0.723698
G03 X116.839740 Y125.387860 Z-0.300000 I-4.310501 J8.670910
G01 X116.839760 Y125.387860 Z-0.300000
G00 Z5.000000

(Change tool to Cylindrical cutter)

G00 Z5.000000
G00 X126.643470 Y125.711640

G01 Z-0.300000 F100.0(Penetrate)
G03 X126.669137 Y125.961330 Z-0.300000 I-0.470792 J0.174560 F400.000000
G03 X126.596270 Y126.024000 Z-0.300000 I-0.072867 J-0.011027
G03 X126.124543 Y125.823782 Z-0.300000 I-0.000000 J-0.655820
G03 X125.924340 Y125.328310 Z-0.300000 I0.513008 J-0.495472
G03 X126.176459 Y125.176999 Z-0.300000 I0.171465 J0.000000
G03 X126.643490 Y125.711640 Z-0.300000 I-0.470137 J0.881989
G01 X126.643470 Y125.711640 Z-0.300000
G00 Z5.000000

(Change tool to Cylindrical cutter)

G00 Z5.000000
G00 X66.680097 Y130.804280

G01 Z-0.300000 F100.0(Penetrate)
G03 X67.072218 Y131.234165 Z-0.300000 I-1.437251 J1.704773 F400.000000
G03 X69.048348 Y134.202550 Z-0.300000 I-68.711606 J47.885054
G03 X70.689807 Y137.069390 Z-0.300000 I-30.280946 J19.241217
G03 X70.596889 Y137.221480 Z-0.300000 I-0.092918 J0.047661
G02 X70.269184 Y137.316420 Z-0.300000 I-0.000000 J0.613043
G02 X69.729089 Y137.770370 Z-0.300000 I1.401368 J2.215570
G03 X68.642695 Y138.323955 Z-0.300000 I-1.272660 J-1.154757
G03 X67.812119 Y137.979390 Z-0.300000 I-0.101307 J-0.929136
G03 X67.701065 Y137.619709 Z-0.300000 I0.399716 J-0.320399
G03 X67.898109 Y136.861280 Z-0.300000 I2.213321 J0.170221
G02 X68.138594 Y135.556493 Z-0.300000 I-2.441679 J-1.124581
G02 X67.699931 Y133.911600 Z-0.300000 I-4.415844 J0.296687
G02 X66.961756 Y132.874388 Z-0.300000 I-3.495630 J1.706528
G02 X65.313209 Y131.512960 Z-0.300000 I-7.777015 J7.738329
G03 X64.982855 Y131.132545 Z-0.300000 I0.541251 J-0.803673
G03 X64.966699 Y130.799400 Z-0.300000 I0.381971 J-0.185488
G03 X65.554876 Y130.391467 Z-0.300000 I0.586383 J0.217477
G03 X66.680098 Y130.804400 Z-0.300000 I-0.005030 J1.753258
G01 X66.680097 Y130.804280 Z-0.300000
G00 Z5.000000

(Change tool to Cylindrical cutter)

G00 Z5.000000
G00 X69.752954 Y131.458070

G01 Z-0.300000 F100.0(Penetrate)
G03 X72.881415 Y134.555801 Z-0.300000 I-10.661067 J13.895441 F400.000000
G03 X72.690681 Y135.209790 Z-0.300000 I-0.330151 J0.258520
G03 X71.468829 Y135.014483 Z-0.300000 I-0.431079 J-1.222788
G03 X69.187464 Y132.513650 Z-0.300000 I5.918422 J-7.690027
G03 X68.415659 Y130.864458 Z-0.300000 I6.097657 J-3.858838
G03 X68.583084 Y130.634730 Z-0.300000 I0.167425 J-0.053854
G03 X68.670425 Y130.662384 Z-0.300000 I0.000000 J0.151757
G03 X69.752954 Y131.458070 Z-0.300000 I-18.776805 J26.680006
G01 X69.752954 Y131.458070 Z-0.300000
G00 Z5.000000

(Change tool to Cylindrical cutter)

G00 Z5.000000
G00 X63.646377 Y132.638190

G01 Z-0.300000 F100.0(Penetrate)
G03 X64.800199 Y133.552233 Z-0.300000 I-1.933607 J3.626117 F400.000000
G03 X65.063824 Y134.251800 Z-0.300000 I-0.796388 J0.699567
G03 X64.829623 Y135.011250 Z-0.300000 I-1.348444 J0.000000
G03 X64.386570 Y135.245450 Z-0.300000 I-0.443053 J-0.301978
G03 X63.460126 Y134.728582 Z-0.300000 I0.000000 J-1.088721
G03 X62.943250 Y132.907150 Z-0.300000 I2.950854 J-1.821432
G03 X63.149649 Y132.607216 Z-0.300000 I0.321128 J0.000000
G03 X63.646377 Y132.638190 Z-0.300000 I0.214382 J0.560453
G01 X63.646377 Y132.638190 Z-0.300000
G00 Z5.000000

(Change tool to Cylindrical cutter)

G00 Z5.000000
G00 X51.068031 Y134.573420

G01 Z-0.300000 F100.0(Penetrate)
G03 X51.010023 Y134.758584 Z-0.300000 I-0.324528 J0.000000 F400.000000
G03 X50.219801 Y135.794350 Z-0.300000 I-12.016091 J-8.348164
G02 X49.447398 Y136.836591 Z-0.300000 I8.513104 J7.116387
G02 X49.371571 Y137.091020 Z-0.300000 I0.388945 J0.254429
G02 X49.595891 Y137.557292 Z-0.300000 I0.596758 J0.000000
G02 X51.321327 Y138.648410 Z-0.300000 I5.797832 J-7.258571
G03 X52.455075 Y139.319446 Z-0.300000 I-3.584248 J7.349037
G03 X52.825990 Y139.711440 Z-0.300000 I-0.791728 J1.120637
G03 X53.827187 Y141.703757 Z-0.300000 I-10.047328 J6.296795
G03 X54.036836 Y142.819390 Z-0.300000 I-2.863553 J1.115633
G01 X53.996693 Y142.845809 Z-0.300000
G03 X53.002593 Y142.374030 Z-0.300000 I5.973805 J-13.870833
G02 X51.947270 Y141.884431 Z-0.300000 I-5.942749 J11.427346
G02 X49.768716 Y141.047730 Z-0.300000 I-19.670329 J47.961904
G03 X47.591479 Y140.207244 Z-0.300000 I16.248741 J-45.331828
G03 X46.237397 Y139.585250 Z-0.300000 I7.512316 J-18.139228
G03 X44.016179 Y138.046100 Z-0.300000 I4.454678 J-8.801099
G03 X43.646020 Y137.203010 Z-0.300000 I0.775051 J-0.843090
G03 X44.041840 Y136.592552 Z-0.300000 I0.668654 J0.000000
G03 X48.739961 Y134.926360 Z-0.300000 I12.807754 J28.657034
G03 X50.943317 Y134.466188 Z-0.300000 I5.248142 J19.623653
G03 X51.068031 Y134.573420 Z-0.300000 I0.016257 J0.107232
G01 X51.068031 Y134.573420 Z-0.300000
G00 Z5.000000

(Change tool to Cylindrical cutter)

G00 Z5.000000
G00 X72.914205 Y137.995240

G01 Z-0.300000 F100.0(Penetrate)
G03 X73.094219 Y138.325806 Z-0.300000 I-0.833765 J0.668335 F400.000000
G03 X73.065904 Y138.450540 Z-0.300000 I-0.117070 J0.039005
G03 X72.170219 Y138.611287 Z-0.300000 I-0.559192 J-0.540068
G03 X71.637606 Y137.764730 Z-0.300000 I0.406470 J-0.846557
G03 X72.007524 Y137.455599 Z-0.300000 I0.314125 J0.000000
G03 X72.914205 Y137.995240 Z-0.300000 I-0.267191 J1.480426
G01 X72.914205 Y137.995240 Z-0.300000
G00 Z5.000000

(Change tool to Cylindrical cutter)

G00 Z5.000000
G00 X71.891628 Y143.111750

G01 Z-0.300000 F100.0(Penetrate)
G03 X71.909578 Y143.318696 Z-0.300000 I-0.113807 J0.114123 F400.000000
G03 X70.389394 Y145.349268 Z-0.300000 I-35.891025 J-25.285418
G03 X68.750286 Y147.300617 Z-0.300000 I-36.780425 J-29.230989
G03 X68.405182 Y147.498630 Z-0.300000 I-0.467256 J-0.414616
G03 X68.060184 Y147.485257 Z-0.300000 I-0.144633 J-0.725602
G03 X67.084726 Y147.127130 Z-0.300000 I1.814384 J-6.449499
G03 X66.622568 Y146.079944 Z-0.300000 I0.359091 J-0.784054
G03 X67.726562 Y145.123930 Z-0.300000 I1.336851 J0.428333
G02 X69.151202 Y144.513327 Z-0.300000 I-0.544637 J-3.237993
G02 X69.517031 Y143.781950 Z-0.300000 I-0.548180 J-0.731377
G03 X69.922276 Y143.030440 Z-0.300000 I0.899444 J0.000000
G03 X70.981046 Y142.819200 Z-0.300000 I0.790200 J1.201627
G03 X71.720708 Y143.007549 Z-0.300000 I-1.158046 J6.094272
G03 X71.891628 Y143.111750 Z-0.300000 I-0.130639 J0.406566
G01 X71.891628 Y143.111750 Z-0.300000
G00 Z5.000000

(Change tool to Cylindrical cutter)

G00 Z5.000000
G00 X74.088418 Y143.460940

G01 Z-0.300000 F100.0(Penetrate)
G03 X74.359937 Y143.783163 Z-0.300000 I-0.576107 J0.760961 F400.000000
G03 X74.336866 Y143.940930 Z-0.300000 I-0.121369 J0.062822
G03 X73.610320 Y144.104543 Z-0.300000 I-0.487790 J-0.471128
G03 X72.962622 Y143.424000 Z-0.300000 I0.379944 J-1.010098
G03 X73.178139 Y143.138510 Z-0.300000 I0.208342 J-0.066814
G03 X74.088418 Y143.460900 Z-0.300000 I-0.052294 J1.593951
G01 X74.088418 Y143.460940 Z-0.300000
G00 Z5.000000

(Change tool to Cylindrical cutter)

G00 Z5.000000
G00 X72.909951 Y148.528730

G01 Z-0.300000 F100.0(Penetrate)
G03 X72.495042 Y149.546910 Z-0.300000 I-1.456753 J-0.000000 F400.000000
G03 X71.841930 Y149.621570 Z-0.300000 I-0.372430 J-0.363971
G03 X71.670513 Y149.191970 Z-0.300000 I0.213956 J-0.334370
G03 X72.108906 Y148.541180 Z-0.300000 I1.109096 J0.274069
G03 X72.716945 Y148.338659 Z-0.300000 I0.624625 J0.861310
G03 X72.909951 Y148.528680 Z-0.300000 I0.002963 J0.190021
G01 X72.909951 Y148.528730 Z-0.300000
G00 Z5.000000

(Change tool to Cylindrical cutter)

G00 Z5.000000
G00 X130.050430 Y149.326590

G01 Z-0.300000 F100.0(Penetrate)
G03 X128.112958 Y152.887343 Z-0.300000 I-9.712685 J-2.977369 F400.000000
G03 X127.024710 Y152.924818 Z-0.300000 I-0.561015 J-0.471753
G03 X127.007976 Y152.794714 Z-0.300000 I0.079016 J-0.076291
G03 X127.216260 Y152.583558 Z-0.300000 I0.490831 J0.275852
G02 X127.503777 Y152.340899 Z-0.300000 I-0.539087 J-0.930404
