%
(Header)
(Generated by gcodetools from Inkscape.)
(Using default header. To add your own header create file "header" in the output dir.)
M3
(Header end.)
G21 (All units in mm)

(Start cutting path id: path8087)
(Change tool to Cylindrical cutter)

G00 Z5.000000
G00 X126.689720 Y152.012345

G01 Z-0.100000 F100.0(Penetrate)
G03 X119.041229 Y151.581216 Z-0.100000 I-0.179954 J-64.867487 F400.000000
G03 X112.636980 Y150.383435 Z-0.100000 I5.400848 J-46.596933
G03 X107.321747 Y148.688122 Z-0.100000 I12.919985 J-49.687371
G03 X101.779560 Y146.258440 Z-0.100000 I21.481741 J-56.536367
G03 X81.547885 Y128.924462 Z-0.100000 I24.519351 J-49.092094
G03 X71.154562 Y103.102190 Z-0.100000 I48.842244 J-34.661500
G03 X70.577045 Y95.318985 Z-0.100000 I52.158443 J-7.783205
G03 X71.154562 Y87.535780 Z-0.100000 I52.735960 J0.000000
G03 X73.907663 Y76.269854 Z-0.100000 I62.734925 J9.361435
G03 X78.414328 Y66.426410 Z-0.100000 I52.249779 J17.968361
G03 X96.479268 Y47.445452 Z-0.100000 I48.988423 J28.537208
G03 X121.004170 Y38.709610 Z-0.100000 I30.527909 J46.910313
G03 X128.140387 Y38.462332 Z-0.100000 I5.262886 J48.786065
G03 X135.726820 Y39.272110 Z-0.100000 I-2.138641 J55.977685
G03 X152.400615 Y45.055685 Z-0.100000 I-9.651854 J54.752579
G03 X166.549100 Y55.842420 Z-0.100000 I-26.751433 J49.761014
G03 X176.419154 Y70.134626 Z-0.100000 I-40.232805 J38.338555
G03 X181.760040 Y87.535780 Z-0.100000 I-55.026117 J26.409216
G03 X182.337547 Y95.318985 Z-0.100000 I-52.159375 J7.783205
G03 X181.760040 Y103.102190 Z-0.100000 I-52.736881 J-0.000000
G03 X176.419032 Y120.502287 Z-0.100000 I-60.354388 J-9.006179
G03 X166.549100 Y134.793600 Z-0.100000 I-50.106836 J-24.051148
G03 X152.505221 Y145.506057 Z-0.100000 I-40.667997 J-38.753278
G03 X135.726820 Y151.383435 Z-0.100000 I-26.973666 J-50.115171
G03 X132.349600 Y151.807344 Z-0.100000 I-5.521625 J-30.325103
G03 X126.689720 Y152.012345 Z-0.100000 I-5.895652 J-84.538853
G01 X126.689720 Y152.012345 Z-0.100000
G00 Z5.000000

(Change tool to Cylindrical cutter)

G00 Z5.000000
G00 X126.480730 Y148.738910

G01 Z-0.100000 F100.0(Penetrate)
G02 X131.126665 Y148.612808 Z-0.100000 I-0.002976 J-85.757049 F400.000000
G02 X133.988540 Y148.297500 Z-0.100000 I-1.406967 J-25.915728
G02 X139.791213 Y147.179050 Z-0.100000 I-19.298385 J-115.734446
G02 X140.248310 Y146.926410 Z-0.100000 I-0.195810 J-0.894103
G02 X140.279468 Y146.812012 Z-0.100000 I-0.086440 J-0.084986
G02 X137.955340 Y137.760390 Z-0.100000 I-725.169438 J181.373023
G01 X135.564720 Y128.692030 Z-0.100000
G01 X126.646750 Y128.629530 Z-0.100000
G01 X117.728780 Y128.567030 Z-0.100000
G01 X115.000260 Y137.473280 Z-0.100000
G02 X112.288657 Y146.384792 Z-0.100000 I2325.046593 J712.335593
G02 X112.238540 Y146.613910 Z-0.100000 I1.438458 J0.434687
G02 X112.487251 Y146.983657 Z-0.100000 I0.331281 J0.045685
G02 X118.853780 Y148.299460 Z-0.100000 I17.574826 J-68.975847
G02 X121.840116 Y148.615919 Z-0.100000 I4.501621 J-28.231673
G02 X126.480730 Y148.738910 Z-0.100000 I4.637578 J-87.372478
G01 X126.480730 Y148.738910 Z-0.100000
G00 Z5.000000

(Change tool to Cylindrical cutter)

G00 Z5.000000
G00 X146.970970 Y144.570940

G01 Z-0.100000 F100.0(Penetrate)
G02 X147.584386 Y144.676594 Z-0.100000 I0.373799 J-0.336697 F400.000000
G02 X155.074480 Y140.182270 Z-0.100000 I-47.286760 J-87.295101
G02 X159.732528 Y136.679968 Z-0.100000 I-26.699814 J-40.359390
G02 X164.412380 Y132.236960 Z-0.100000 I-38.391436 J-45.124140
G02 X166.954386 Y129.455058 Z-0.100000 I-83.037443 J-78.429109
G02 X167.246370 Y129.031880 Z-0.100000 I-1.610208 J-1.423329
G02 X167.111988 Y128.799611 Z-0.100000 I-0.140357 J-0.073803
G02 X155.082290 Y128.572890 Z-0.100000 I-12.029698 J319.030985
G02 X142.786517 Y128.681194 Z-0.100000 I0.000000 J698.022952
G02 X142.678000 Y128.791640 Z-0.100000 I0.001946 J0.110446
G02 X142.711212 Y129.044343 Z-0.100000 I0.977980 J-0.000000
G02 X144.786385 Y136.736752 Z-0.100000 I1800.070251 J-481.476835
G02 X146.900711 Y144.442816 Z-0.100000 I1795.130762 J-488.389967
G02 X146.970970 Y144.570940 Z-0.100000 I0.306700 J-0.084858
G01 X146.970970 Y144.570940 Z-0.100000
G00 Z5.000000

(Change tool to Cylindrical cutter)

G00 Z5.000000
G00 X105.308860 Y144.272110

G01 Z-0.100000 F100.0(Penetrate)
G02 X105.793876 Y144.313642 Z-0.100000 I0.319553 J-0.878973 F400.000000
G02 X105.922140 Y144.197910 Z-0.100000 I-0.028944 J-0.161020
G02 X109.851541 Y130.001926 Z-0.100000 I-678.498706 J-195.447979
G02 X110.004170 Y128.832680 Z-0.100000 I-4.402303 J-1.169246
G02 X109.876148 Y128.701912 Z-0.100000 I-0.130797 J0.000000
G02 X97.715114 Y128.572910 Z-0.100000 I-12.161034 J573.144706
G02 X85.802338 Y128.799877 Z-0.100000 I0.000000 J312.745647
G02 X85.668235 Y129.031900 Z-0.100000 I0.006032 J0.158252
G02 X87.393807 Y131.391518 Z-0.100000 I8.811931 J-4.633347
G02 X93.426048 Y136.893220 Z-0.100000 I55.266469 J-54.538085
G02 X97.893400 Y140.176536 Z-0.100000 I33.160422 J-40.437957
G02 X102.863540 Y143.086580 Z-0.100000 I30.946285 J-47.154625
G02 X104.700401 Y144.013257 Z-0.100000 I41.606932 J-80.189487
G02 X105.308860 Y144.272130 Z-0.100000 I2.717305 J-5.542292
G01 X105.308860 Y144.272110 Z-0.100000
G00 Z5.000000

(Change tool to Cylindrical cutter)

G00 Z5.000000
G00 X126.611590 Y124.504530

G01 Z-0.100000 F100.0(Penetrate)
G02 X170.508249 Y124.302308 Z-0.100000 I-6.547602 J-6185.750522 F400.000000
G02 X170.631130 Y124.209610 Z-0.100000 I-0.001054 J-0.129191
G02 X170.562609 Y124.027080 Z-0.100000 I-0.155441 J-0.045774
G02 X160.334260 Y117.664690 Z-0.100000 I-332.589747 J523.277320
G01 X149.969010 Y111.356100 Z-0.100000
G01 X126.685810 Y111.369800 Z-0.100000
G01 X103.400650 Y111.383500 Z-0.100000
G01 X93.031516 Y117.670610 Z-0.100000
G02 X82.789948 Y124.028235 Z-0.100000 I297.023212 J489.905892
G02 X82.662375 Y124.260450 Z-0.100000 I0.147558 J0.232215
G02 X82.813990 Y124.412908 Z-0.100000 I0.152460 J0.000000
G02 X126.611590 Y124.504590 Z-0.100000 I35.186313 J-6347.537199
G01 X126.611590 Y124.504530 Z-0.100000
G00 Z5.000000

(Change tool to Cylindrical cutter)

G00 Z5.000000
G00 X172.855740 Y119.672500

G01 Z-0.100000 F100.0(Penetrate)
G01 X172.263940 Y118.639300 Z-0.100000 F400.000000
G03 X171.673027 Y117.605066 Z-0.100000 I290.306135 J-166.553387
G03 X150.338150 Y80.106100 Z-0.100000 I498579.783977 J-283686.591681
G02 X128.949276 Y42.670715 Z-0.100000 I-10098.866878 J5745.204557
G02 X128.773700 Y42.526020 Z-0.100000 I-0.279661 J0.160474
G02 X128.657718 Y42.607201 Z-0.100000 I-0.028311 J0.082995
G02 X128.543230 Y53.674460 Z-0.100000 I534.864711 J11.067259
G01 X128.543230 Y64.899070 Z-0.100000
G01 X140.558860 Y86.065080 Z-0.100000
G01 X152.574480 Y107.229140 Z-0.100000
G01 X161.818630 Y112.936180 Z-0.100000
G02 X171.070425 Y118.629099 Z-0.100000 I1967.872333 J-3187.705540
G02 X171.959260 Y119.156880 Z-0.100000 I18.863860 J-30.756250
G01 X172.855740 Y119.672500 Z-0.100000
G00 Z5.000000

(Change tool to Cylindrical cutter)

G00 Z5.000000
G00 X80.859641 Y119.225240

G01 Z-0.100000 F100.0(Penetrate)
G02 X81.230327 Y119.109085 Z-0.100000 I-0.068667 J-0.868699 F400.000000
G02 X91.090110 Y113.252580 Z-0.100000 I-383.412064 J-656.725637
G01 X100.922140 Y107.311180 Z-0.100000
G01 X112.418230 Y86.070940 Z-0.100000
G01 X123.912370 Y64.828750 Z-0.100000
G01 X123.851870 Y53.608050 Z-0.100000
G01 X123.793270 Y42.385390 Z-0.100000
G01 X102.054990 Y80.313130 Z-0.100000
G02 X80.479131 Y118.271804 Z-0.100000 I5330.771490 J3055.142613
G02 X80.388937 Y118.748680 Z-0.100000 I0.659325 J0.371670
G02 X80.572043 Y119.118399 Z-0.100000 I0.648432 J-0.090938
G02 X80.859641 Y119.225240 Z-0.100000 I0.258835 J-0.256239
G01 X80.859641 Y119.225240 Z-0.100000
G00 Z5.000000

(Change tool to Cylindrical cutter)

G00 Z5.000000
G00 X175.127230 Y115.242820

G01 Z-0.100000 F100.0(Penetrate)
G02 X176.198525 Y113.793378 Z-0.100000 I-1.317481 J-2.094384 F400.000000
G02 X178.502230 Y102.746720 Z-0.100000 I-93.799171 J-25.324717
G02 X179.127051 Y95.257934 Z-0.100000 I-57.887066 J-8.600217
G02 X178.746370 Y89.834610 Z-0.100000 I-30.553635 J-0.580365
G02 X178.465562 Y88.843469 Z-0.100000 I-4.359498 J0.699773
G02 X178.291290 Y88.736960 Z-0.100000 I-0.160298 J0.066455
G02 X178.020325 Y88.784542 Z-0.100000 I0.120098 J1.479250
G02 X170.252230 Y90.934220 Z-0.100000 I318.999908 J1167.850935
G02 X162.647110 Y93.205908 Z-0.100000 I63.141947 J225.251576
G02 X162.545190 Y93.379530 Z-0.100000 I0.045511 J0.143441
G02 X162.756056 Y93.943185 Z-0.100000 I1.893440 J-0.387074
G02 X168.820700 Y104.578183 Z-0.100000 I1352.686290 J-764.327364
G02 X174.996756 Y115.210956 Z-0.100000 I1325.367271 J-762.730759
G02 X175.127230 Y115.242820 Z-0.100000 I0.080679 J-0.047297
G01 X175.127230 Y115.242820 Z-0.100000
G00 Z5.000000

(Change tool to Cylindrical cutter)

G00 Z5.000000
G00 X77.525656 Y114.711570

G01 Z-0.100000 F100.0(Penetrate)
G02 X77.643686 Y114.697603 Z-0.100000 I0.053682 J-0.052053 F400.000000
G02 X83.936049 Y103.970965 Z-0.100000 I-1372.049393 J-812.068112
G02 X90.118129 Y93.243815 Z-0.100000 I-1406.861947 J-817.922567
G02 X90.369407 Y92.619770 Z-0.100000 I-2.150908 J-1.228697
G02 X90.288860 Y92.478938 Z-0.100000 I-0.113459 J-0.028558
G02 X82.547141 Y90.326800 Z-0.100000 I-80.695938 J275.280827
G02 X74.664859 Y88.271765 Z-0.100000 I-493.337528 J1876.098389
G02 X74.511985 Y88.248680 Z-0.100000 I-0.188028 J0.727453
G02 X73.486997 Y89.224705 Z-0.100000 I-0.041082 J0.983074
G02 X74.408470 Y102.629530 Z-0.100000 I88.716709 J0.635527
G02 X76.453884 Y112.801052 Z-0.100000 I95.083289 J-13.829086
G02 X77.525656 Y114.711570 Z-0.100000 I4.144565 J-1.069157
G01 X77.525656 Y114.711570 Z-0.100000
G00 Z5.000000

(Change tool to Cylindrical cutter)

G00 Z5.000000
G00 X126.713150 Y104.988910

G01 Z-0.100000 F100.0(Penetrate)
G02 X143.668686 Y104.838044 Z-0.100000 I-0.000000 J-952.873455 F400.000000
G02 X143.771750 Y104.686180 Z-0.100000 I-0.001998 J-0.112260
G02 X143.635651 Y104.394823 Z-0.100000 I-1.972042 J0.743719
G02 X135.027610 Y89.178360 Z-0.100000 I-5225.879495 J2946.267064
G02 X126.389167 Y73.979611 Z-0.100000 I-13695.011819 J7773.716448
G02 X126.330340 Y73.895160 Z-0.100000 I-0.491949 J0.279968
G01 X126.272456 Y73.896618 Z-0.100000
G02 X125.974870 Y74.365860 Z-0.100000 I2.640485 J2.003540
G03 X125.683331 Y74.914667 Z-0.100000 I-39.125115 J-20.432306
G03 X117.615500 Y89.834610 Z-0.100000 I-21021.481008 J-11357.545683
G02 X109.569315 Y104.758324 Z-0.100000 I4705.782183 J2546.773578
G02 X109.541280 Y104.869770 Z-0.100000 I0.207491 J0.111446
G02 X109.600347 Y104.929250 Z-0.100000 I0.059482 J0.000000
G02 X126.713150 Y104.988910 Z-0.100000 I17.112803 J-2454.297197
G01 X126.713150 Y104.988910 Z-0.100000
G00 Z5.000000

(Change tool to Cylindrical cutter)

G00 Z5.000000
G00 X159.316680 Y86.875630

G01 Z-0.100000 F100.0(Penetrate)
G02 X159.528480 Y86.932876 Z-0.100000 I0.154720 J-0.152006 F400.000000
G02 X168.183309 Y84.512700 Z-0.100000 I-185.646458 J-680.578713
G02 X176.781501 Y81.990591 Z-0.100000 I-196.233952 J-684.904006
G02 X177.156520 Y81.764300 Z-0.100000 I-0.253195 J-0.843497
G02 X177.390159 Y80.698653 Z-0.100000 I-0.731671 J-0.718852
G02 X173.388940 Y71.277970 Z-0.100000 I-84.925850 J30.510257
G02 X169.658065 Y64.861108 Z-0.100000 I-48.793599 J24.076417
G02 X165.275660 Y59.289690 Z-0.100000 I-41.030092 J27.764458
G02 X163.696599 Y57.636372 Z-0.100000 I-34.782853 J31.639888
G02 X163.566680 Y57.582660 Z-0.100000 I-0.129919 J0.130269
G02 X163.435840 Y57.636820 Z-0.100000 I0.000000 J0.185123
G02 X156.660420 Y64.481100 Z-0.100000 I615.785128 J616.365459
G01 X149.904560 Y71.379530 Z-0.100000
G01 X154.506120 Y79.020160 Z-0.100000
G02 X159.134086 Y86.641825 Z-0.100000 I1011.575358 J-609.024709
G02 X159.316680 Y86.875630 Z-0.100000 I1.116426 J-0.683690
G01 X159.316680 Y86.875630 Z-0.100000
G00 Z5.000000

(Change tool to Cylindrical cutter)

G00 Z5.000000
G00 X93.793235 Y86.668600

G01 Z-0.100000 F100.0(Penetrate)
G02 X98.289223 Y80.599481 Z-0.100000 I-23.696679 J-22.254309 F400.000000
G02 X102.957290 Y70.705710 Z-0.100000 I-59.136812 J-33.949983
G02 X102.908846 Y70.466926 Z-0.100000 I-0.214369 J-0.080815
G02 X96.357684 Y63.774070 Z-0.100000 I-244.697819 J232.964679
G01 X89.656516 Y57.115860 Z-0.100000
G01 X87.906516 Y59.010390 Z-0.100000
G02 X82.112819 Y66.629031 Z-0.100000 I36.706961 J33.926566
G02 X77.590109 Y75.678360 Z-0.100000 I47.433522 J29.361369
G02 X75.649564 Y81.180044 Z-0.100000 I80.918604 J31.634556
G02 X75.752220 Y81.504530 Z-0.100000 I0.282517 J0.089103
G02 X76.172627 Y81.718342 Z-0.100000 I0.791263 J-1.035601
G02 X84.867025 Y84.252975 Z-0.100000 I264.185875 J-890.041516
G02 X93.630136 Y86.714437 Z-0.100000 I252.851566 J-883.353444
G02 X93.793235 Y86.668600 Z-0.100000 I0.043562 J-0.158088
G01 X93.793235 Y86.668600 Z-0.100000
G00 Z5.000000

(Change tool to Cylindrical cutter)

G00 Z5.000000
G00 X145.955340 Y64.297500

G01 Z-0.100000 F100.0(Penetrate)
G02 X146.178648 Y64.304934 Z-0.100000 I0.115272 J-0.104965 F400.000000
G02 X151.930834 Y58.661264 Z-0.100000 I-271.966914 J-282.949469
G02 X157.583329 Y52.885687 Z-0.100000 I-285.220498 J-284.796034
G02 X157.740510 Y52.494770 Z-0.100000 I-0.407523 J-0.390917
G02 X157.313583 Y51.719128 Z-0.100000 I-0.918058 J0.000000
G02 X149.590110 Y47.332660 Z-0.100000 I-49.560333 J78.270562
G02 X143.311273 Y44.636455 Z-0.100000 I-24.524033 J48.451706
G02 X137.463150 Y43.006490 Z-0.100000 I-14.411578 J40.400886
G02 X135.144996 Y42.542691 Z-0.100000 I-66.976809 J328.737325
G02 X134.246360 Y42.375630 Z-0.100000 I-8.690472 J44.246406
G01 X133.345970 Y42.217420 Z-0.100000
G01 X133.924090 Y43.236960 Z-0.100000
G03 X134.503131 Y44.256352 Z-0.100000 I-1602.981320 J911.219135
G03 X140.125260 Y54.162740 Z-0.100000 I-81833.320770 J46446.409865
G02 X145.773846 Y64.048764 Z-0.100000 I1670.417489 J-947.871025
G02 X145.955340 Y64.297500 Z-0.100000 I1.234675 J-0.710320
G01 X145.955340 Y64.297500 Z-0.100000
G00 Z5.000000

(Change tool to Cylindrical cutter)

G00 Z5.000000
G00 X106.863540 Y63.920550

G01 Z-0.100000 F100.0(Penetrate)
G02 X107.125948 Y63.566825 Z-0.100000 I-1.372267 J-1.292199 F400.000000
G02 X119.201430 Y42.428360 Z-0.100000 I-4921.744942 J-2825.596331
G02 X119.153584 Y42.342991 Z-0.100000 I-0.049688 J-0.028244
G02 X118.463150 Y42.404960 Z-0.100000 I-0.091995 J2.852304
G03 X117.999138 Y42.501746 Z-0.100000 I-8.634691 J-40.235763
G03 X115.566670 Y42.990900 Z-0.100000 I-172.154137 J-849.796669
G02 X106.541580 Y45.777192 Z-0.100000 I9.040282 J45.292157
G02 X97.551044 Y50.647150 Z-0.100000 I21.180808 J49.836149
G02 X95.229488 Y52.270684 Z-0.100000 I40.907069 J60.966244
G02 X95.174094 Y52.379570 Z-0.100000 I0.079319 J0.108886
G02 X95.244306 Y52.549655 Z-0.100000 I0.241116 J-0.000000
G02 X100.982029 Y58.264545 Z-0.100000 I652.930152 J-649.801069
G02 X106.764217 Y63.922843 Z-0.100000 I640.183906 J-648.417300
G02 X106.863540 Y63.920590 Z-0.100000 I0.048551 J-0.050057
G01 X106.863540 Y63.920550 Z-0.100000
G00 Z5.000000

(End cutting path id: path8087)


(Start cutting path id: path8087)
(Change tool to Cylindrical cutter)

G00 Z5.000000
G00 X126.689720 Y152.012345

G01 Z-0.200000 F100.0(Penetrate)
G03 X119.041229 Y151.581216 Z-0.200000 I-0.179954 J-64.867487 F400.000000
G03 X112.636980 Y150.383435 Z-0.200000 I5.400848 J-46.596933
G03 X107.321747 Y148.688122 Z-0.200000 I12.919985 J-49.687371
G03 X101.779560 Y146.258440 Z-0.200000 I21.481741 J-56.536367
G03 X81.547885 Y128.924462 Z-0.200000 I24.519351 J-49.092094
G03 X71.154562 Y103.102190 Z-0.200000 I48.842244 J-34.661500
G03 X70.577045 Y95.318985 Z-0.200000 I52.158443 J-7.783205
G03 X71.154562 Y87.535780 Z-0.200000 I52.735960 J0.000000
G03 X73.907663 Y76.269854 Z-0.200000 I62.734925 J9.361435
G03 X78.414328 Y66.426410 Z-0.200000 I52.249779 J17.968361
G03 X96.479268 Y47.445452 Z-0.200000 I48.988423 J28.537208
G03 X121.004170 Y38.709610 Z-0.200000 I30.527909 J46.910313
G03 X128.140387 Y38.462332 Z-0.200000 I5.262886 J48.786065
G03 X135.726820 Y39.272110 Z-0.200000 I-2.138641 J55.977685
G03 X152.400615 Y45.055685 Z-0.200000 I-9.651854 J54.752579
G03 X166.549100 Y55.842420 Z-0.200000 I-26.751433 J49.761014
G03 X176.419154 Y70.134626 Z-0.200000 I-40.232805 J38.338555
G03 X181.760040 Y87.535780 Z-0.200000 I-55.026117 J26.409216
G03 X182.337547 Y95.318985 Z-0.200000 I-52.159375 J7.783205
G03 X181.760040 Y103.102190 Z-0.200000 I-52.736881 J-0.000000
G03 X176.419032 Y120.502287 Z-0.200000 I-60.354388 J-9.006179
G03 X166.549100 Y134.793600 Z-0.200000 I-50.106836 J-24.051148
G03 X152.505221 Y145.506057 Z-0.200000 I-40.667997 J-38.753278
G03 X135.726820 Y151.383435 Z-0.200000 I-26.973666 J-50.115171
G03 X132.349600 Y151.807344 Z-0.200000 I-5.521625 J-30.325103
G03 X126.689720 Y152.012345 Z-0.200000 I-5.895652 J-84.538853
G01 X126.689720 Y152.012345 Z-0.200000
G00 Z5.000000

(Change tool to Cylindrical cutter)

G00 Z5.000000
G00 X126.480730 Y148.738910

G01 Z-0.200000 F100.0(Penetrate)
G02 X131.126665 Y148.612808 Z-0.200000 I-0.002976 J-85.757049 F400.000000
G02 X133.988540 Y148.297500 Z-0.200000 I-1.406967 J-25.915728
G02 X139.791213 Y147.179050 Z-0.200000 I-19.298385 J-115.734446
G02 X140.248310 Y146.926410 Z-0.200000 I-0.195810 J-0.894103
G02 X140.279468 Y146.812012 Z-0.200000 I-0.086440 J-0.084986
G02 X137.955340 Y137.760390 Z-0.200000 I-725.169438 J181.373023
G01 X135.564720 Y128.692030 Z-0.200000
G01 X126.646750 Y128.629530 Z-0.200000
G01 X117.728780 Y128.567030 Z-0.200000
G01 X115.000260 Y137.473280 Z-0.200000
G02 X112.288657 Y146.384792 Z-0.200000 I2325.046593 J712.335593
G02 X112.238540 Y146.613910 Z-0.200000 I1.438458 J0.434687
G02 X112.487251 Y146.983657 Z-0.200000 I0.331281 J0.045685
G02 X118.853780 Y148.299460 Z-0.200000 I17.574826 J-68.975847
G02 X121.840116 Y148.615919 Z-0.200000 I4.501621 J-28.231673
G02 X126.480730 Y148.738910 Z-0.200000 I4.637578 J-87.372478
G01 X126.480730 Y148.738910 Z-0.200000
G00 Z5.000000

(Change tool to Cylindrical cutter)

G00 Z5.000000
G00 X146.970970 Y144.570940

G01 Z-0.200000 F100.0(Penetrate)
G02 X147.584386 Y144.676594 Z-0.200000 I0.373799 J-0.336697 F400.000000
G02 X155.074480 Y140.182270 Z-0.200000 I-47.286760 J-87.295101
G02 X159.732528 Y136.679968 Z-0.200000 I-26.699814 J-40.359390
G02 X164.412380 Y132.236960 Z-0.200000 I-38.391436 J-45.124140
G02 X166.954386 Y129.455058 Z-0.200000 I-83.037443 J-78.429109
G02 X167.246370 Y129.031880 Z-0.200000 I-1.610208 J-1.423329
G02 X167.111988 Y128.799611 Z-0.200000 I-0.140357 J-0.073803
G02 X155.082290 Y128.572890 Z-0.200000 I-12.029698 J319.030985
G02 X142.786517 Y128.681194 Z-0.200000 I0.000000 J698.022952
G02 X142.678000 Y128.791640 Z-0.200000 I0.001946 J0.110446
G02 X142.711212 Y129.044343 Z-0.200000 I0.977980 J-0.000000
G02 X144.786385 Y136.736752 Z-0.200000 I1800.070251 J-481.476835
G02 X146.900711 Y144.442816 Z-0.200000 I1795.130762 J-488.389967
G02 X146.970970 Y144.570940 Z-0.200000 I0.306700 J-0.084858
G01 X146.970970 Y144.570940 Z-0.200000
G00 Z5.000000

(Change tool to Cylindrical cutter)

G00 Z5.000000
G00 X105.308860 Y144.272110

G01 Z-0.200000 F100.0(Penetrate)
G02 X105.793876 Y144.313642 Z-0.200000 I0.319553 J-0.878973 F400.000000
G02 X105.922140 Y144.197910 Z-0.200000 I-0.028944 J-0.161020
G02 X109.851541 Y130.001926 Z-0.200000 I-678.498706 J-195.447979
G02 X110.004170 Y128.832680 Z-0.200000 I-4.402303 J-1.169246
G02 X109.876148 Y128.701912 Z-0.200000 I-0.130797 J0.000000
G02 X97.715114 Y128.572910 Z-0.200000 I-12.161034 J573.144706
G02 X85.802338 Y128.799877 Z-0.200000 I0.000000 J312.745647
G02 X85.668235 Y129.031900 Z-0.200000 I0.006032 J0.158252
G02 X87.393807 Y131.391518 Z-0.200000 I8.811931 J-4.633347
G02 X93.426048 Y136.893220 Z-0.200000 I55.266469 J-54.538085
G02 X97.893400 Y140.176536 Z-0.200000 I33.160422 J-40.437957
G02 X102.863540 Y143.086580 Z-0.200000 I30.946285 J-47.154625
G02 X104.700401 Y144.013257 Z-0.200000 I41.606932 J-80.189487
G02 X105.308860 Y144.272130 Z-0.200000 I2.717305 J-5.542292
G01 X105.308860 Y144.272110 Z-0.200000
G00 Z5.000000

(Change tool to Cylindrical cutter)

G00 Z5.000000
G00 X126.611590 Y124.504530

G01 Z-0.200000 F100.0(Penetrate)
G02 X170.508249 Y124.302308 Z-0.200000 I-6.547602 J-6185.750522 F400.000000
G02 X170.631130 Y124.209610 Z-0.200000 I-0.001054 J-0.129191
G02 X170.562609 Y124.027080 Z-0.200000 I-0.155441 J-0.045774
G02 X160.334260 Y117.664690 Z-0.200000 I-332.589747 J523.277320
G01 X149.969010 Y111.356100 Z-0.200000
G01 X126.685810 Y111.369800 Z-0.200000
G01 X103.400650 Y111.383500 Z-0.200000
G01 X93.031516 Y117.670610 Z-0.200000
G02 X82.789948 Y124.028235 Z-0.200000 I297.023212 J489.905892
G02 X82.662375 Y124.260450 Z-0.200000 I0.147558 J0.232215
G02 X82.813990 Y124.412908 Z-0.200000 I0.152460 J0.000000
G02 X126.611590 Y124.504590 Z-0.200000 I35.186313 J-6347.537199
G01 X126.611590 Y124.504530 Z-0.200000
G00 Z5.000000

(Change tool to Cylindrical cutter)

G00 Z5.000000
G00 X172.855740 Y119.672500

G01 Z-0.200000 F100.0(Penetrate)
G01 X172.263940 Y118.639300 Z-0.200000 F400.000000
G03 X171.673027 Y117.605066 Z-0.200000 I290.306135 J-166.553387
G03 X150.338150 Y80.106100 Z-0.200000 I498579.783977 J-283686.591681
G02 X128.949276 Y42.670715 Z-0.200000 I-10098.866878 J5745.204557
G02 X128.773700 Y42.526020 Z-0.200000 I-0.279661 J0.160474
G02 X128.657718 Y42.607201 Z-0.200000 I-0.028311 J0.082995
G02 X128.543230 Y53.674460 Z-0.200000 I534.864711 J11.067259
G01 X128.543230 Y64.899070 Z-0.200000
G01 X140.558860 Y86.065080 Z-0.200000
G01 X152.574480 Y107.229140 Z-0.200000
G01 X161.818630 Y112.936180 Z-0.200000
G02 X171.070425 Y118.629099 Z-0.200000 I1967.872333 J-3187.705540
G02 X171.959260 Y119.156880 Z-0.200000 I18.863860 J-30.756250
G01 X172.855740 Y119.672500 Z-0.200000
G00 Z5.000000

(Change tool to Cylindrical cutter)

G00 Z5.000000
G00 X80.859641 Y119.225240

G01 Z-0.200000 F100.0(Penetrate)
G02 X81.230327 Y119.109085 Z-0.200000 I-0.068667 J-0.868699 F400.000000
G02 X91.090110 Y113.252580 Z-0.200000 I-383.412064 J-656.725637
G01 X100.922140 Y107.311180 Z-0.200000
G01 X112.418230 Y86.070940 Z-0.200000
G01 X123.912370 Y64.828750 Z-0.200000
G01 X123.851870 Y53.608050 Z-0.200000
G01 X123.793270 Y42.385390 Z-0.200000
G01 X102.054990 Y80.313130 Z-0.200000
G02 X80.479131 Y118.271804 Z-0.200000 I5330.771490 J3055.142613
G02 X80.388937 Y118.748680 Z-0.200000 I0.659325 J0.371670
G02 X80.572043 Y119.118399 Z-0.200000 I0.648432 J-0.090938
G02 X80.859641 Y119.225240 Z-0.200000 I0.258835 J-0.256239
G01 X80.859641 Y119.225240 Z-0.200000
G00 Z5.000000

(Change tool to Cylindrical cutter)

G00 Z5.000000
G00 X175.127230 Y115.242820

G01 Z-0.200000 F100.0(Penetrate)
G02 X176.198525 Y113.793378 Z-0.200000 I-1.317481 J-2.094384 F400.000000
G02 X178.502230 Y102.746720 Z-0.200000 I-93.799171 J-25.324717
G02 X179.127051 Y95.257934 Z-0.200000 I-57.887066 J-8.600217
G02 X178.746370 Y89.834610 Z-0.200000 I-30.553635 J-0.580365
G02 X178.465562 Y88.843469 Z-0.200000 I-4.359498 J0.699773
G02 X178.291290 Y88.736960 Z-0.200000 I-0.160298 J0.066455
G02 X178.020325 Y88.784542 Z-0.200000 I0.120098 J1.479250
G02 X170.252230 Y90.934220 Z-0.200000 I318.999908 J1167.850935
G02 X162.647110 Y93.205908 Z-0.200000 I63.141947 J225.251576
G02 X162.545190 Y93.379530 Z-0.200000 I0.045511 J0.143441
G02 X162.756056 Y93.943185 Z-0.200000 I1.893440 J-0.387074
G02 X168.820700 Y104.578183 Z-0.200000 I1352.686290 J-764.327364
G02 X174.996756 Y115.210956 Z-0.200000 I1325.367271 J-762.730759
G02 X175.127230 Y115.242820 Z-0.200000 I0.080679 J-0.047297
G01 X175.127230 Y115.242820 Z-0.200000
G00 Z5.000000

(Change tool to Cylindrical cutter)

G00 Z5.000000
G00 X77.525656 Y114.711570

G01 Z-0.200000 F100.0(Penetrate)
G02 X77.643686 Y114.697603 Z-0.200000 I0.053682 J-0.052053 F400.000000
G02 X83.936049 Y103.970965 Z-0.200000 I-1372.049393 J-812.068112
G02 X90.118129 Y93.243815 Z-0.200000 I-1406.861947 J-817.922567
G02 X90.369407 Y92.619770 Z-0.200000 I-2.150908 J-1.228697
G02 X90.288860 Y92.478938 Z-0.200000 I-0.113459 J-0.028558
G02 X82.547141 Y90.326800 Z-0.200000 I-80.695938 J275.280827
G02 X74.664859 Y88.271765 Z-0.200000 I-493.337528 J1876.098389
G02 X74.511985 Y88.248680 Z-0.200000 I-0.188028 J0.727453
G02 X73.486997 Y89.224705 Z-0.200000 I-0.041082 J0.983074
G02 X74.408470 Y102.629530 Z-0.200000 I88.716709 J0.635527
G02 X76.453884 Y112.801052 Z-0.200000 I95.083289 J-13.829086
G02 X77.525656 Y114.711570 Z-0.200000 I4.144565 J-1.069157
G01 X77.525656 Y114.711570 Z-0.200000
G00 Z5.000000

(Change tool to Cylindrical cutter)

G00 Z5.000000
G00 X126.713150 Y104.988910

G01 Z-0.200000 F100.0(Penetrate)
G02 X143.668686 Y104.838044 Z-0.200000 I-0.000000 J-952.873455 F400.000000
G02 X143.771750 Y104.686180 Z-0.200000 I-0.001998 J-0.112260
G02 X143.635651 Y104.394823 Z-0.200000 I-1.972042 J0.743719
G02 X135.027610 Y89.178360 Z-0.200000 I-5225.879495 J2946.267064
G02 X126.389167 Y73.979611 Z-0.200000 I-13695.011819 J7773.716448
G02 X126.330340 Y73.895160 Z-0.200000 I-0.491949 J0.279968
G01 X126.272456 Y73.896618 Z-0.200000
G02 X125.974870 Y74.365860 Z-0.200000 I2.640485 J2.003540
G03 X125.683331 Y74.914667 Z-0.200000 I-39.125115 J-20.432306
G03 X117.615500 Y89.834610 Z-0.200000 I-21021.481008 J-11357.545683
G02 X109.569315 Y104.758324 Z-0.200000 I4705.782183 J2546.773578
G02 X109.541280 Y104.869770 Z-0.200000 I0.207491 J0.111446
G02 X109.600347 Y104.929250 Z-0.200000 I0.059482 J0.000000
G02 X126.713150 Y104.988910 Z-0.200000 I17.112803 J-2454.297197
G01 X126.713150 Y104.988910 Z-0.200000
G00 Z5.000000

(Change tool to Cylindrical cutter)

G00 Z5.000000
G00 X159.316680 Y86.875630

G01 Z-0.200000 F100.0(Penetrate)
G02 X159.528480 Y86.932876 Z-0.200000 I0.154720 J-0.152006 F400.000000
G02 X168.183309 Y84.512700 Z-0.200000 I-185.646458 J-680.578713
G02 X176.781501 Y81.990591 Z-0.200000 I-196.233952 J-684.904006
G02 X177.156520 Y81.764300 Z-0.200000 I-0.253195 J-0.843497
G02 X177.390159 Y80.698653 Z-0.200000 I-0.731671 J-0.718852
G02 X173.388940 Y71.277970 Z-0.200000 I-84.925850 J30.510257
G02 X169.658065 Y64.861108 Z-0.200000 I-48.793599 J24.076417
G02 X165.275660 Y59.289690 Z-0.200000 I-41.030092 J27.764458
G02 X163.696599 Y57.636372 Z-0.200000 I-34.782853 J31.639888
G02 X163.566680 Y57.582660 Z-0.200000 I-0.129919 J0.130269
G02 X163.435840 Y57.636820 Z-0.200000 I0.000000 J0.185123
G02 X156.660420 Y64.481100 Z-0.200000 I615.785128 J616.365459
G01 X149.904560 Y71.379530 Z-0.200000
G01 X154.506120 Y79.020160 Z-0.200000
G02 X159.134086 Y86.641825 Z-0.200000 I1011.575358 J-609.024709
G02 X159.316680 Y86.875630 Z-0.200000 I1.116426 J-0.683690
G01 X159.316680 Y86.875630 Z-0.200000
G00 Z5.000000

(Change tool to Cylindrical cutter)

G00 Z5.000000
G00 X93.793235 Y86.668600

G01 Z-0.200000 F100.0(Penetrate)
G02 X98.289223 Y80.599481 Z-0.200000 I-23.696679 J-22.254309 F400.000000
G02 X102.957290 Y70.705710 Z-0.200000 I-59.136812 J-33.949983
G02 X102.908846 Y70.466926 Z-0.200000 I-0.214369 J-0.080815
G02 X96.357684 Y63.774070 Z-0.200000 I-244.697819 J232.964679
G01 X89.656516 Y57.115860 Z-0.200000
G01 X87.906516 Y59.010390 Z-0.200000
G02 X82.112819 Y66.629031 Z-0.200000 I36.706961 J33.926566
G02 X77.590109 Y75.678360 Z-0.200000 I47.433522 J29.361369
G02 X75.649564 Y81.180044 Z-0.200000 I80.918604 J31.634556
G02 X75.752220 Y81.504530 Z-0.200000 I0.282517 J0.089103
G02 X76.172627 Y81.718342 Z-0.200000 I0.791263 J-1.035601
G02 X84.867025 Y84.252975 Z-0.200000 I264.185875 J-890.041516
G02 X93.630136 Y86.714437 Z-0.200000 I252.851566 J-883.353444
G02 X93.793235 Y86.668600 Z-0.200000 I0.043562 J-0.158088
G01 X93.793235 Y86.668600 Z-0.200000
G00 Z5.000000

(Change tool to Cylindrical cutter)

G00 Z5.000000
G00 X145.955340 Y64.297500

G01 Z-0.200000 F100.0(Penetrate)
G02 X146.178648 Y64.304934 Z-0.200000 I0.115272 J-0.104965 F400.000000
G02 X151.930834 Y58.661264 Z-0.200000 I-271.966914 J-282.949469
G02 X157.583329 Y52.885687 Z-0.200000 I-285.220498 J-284.796034
G02 X157.740510 Y52.494770 Z-0.200000 I-0.407523 J-0.390917
G02 X157.313583 Y51.719128 Z-0.200000 I-0.918058 J0.000000
G02 X149.590110 Y47.332660 Z-0.200000 I-49.560333 J78.270562
G02 X143.311273 Y44.636455 Z-0.200000 I-24.524033 J48.451706
G02 X137.463150 Y43.006490 Z-0.200000 I-14.411578 J40.400886
G02 X135.144996 Y42.542691 Z-0.200000 I-66.976809 J328.737325
G02 X134.246360 Y42.375630 Z-0.200000 I-8.690472 J44.246406
G01 X133.345970 Y42.217420 Z-0.200000
G01 X133.924090 Y43.236960 Z-0.200000
G03 X134.503131 Y44.256352 Z-0.200000 I-1602.981320 J911.219135
G03 X140.125260 Y54.162740 Z-0.200000 I-81833.320770 J46446.409865
G02 X145.773846 Y64.048764 Z-0.200000 I1670.417489 J-947.871025
G02 X145.955340 Y64.297500 Z-0.200000 I1.234675 J-0.710320
G01 X145.955340 Y64.297500 Z-0.200000
G00 Z5.000000

(Change tool to Cylindrical cutter)

G00 Z5.000000
G00 X106.863540 Y63.920550

G01 Z-0.200000 F100.0(Penetrate)
G02 X107.125948 Y63.566825 Z-0.200000 I-1.372267 J-1.292199 F400.000000
G02 X119.201430 Y42.428360 Z-0.200000 I-4921.744942 J-2825.596331
G02 X119.153584 Y42.342991 Z-0.200000 I-0.049688 J-0.028244
G02 X118.463150 Y42.404960 Z-0.200000 I-0.091995 J2.852304
G03 X117.999138 Y42.501746 Z-0.200000 I-8.634691 J-40.235763
G03 X115.566670 Y42.990900 Z-0.200000 I-172.154137 J-849.796669
G02 X106.541580 Y45.777192 Z-0.200000 I9.040282 J45.292157
G02 X97.551044 Y50.647150 Z-0.200000 I21.180808 J49.836149
G02 X95.229488 Y52.270684 Z-0.200000 I40.907069 J60.966244
G02 X95.174094 Y52.379570 Z-0.200000 I0.079319 J0.108886
G02 X95.244306 Y52.549655 Z-0.200000 I0.241116 J-0.000000
G02 X100.982029 Y58.264545 Z-0.200000 I652.930152 J-649.801069
G02 X106.764217 Y63.922843 Z-0.200000 I640.183906 J-648.417300
G02 X106.863540 Y63.920590 Z-0.200000 I0.048551 J-0.050057
G01 X106.863540 Y63.920550 Z-0.200000
G00 Z5.000000

(End cutting path id: path8087)


(Start cutting path id: path8087)
(Change tool to Cylindrical cutter)

G00 Z5.000000
G00 X126.689720 Y152.012345

G01 Z-0.300000 F100.0(Penetrate)
G03 X119.041229 Y151.581216 Z-0.300000 I-0.179954 J-64.867487 F400.000000
G03 X112.636980 Y150.383435 Z-0.300000 I5.400848 J-46.596933
G03 X107.321747 Y148.688122 Z-0.300000 I12.919985 J-49.687371
G03 X101.779560 Y146.258440 Z-0.300000 I21.481741 J-56.536367
G03 X81.547885 Y128.924462 Z-0.300000 I24.519351 J-49.092094
G03 X71.154562 Y103.102190 Z-0.300000 I48.842244 J-34.661500
G03 X70.577045 Y95.318985 Z-0.300000 I52.158443 J-7.783205
G03 X71.154562 Y87.535780 Z-0.300000 I52.735960 J0.000000
G03 X73.907663 Y76.269854 Z-0.300000 I62.734925 J9.361435
G03 X78.414328 Y66.426410 Z-0.300000 I52.249779 J17.968361
G03 X96.479268 Y47.445452 Z-0.300000 I48.988423 J28.537208
G03 X121.004170 Y38.709610 Z-0.300000 I30.527909 J46.910313
G03 X128.140387 Y38.462332 Z-0.300000 I5.262886 J48.786065
G03 X135.726820 Y39.272110 Z-0.300000 I-2.138641 J55.977685
G03 X152.400615 Y45.055685 Z-0.300000 I-9.651854 J54.752579
G03 X166.549100 Y55.842420 Z-0.300000 I-26.751433 J49.761014
G03 X176.419154 Y70.134626 Z-0.300000 I-40.232805 J38.338555
G03 X181.760040 Y87.535780 Z-0.300000 I-55.026117 J26.409216
G03 X182.337547 Y95.318985 Z-0.300000 I-52.159375 J7.783205
G03 X181.760040 Y103.102190 Z-0.300000 I-52.736881 J-0.000000
G03 X176.419032 Y120.502287 Z-0.300000 I-60.354388 J-9.006179
G03 X166.549100 Y134.793600 Z-0.300000 I-50.106836 J-24.051148
G03 X152.505221 Y145.506057 Z-0.300000 I-40.667997 J-38.753278
G03 X135.726820 Y151.383435 Z-0.300000 I-26.973666 J-50.115171
G03 X132.349600 Y151.807344 Z-0.300000 I-5.521625 J-30.325103
G03 X126.689720 Y152.012345 Z-0.300000 I-5.895652 J-84.538853
G01 X126.689720 Y152.012345 Z-0.300000
G00 Z5.000000

(Change tool to Cylindrical cutter)

G00 Z5.000000
G00 X126.480730 Y148.738910

G01 Z-0.300000 F100.0(Penetrate)
G02 X131.126665 Y148.612808 Z-0.300000 I-0.002976 J-85.757049 F400.000000
G02 X133.988540 Y148.297500 Z-0.300000 I-1.406967 J-25.915728
G02 X139.791213 Y147.179050 Z-0.300000 I-19.298385 J-115.734446
G02 X140.248310 Y146.926410 Z-0.300000 I-0.195810 J-0.894103
G02 X140.279468 Y146.812012 Z-0.300000 I-0.086440 J-0.084986
G02 X137.955340 Y137.760390 Z-0.300000 I-725.169438 J181.373023
G01 X135.564720 Y128.692030 Z-0.300000
G01 X126.646750 Y128.629530 Z-0.300000
G01 X117.728780 Y128.567030 Z-0.300000
G01 X115.000260 Y137.473280 Z-0.300000
G02 X112.288657 Y146.384792 Z-0.300000 I2325.046593 J712.335593
G02 X112.238540 Y146.613910 Z-0.300000 I1.438458 J0.434687
G02 X112.487251 Y146.983657 Z-0.300000 I0.331281 J0.045685
G02 X118.853780 Y148.299460 Z-0.300000 I17.574826 J-68.975847
G02 X121.840116 Y148.615919 Z-0.300000 I4.501621 J-28.231673
G02 X126.480730 Y148.738910 Z-0.300000 I4.637578 J-87.372478
G01 X126.480730 Y148.738910 Z-0.300000
G00 Z5.000000

(Change tool to Cylindrical cutter)

G00 Z5.000000
G00 X146.970970 Y144.570940

G01 Z-0.300000 F100.0(Penetrate)
G02 X147.584386 Y144.676594 Z-0.300000 I0.373799 J-0.336697 F400.000000
G02 X155.074480 Y140.182270 Z-0.300000 I-47.286760 J-87.295101
G02 X159.732528 Y136.679968 Z-0.300000 I-26.699814 J-40.359390
G02 X164.412380 Y132.236960 Z-0.300000 I-38.391436 J-45.124140
G02 X166.954386 Y129.455058 Z-0.300000 I-83.037443 J-78.429109
G02 X167.246370 Y129.031880 Z-0.300000 I-1.610208 J-1.423329
G02 X167.111988 Y128.799611 Z-0.300000 I-0.140357 J-0.073803
G02 X155.082290 Y128.572890 Z-0.300000 I-12.029698 J319.030985
G02 X142.786517 Y128.681194 Z-0.300000 I0.000000 J698.022952
G02 X142.678000 Y128.791640 Z-0.300000 I0.001946 J0.110446
G02 X142.711212 Y129.044343 Z-0.300000 I0.977980 J-0.000000
G02 X144.786385 Y136.736752 Z-0.300000 I1800.070251 J-481.476835
G02 X146.900711 Y144.442816 Z-0.300000 I1795.130762 J-488.389967
G02 X146.970970 Y144.570940 Z-0.300000 I0.306700 J-0.084858
G01 X146.970970 Y144.570940 Z-0.300000
G00 Z5.000000

(Change tool to Cylindrical cutter)

G00 Z5.000000
G00 X105.308860 Y144.272110

G01 Z-0.300000 F100.0(Penetrate)
G02 X105.793876 Y144.313642 Z-0.300000 I0.319553 J-0.878973 F400.000000
G02 X105.922140 Y144.197910 Z-0.300000 I-0.028944 J-0.161020
G02 X109.851541 Y130.001926 Z-0.300000 I-678.498706 J-195.447979
G02 X110.004170 Y128.832680 Z-0.300000 I-4.402303 J-1.169246
G02 X109.876148 Y128.701912 Z-0.300000 I-0.130797 J0.000000
G02 X97.715114 Y128.572910 Z-0.300000 I-12.161034 J573.144706
G02 X85.802338 Y128.799877 Z-0.300000 I0.000000 J312.745647
G02 X85.668235 Y129.031900 Z-0.300000 I0.006032 J0.158252
G02 X87.393807 Y131.391518 Z-0.300000 I8.811931 J-4.633347
G02 X93.426048 Y136.893220 Z-0.300000 I55.266469 J-54.538085
G02 X97.893400 Y140.176536 Z-0.300000 I33.160422 J-40.437957
G02 X102.863540 Y143.086580 Z-0.300000 I30.946285 J-47.154625
G02 X104.700401 Y144.013257 Z-0.300000 I41.606932 J-80.189487
G02 X105.308860 Y144.272130 Z-0.300000 I2.717305 J-5.542292
G01 X105.308860 Y144.272110 Z-0.300000
G00 Z5.000000

(Change tool to Cylindrical cutter)

G00 Z5.000000
G00 X126.611590 Y124.504530

G01 Z-0.300000 F100.0(Penetrate)
G02 X170.508249 Y124.302308 Z-0.300000 I-6.547602 J-6185.750522 F400.000000
G02 X170.631130 Y124.209610 Z-0.300000 I-0.001054 J-0.129191
G02 X170.562609 Y124.027080 Z-0.300000 I-0.155441 J-0.045774
G02 X160.334260 Y117.664690 Z-0.300000 I-332.589747 J523.277320
G01 X149.969010 Y111.356100 Z-0.300000
G01 X126.685810 Y111.369800 Z-0.300000
G01 X103.400650 Y111.383500 Z-0.300000
G01 X93.031516 Y117.670610 Z-0.300000
G02 X82.789948 Y124.028235 Z-0.300000 I297.023212 J489.905892
G02 X82.662375 Y124.260450 Z-0.300000 I0.147558 J0.232215
G02 X82.813990 Y124.412908 Z-0.300000 I0.152460 J0.000000
G02 X126.611590 Y124.504590 Z-0.300000 I35.186313 J-6347.537199
G01 X126.611590 Y124.504530 Z-0.300000
G00 Z5.000000

(Change tool to Cylindrical cutter)

G00 Z5.000000
G00 X172.855740 Y119.672500

G01 Z-0.300000 F100.0(Penetrate)
G01 X172.263940 Y118.639300 Z-0.300000 F400.000000
G03 X171.673027 Y117.605066 Z-0.300000 I290.306135 J-166.553387
G03 X150.338150 Y80.106100 Z-0.300000 I498579.783977 J-283686.591681
G02 X128.949276 Y42.670715 Z-0.300000 I-10098.866878 J5745.204557
G02 X128.773700 Y42.526020 Z-0.300000 I-0.279661 J0.160474
G02 X128.657718 Y42.607201 Z-0.300000 I-0.028311 J0.082995
G02 X128.543230 Y53.674460 Z-0.300000 I534.864711 J11.067259
G01 X128.543230 Y64.899070 Z-0.300000
G01 X140.558860 Y86.065080 Z-0.300000
G01 X152.574480 Y107.229140 Z-0.300000
G01 X161.818630 Y112.936180 Z-0.300000
G02 X171.070425 Y118.629099 Z-0.300000 I1967.872333 J-3187.705540
G02 X171.959260 Y119.156880 Z-0.300000 I18.863860 J-30.756250
G01 X172.855740 Y119.672500 Z-0.300000
G00 Z5.000000

(Change tool to Cylindrical cutter)

G00 Z5.000000
G00 X80.859641 Y119.225240

G01 Z-0.300000 F100.0(Penetrate)
G02 X81.230327 Y119.109085 Z-0.300000 I-0.068667 J-0.868699 F400.000000
G02 X91.090110 Y113.252580 Z-0.300000 I-383.412064 J-656.725637
G01 X100.922140 Y107.311180 Z-0.300000
G01 X112.418230 Y86.070940 Z-0.300000
G01 X123.912370 Y64.828750 Z-0.300000
G01 X123.851870 Y53.608050 Z-0.300000
G01 X123.793270 Y42.385390 Z-0.300000
G01 X102.054990 Y80.313130 Z-0.300000
G02 X80.479131 Y118.271804 Z-0.300000 I5330.771490 J3055.142613
G02 X80.388937 Y118.748680 Z-0.300000 I0.659325 J0.371670
G02 X80.572043 Y119.118399 Z-0.300000 I0.648432 J-0.090938
G02 X80.859641 Y119.225240 Z-0.300000 I0.258835 J-0.256239
G01 X80.859641 Y119.225240 Z-0.300000
G00 Z5.000000

(Change tool to Cylindrical cutter)

G00 Z5.000000
G00 X175.127230 Y115.242820

G01 Z-0.300000 F100.0(Penetrate)
G02 X176.198525 Y113.793378 Z-0.300000 I-1.317481 J-2.094384 F400.000000
G02 X178.502230 Y102.746720 Z-0.300000 I-93.799171 J-25.324717
G02 X179.127051 Y95.257934 Z-0.300000 I-57.887066 J-8.600217
G02 X178.746370 Y89.834610 Z-0.300000 I-30.553635 J-0.580365
G02 X178.465562 Y88.843469 Z-0.300000 I-4.359498 J0.699773
G02 X178.291290 Y88.736960 Z-0.300000 I-0.160298 J0.066455
G02 X178.020325 Y88.784542 Z-0.300000 I0.120098 J1.479250
G02 X170.252230 Y90.934220 Z-0.300000 I318.999908 J1167.850935
G02 X162.647110 Y93.205908 Z-0.300000 I63.141947 J225.251576
G02 X162.545190 Y93.379530 Z-0.300000 I0.045511 J0.143441
G02 X162.756056 Y93.943185 Z-0.300000 I1.893440 J-0.387074
G02 X168.820700 Y104.578183 Z-0.300000 I1352.686290 J-764.327364
G02 X174.996756 Y115.210956 Z-0.300000 I1325.367271 J-762.730759
G02 X175.127230 Y115.242820 Z-0.300000 I0.080679 J-0.047297
G01 X175.127230 Y115.242820 Z-0.300000
G00 Z5.000000

(Change tool to Cylindrical cutter)

G00 Z5.000000
G00 X77.525656 Y114.711570

G01 Z-0.300000 F100.0(Penetrate)
G02 X77.643686 Y114.697603 Z-0.300000 I0.053682 J-0.052053 F400.000000
G02 X83.936049 Y103.970965 Z-0.300000 I-1372.049393 J-812.068112
G02 X90.118129 Y93.243815 Z-0.300000 I-1406.861947 J-817.922567
G02 X90.369407 Y92.619770 Z-0.300000 I-2.150908 J-1.228697
G02 X90.288860 Y92.478938 Z-0.300000 I-0.113459 J-0.028558
G02 X82.547141 Y90.326800 Z-0.300000 I-80.695938 J275.280827
G02 X74.664859 Y88.271765 Z-0.300000 I-493.337528 J1876.098389
G02 X74.511985 Y88.248680 Z-0.300000 I-0.188028 J0.727453
G02 X73.486997 Y89.224705 Z-0.300000 I-0.041082 J0.983074
G02 X74.408470 Y102.629530 Z-0.300000 I88.716709 J0.635527
G02 X76.453884 Y112.801052 Z-0.300000 I95.083289 J-13.829086
G02 X77.525656 Y114.711570 Z-0.300000 I4.144565 J-1.069157
G01 X77.525656 Y114.711570 Z-0.300000
G00 Z5.000000

(Change tool to Cylindrical cutter)

G00 Z5.000000
G00 X126.713150 Y104.988910

G01 Z-0.300000 F100.0(Penetrate)
G02 X143.668686 Y104.838044 Z-0.300000 I-0.000000 J-952.873455 F400.000000
G02 X143.771750 Y104.686180 Z-0.300000 I-0.001998 J-0.112260
G02 X143.635651 Y104.394823 Z-0.300000 I-1.972042 J0.743719
G02 X135.027610 Y89.178360 Z-0.300000 I-5225.879495 J2946.267064
G02 X126.389167 Y73.979611 Z-0.300000 I-13695.011819 J7773.716448
G02 X126.330340 Y73.895160 Z-0.300000 I-0.491949 J0.279968
G01 X126.272456 Y73.896618 Z-0.300000
G02 X125.974870 Y74.365860 Z-0.300000 I2.640485 J2.003540
G03 X125.683331 Y74.914667 Z-0.300000 I-39.125115 J-20.432306
G03 X117.615500 Y89.834610 Z-0.300000 I-21021.481008 J-11357.545683
G02 X109.569315 Y104.758324 Z-0.300000 I4705.782183 J2546.773578
G02 X109.541280 Y104.869770 Z-0.300000 I0.207491 J0.111446
G02 X109.600347 Y104.929250 Z-0.300000 I0.059482 J0.000000
G02 X126.713150 Y104.988910 Z-0.300000 I17.112803 J-2454.297197
G01 X126.713150 Y104.988910 Z-0.300000
G00 Z5.000000

(Change tool to Cylindrical cutter)

G00 Z5.000000
G00 X159.316680 Y86.875630

G01 Z-0.300000 F100.0(Penetrate)
G02 X159.528480 Y86.932876 Z-0.300000 I0.154720 J-0.152006 F400.000000
G02 X168.183309 Y84.512700 Z-0.300000 I-185.646458 J-680.578713
G02 X176.781501 Y81.990591 Z-0.300000 I-196.233952 J-684.904006
G02 X177.156520 Y81.764300 Z-0.300000 I-0.253195 J-0.843497
G02 X177.390159 Y80.698653 Z-0.300000 I-0.731671 J-0.718852
G02 X173.388940 Y71.277970 Z-0.300000 I-84.925850 J30.510257
G02 X169.658065 Y64.861108 Z-0.300000 I-48.793599 J24.076417
G02 X165.275660 Y59.289690 Z-0.300000 I-41.030092 J27.764458
G02 X163.696599 Y57.636372 Z-0.300000 I-34.782853 J31.639888
G02 X163.566680 Y57.582660 Z-0.300000 I-0.129919 J0.130269
G02 X163.435840 Y57.636820 Z-0.300000 I0.000000 J0.185123
G02 X156.660420 Y64.481100 Z-0.300000 I615.785128 J616.365459
G01 X149.904560 Y71.379530 Z-0.300000
G01 X154.506120 Y79.020160 Z-0.300000
G02 X159.134086 Y86.641825 Z-0.300000 I1011.575358 J-609.024709
G02 X159.316680 Y86.875630 Z-0.300000 I1.116426 J-0.683690
G01 X159.316680 Y86.875630 Z-0.300000
G00 Z5.000000

(Change tool to Cylindrical cutter)

G00 Z5.000000
G00 X93.793235 Y86.668600

G01 Z-0.300000 F100.0(Penetrate)
G02 X98.289223 Y80.599481 Z-0.300000 I-23.696679 J-22.254309 F400.000000
G02 X102.957290 Y70.705710 Z-0.300000 I-59.136812 J-33.949983
G02 X102.908846 Y70.466926 Z-0.300000 I-0.214369 J-0.080815
G02 X96.357684 Y63.774070 Z-0.300000 I-244.697819 J232.964679
G01 X89.656516 Y57.115860 Z-0.300000
G01 X87.906516 Y59.010390 Z-0.300000
G02 X82.112819 Y66.629031 Z-0.300000 I36.706961 J33.926566
G02 X77.590109 Y75.678360 Z-0.300000 I47.433522 J29.361369
G02 X75.649564 Y81.180044 Z-0.300000 I80.918604 J31.634556
G02 X75.752220 Y81.504530 Z-0.300000 I0.282517 J0.089103
G02 X76.172627 Y81.718342 Z-0.300000 I0.791263 J-1.035601
G02 X84.867025 Y84.252975 Z-0.300000 I264.185875 J-890.041516
G02 X93.630136 Y86.714437 Z-0.300000 I252.851566 J-883.353444
G02 X93.793235 Y86.668600 Z-0.300000 I0.043562 J-0.158088
G01 X93.793235 Y86.668600 Z-0.300000
G00 Z5.000000

(Change tool to Cylindrical cutter)

G00 Z5.000000
G00 X145.955340 Y64.297500

G01 Z-0.300000 F100.0(Penetrate)
G02 X146.178648 Y64.304934 Z-0.300000 I0.115272 J-0.104965 F400.000000
G02 X151.930834 Y58.661264 Z-0.300000 I-271.966914 J-282.949469
G02 X157.583329 Y52.885687 Z-0.300000 I-285.220498 J-284.796034
G02 X157.740510 Y52.494770 Z-0.300000 I-0.407523 J-0.390917
G02 X157.313583 Y51.719128 Z-0.300000 I-0.918058 J0.000000
G02 X149.590110 Y47.332660 Z-0.300000 I-49.560333 J78.270562
G02 X143.311273 Y44.636455 Z-0.300000 I-24.524033 J48.451706
G02 X137.463150 Y43.006490 Z-0.300000 I-14.411578 J40.400886
G02 X135.144996 Y42.542691 Z-0.300000 I-66.976809 J328.737325
G02 X134.246360 Y42.375630 Z-0.300000 I-8.690472 J44.246406
G01 X133.345970 Y42.217420 Z-0.300000
G01 X133.924090 Y43.236960 Z-0.300000
G03 X134.503131 Y44.256352 Z-0.300000 I-1602.981320 J911.219135
G03 X140.125260 Y54.162740 Z-0.300000 I-81833.320770 J46446.409865
G02 X145.773846 Y64.048764 Z-0.300000 I1670.417489 J-947.871025
G02 X145.955340 Y64.297500 Z-0.300000 I1.234675 J-0.710320
G01 X145.955340 Y64.297500 Z-0.300000
G00 Z5.000000

(Change tool to Cylindrical cutter)

G00 Z5.000000
G00 X106.863540 Y63.920550

G01 Z-0.300000 F100.0(Penetrate)
G02 X107.125948 Y63.566825 Z-0.300000 I-1.372267 J-1.292199 F400.000000
G02 X119.201430 Y42.428360 Z-0.300000 I-4921.744942 J-2825.596331
G02 X119.153584 Y42.342991 Z-0.300000 I-0.049688 J-0.028244
G02 X118.463150 Y42.404960 Z-0.300000 I-0.091995 J2.852304
G03 X117.999138 Y42.501746 Z-0.300000 I-8.634691 J-40.235763
G03 X115.566670 Y42.990900 Z-0.300000 I-172.154137 J-849.796669
G02 X106.541580 Y45.777192 Z-0.300000 I9.040282 J45.292157
G02 X97.551044 Y50.647150 Z-0.300000 I21.180808 J49.836149
G02 X95.229488 Y52.270684 Z-0.300000 I40.907069 J60.966244
G02 X95.174094 Y52.379570 Z-0.300000 I0.079319 J0.108886
G02 X95.244306 Y52.549655 Z-0.300000 I0.241116 J-0.000000
G02 X100.982029 Y58.264545 Z-0.300000 I652.930152 J-649.801069
G02 X106.764217 Y63.922843 Z-0.300000 I640.183906 J-648.417300
G02 X106.863540 Y63.920590 Z-0.300000 I0.048551 J-0.050057
G01 X106.863540 Y63.920550 Z-0.300000
G00 Z5.000000

(End cutting path id: path8087)


(Start cutting path id: path8087)
(Change tool to Cylindrical cutter)

G00 Z5.000000
G00 X126.689720 Y152.012345

G01 Z-0.400000 F100.0(Penetrate)
G03 X119.041229 Y151.581216 Z-0.400000 I-0.179954 J-64.867487 F400.000000
G03 X112.636980 Y150.383435 Z-0.400000 I5.400848 J-46.596933
G03 X107.321747 Y148.688122 Z-0.400000 I12.919985 J-49.687371
G03 X101.779560 Y146.258440 Z-0.400000 I21.481741 J-56.536367
G03 X81.547885 Y128.924462 Z-0.400000 I24.519351 J-49.092094
G03 X71.154562 Y103.102190 Z-0.400000 I48.842244 J-34.661500
G03 X70.577045 Y95.318985 Z-0.400000 I52.158443 J-7.783205
G03 X71.154562 Y87.535780 Z-0.400000 I52.735960 J0.000000
G03 X73.907663 Y76.269854 Z-0.400000 I62.734925 J9.361435
G03 X78.414328 Y66.426410 Z-0.400000 I52.249779 J17.968361
G03 X96.479268 Y47.445452 Z-0.400000 I48.988423 J28.537208
G03 X121.004170 Y38.709610 Z-0.400000 I30.527909 J46.910313
G03 X128.140387 Y38.462332 Z-0.400000 I5.262886 J48.786065
G03 X135.726820 Y39.272110 Z-0.400000 I-2.138641 J55.977685
G03 X152.400615 Y45.055685 Z-0.400000 I-9.651854 J54.752579
G03 X166.549100 Y55.842420 Z-0.400000 I-26.751433 J49.761014
G03 X176.419154 Y70.134626 Z-0.400000 I-40.232805 J38.338555
G03 X181.760040 Y87.535780 Z-0.400000 I-55.026117 J26.409216
G03 X182.337547 Y95.318985 Z-0.400000 I-52.159375 J7.783205
G03 X181.760040 Y103.102190 Z-0.400000 I-52.736881 J-0.000000
G03 X176.419032 Y120.502287 Z-0.400000 I-60.354388 J-9.006179
G03 X166.549100 Y134.793600 Z-0.400000 I-50.106836 J-24.051148
G03 X152.505221 Y145.506057 Z-0.400000 I-40.667997 J-38.753278
G03 X135.726820 Y151.383435 Z-0.400000 I-26.973666 J-50.115171
G03 X132.349600 Y151.807344 Z-0.400000 I-5.521625 J-30.325103
G03 X126.689720 Y152.012345 Z-0.400000 I-5.895652 J-84.538853
G01 X126.689720 Y152.012345 Z-0.400000
G00 Z5.000000

(Change tool to Cylindrical cutter)

G00 Z5.000000
G00 X126.480730 Y148.738910

G01 Z-0.400000 F100.0(Penetrate)
G02 X131.126665 Y148.612808 Z-0.400000 I-0.002976 J-85.757049 F400.000000
G02 X133.988540 Y148.297500 Z-0.400000 I-1.406967 J-25.915728
G02 X139.791213 Y147.179050 Z-0.400000 I-19.298385 J-115.734446
G02 X140.248310 Y146.926410 Z-0.400000 I-0.195810 J-0.894103
G02 X140.279468 Y146.812012 Z-0.400000 I-0.086440 J-0.084986
G02 X137.955340 Y137.760390 Z-0.400000 I-725.169438 J181.373023
G01 X135.564720 Y128.692030 Z-0.400000
G01 X126.646750 Y128.629530 Z-0.400000
G01 X117.728780 Y128.567030 Z-0.400000
G01 X115.000260 Y137.473280 Z-0.400000
G02 X112.288657 Y146.384792 Z-0.400000 I2325.046593 J712.335593
G02 X112.238540 Y146.613910 Z-0.400000 I1.438458 J0.434687
G02 X112.487251 Y146.983657 Z-0.400000 I0.331281 J0.045685
G02 X118.853780 Y148.299460 Z-0.400000 I17.574826 J-68.975847
G02 X121.840116 Y148.615919 Z-0.400000 I4.501621 J-28.231673
G02 X126.480730 Y148.738910 Z-0.400000 I4.637578 J-87.372478
G01 X126.480730 Y148.738910 Z-0.400000
G00 Z5.000000

(Change tool to Cylindrical cutter)

G00 Z5.000000
G00 X146.970970 Y144.570940

G01 Z-0.400000 F100.0(Penetrate)
G02 X147.584386 Y144.676594 Z-0.400000 I0.373799 J-0.336697 F400.000000
G02 X155.074480 Y140.182270 Z-0.400000 I-47.286760 J-87.295101
G02 X159.732528 Y136.679968 Z-0.400000 I-26.699814 J-40.359390
G02 X164.412380 Y132.236960 Z-0.400000 I-38.391436 J-45.124140
G02 X166.954386 Y129.455058 Z-0.400000 I-83.037443 J-78.429109
G02 X167.246370 Y129.031880 Z-0.400000 I-1.610208 J-1.423329
G02 X167.111988 Y128.799611 Z-0.400000 I-0.140357 J-0.073803
G02 X155.082290 Y128.572890 Z-0.400000 I-12.029698 J319.030985
G02 X142.786517 Y128.681194 Z-0.400000 I0.000000 J698.022952
G02 X142.678000 Y128.791640 Z-0.400000 I0.001946 J0.110446
G02 X142.711212 Y129.044343 Z-0.400000 I0.977980 J-0.000000
G02 X144.786385 Y136.736752 Z-0.400000 I1800.070251 J-481.476835
G02 X146.900711 Y144.442816 Z-0.400000 I1795.130762 J-488.389967
G02 X146.970970 Y144.570940 Z-0.400000 I0.306700 J-0.084858
G01 X146.970970 Y144.570940 Z-0.400000
G00 Z5.000000

(Change tool to Cylindrical cutter)

G00 Z5.000000
G00 X105.308860 Y144.272110

G01 Z-0.400000 F100.0(Penetrate)
G02 X105.793876 Y144.313642 Z-0.400000 I0.319553 J-0.878973 F400.000000
G02 X105.922140 Y144.197910 Z-0.400000 I-0.028944 J-0.161020
G02 X109.851541 Y130.001926 Z-0.400000 I-678.498706 J-195.447979
G02 X110.004170 Y128.832680 Z-0.400000 I-4.402303 J-1.169246
G02 X109.876148 Y128.701912 Z-0.400000 I-0.130797 J0.000000
G02 X97.715114 Y128.572910 Z-0.400000 I-12.161034 J573.144706
G02 X85.802338 Y128.799877 Z-0.400000 I0.000000 J312.745647
G02 X85.668235 Y129.031900 Z-0.400000 I0.006032 J0.158252
G02 X87.393807 Y131.391518 Z-0.400000 I8.811931 J-4.633347
G02 X93.426048 Y136.893220 Z-0.400000 I55.266469 J-54.538085
G02 X97.893400 Y140.176536 Z-0.400000 I33.160422 J-40.437957
G02 X102.863540 Y143.086580 Z-0.400000 I30.946285 J-47.154625
G02 X104.700401 Y144.013257 Z-0.400000 I41.606932 J-80.189487
G02 X105.308860 Y144.272130 Z-0.400000 I2.717305 J-5.542292
G01 X105.308860 Y144.272110 Z-0.400000
G00 Z5.000000

(Change tool to Cylindrical cutter)

G00 Z5.000000
G00 X126.611590 Y124.504530

G01 Z-0.400000 F100.0(Penetrate)
G02 X170.508249 Y124.302308 Z-0.400000 I-6.547602 J-6185.750522 F400.000000
G02 X170.631130 Y124.209610 Z-0.400000 I-0.001054 J-0.129191
G02 X170.562609 Y124.027080 Z-0.400000 I-0.155441 J-0.045774
G02 X160.334260 Y117.664690 Z-0.400000 I-332.589747 J523.277320
G01 X149.969010 Y111.356100 Z-0.400000
G01 X126.685810 Y111.369800 Z-0.400000
G01 X103.400650 Y111.383500 Z-0.400000
G01 X93.031516 Y117.670610 Z-0.400000
G02 X82.789948 Y124.028235 Z-0.400000 I297.023212 J489.905892
G02 X82.662375 Y124.260450 Z-0.400000 I0.147558 J0.232215
G02 X82.813990 Y124.412908 Z-0.400000 I0.152460 J0.000000
G02 X126.611590 Y124.504590 Z-0.400000 I35.186313 J-6347.537199
G01 X126.611590 Y124.504530 Z-0.400000
G00 Z5.000000

(Change tool to Cylindrical cutter)

G00 Z5.000000
G00 X172.855740 Y119.672500

G01 Z-0.400000 F100.0(Penetrate)
G01 X172.263940 Y118.639300 Z-0.400000 F400.000000
G03 X171.673027 Y117.605066 Z-0.400000 I290.306135 J-166.553387
G03 X150.338150 Y80.106100 Z-0.400000 I498579.783977 J-283686.591681
G02 X128.949276 Y42.670715 Z-0.400000 I-10098.866878 J5745.204557
G02 X128.773700 Y42.526020 Z-0.400000 I-0.279661 J0.160474
G02 X128.657718 Y42.607201 Z-0.400000 I-0.028311 J0.082995
G02 X128.543230 Y53.674460 Z-0.400000 I534.864711 J11.067259
G01 X128.543230 Y64.899070 Z-0.400000
G01 X140.558860 Y86.065080 Z-0.400000
G01 X152.574480 Y107.229140 Z-0.400000
G01 X161.818630 Y112.936180 Z-0.400000
G02 X171.070425 Y118.629099 Z-0.400000 I1967.872333 J-3187.705540
G02 X171.959260 Y119.156880 Z-0.400000 I18.863860 J-30.756250
G01 X172.855740 Y119.672500 Z-0.400000
G00 Z5.000000

(Change tool to Cylindrical cutter)

G00 Z5.000000
G00 X80.859641 Y119.225240

G01 Z-0.400000 F100.0(Penetrate)
G02 X81.230327 Y119.109085 Z-0.400000 I-0.068667 J-0.868699 F400.000000
G02 X91.090110 Y113.252580 Z-0.400000 I-383.412064 J-656.725637
G01 X100.922140 Y107.311180 Z-0.400000
G01 X112.418230 Y86.070940 Z-0.400000
G01 X123.912370 Y64.828750 Z-0.400000
G01 X123.851870 Y53.608050 Z-0.400000
G01 X123.793270 Y42.385390 Z-0.400000
G01 X102.054990 Y80.313130 Z-0.400000
G02 X80.479131 Y118.271804 Z-0.400000 I5330.771490 J3055.142613
G02 X80.388937 Y118.748680 Z-0.400000 I0.659325 J0.371670
G02 X80.572043 Y119.118399 Z-0.400000 I0.648432 J-0.090938
G02 X80.859641 Y119.225240 Z-0.400000 I0.258835 J-0.256239
G01 X80.859641 Y119.225240 Z-0.400000
G00 Z5.000000

(Change tool to Cylindrical cutter)

G00 Z5.000000
G00 X175.127230 Y115.242820

G01 Z-0.400000 F100.0(Penetrate)
G02 X176.198525 Y113.793378 Z-0.400000 I-1.317481 J-2.094384 F400.000000
G02 X178.502230 Y102.746720 Z-0.400000 I-93.799171 J-25.324717
G02 X179.127051 Y95.257934 Z-0.400000 I-57.887066 J-8.600217
G02 X178.746370 Y89.834610 Z-0.400000 I-30.553635 J-0.580365
G02 X178.465562 Y88.843469 Z-0.400000 I-4.359498 J0.699773
G02 X178.291290 Y88.736960 Z-0.400000 I-0.160298 J0.066455
G02 X178.020325 Y88.784542 Z-0.400000 I0.120098 J1.479250
G02 X170.252230 Y90.934220 Z-0.400000 I318.999908 J1167.850935
G02 X162.647110 Y93.205908 Z-0.400000 I63.141947 J225.251576
G02 X162.545190 Y93.379530 Z-0.400000 I0.045511 J0.143441
G02 X162.756056 Y93.943185 Z-0.400000 I1.893440 J-0.387074
G02 X168.820700 Y104.578183 Z-0.400000 I1352.686290 J-764.327364
G02 X174.996756 Y115.210956 Z-0.400000 I1325.367271 J-762.730759
G02 X175.127230 Y115.242820 Z-0.400000 I0.080679 J-0.047297
G01 X175.127230 Y115.242820 Z-0.400000
G00 Z5.000000

(Change tool to Cylindrical cutter)

G00 Z5.000000
G00 X77.525656 Y114.711570

G01 Z-0.400000 F100.0(Penetrate)
G02 X77.643686 Y114.697603 Z-0.400000 I0.053682 J-0.052053 F400.000000
G02 X83.936049 Y103.970965 Z-0.400000 I-1372.049393 J-812.068112
G02 X90.118129 Y93.243815 Z-0.400000 I-1406.861947 J-817.922567
G02 X90.369407 Y92.619770 Z-0.400000 I-2.150908 J-1.228697
G02 X90.288860 Y92.478938 Z-0.400000 I-0.113459 J-0.028558
G02 X82.547141 Y90.326800 Z-0.400000 I-80.695938 J275.280827
G02 X74.664859 Y88.271765 Z-0.400000 I-493.337528 J1876.098389
G02 X74.511985 Y88.248680 Z-0.400000 I-0.188028 J0.727453
G02 X73.486997 Y89.224705 Z-0.400000 I-0.041082 J0.983074
G02 X74.408470 Y102.629530 Z-0.400000 I88.716709 J0.635527
G02 X76.453884 Y112.801052 Z-0.400000 I95.083289 J-13.829086
G02 X77.525656 Y114.711570 Z-0.400000 I4.144565 J-1.069157
G01 X77.525656 Y114.711570 Z-0.400000
G00 Z5.000000

(Change tool to Cylindrical cutter)

G00 Z5.000000
G00 X126.713150 Y104.988910

G01 Z-0.400000 F100.0(Penetrate)
G02 X143.668686 Y104.838044 Z-0.400000 I-0.000000 J-952.873455 F400.000000
G02 X143.771750 Y104.686180 Z-0.400000 I-0.001998 J-0.112260
G02 X143.635651 Y104.394823 Z-0.400000 I-1.972042 J0.743719
G02 X135.027610 Y89.178360 Z-0.400000 I-5225.879495 J2946.267064
G02 X126.389167 Y73.979611 Z-0.400000 I-13695.011819 J7773.716448
G02 X126.330340 Y73.895160 Z-0.400000 I-0.491949 J0.279968
G01 X126.272456 Y73.896618 Z-0.400000
G02 X125.974870 Y74.365860 Z-0.400000 I2.640485 J2.003540
G03 X125.683331 Y74.914667 Z-0.400000 I-39.125115 J-20.432306
G03 X117.615500 Y89.834610 Z-0.400000 I-21021.481008 J-11357.545683
G02 X109.569315 Y104.758324 Z-0.400000 I4705.782183 J2546.773578
G02 X109.541280 Y104.869770 Z-0.400000 I0.207491 J0.111446
G02 X109.600347 Y104.929250 Z-0.400000 I0.059482 J0.000000
G02 X126.713150 Y104.988910 Z-0.400000 I17.112803 J-2454.297197
G01 X126.713150 Y104.988910 Z-0.400000
G00 Z5.000000

(Change tool to Cylindrical cutter)

G00 Z5.000000
G00 X159.316680 Y86.875630

G01 Z-0.400000 F100.0(Penetrate)
G02 X159.528480 Y86.932876 Z-0.400000 I0.154720 J-0.152006 F400.000000
G02 X168.183309 Y84.512700 Z-0.400000 I-185.646458 J-680.578713
G02 X176.781501 Y81.990591 Z-0.400000 I-196.233952 J-684.904006
G02 X177.156520 Y81.764300 Z-0.400000 I-0.253195 J-0.843497
G02 X177.390159 Y80.698653 Z-0.400000 I-0.731671 J-0.718852
G02 X173.388940 Y71.277970 Z-0.400000 I-84.925850 J30.510257
G02 X169.658065 Y64.861108 Z-0.400000 I-48.793599 J24.076417
G02 X165.275660 Y59.289690 Z-0.400000 I-41.030092 J27.764458
G02 X163.696599 Y57.636372 Z-0.400000 I-34.782853 J31.639888
G02 X163.566680 Y57.582660 Z-0.400000 I-0.129919 J0.130269
G02 X163.435840 Y57.636820 Z-0.400000 I0.000000 J0.185123
G02 X156.660420 Y64.481100 Z-0.400000 I615.785128 J616.365459
G01 X149.904560 Y71.379530 Z-0.400000
G01 X154.506120 Y79.020160 Z-0.400000
G02 X159.134086 Y86.641825 Z-0.400000 I1011.575358 J-609.024709
G02 X159.316680 Y86.875630 Z-0.400000 I1.116426 J-0.683690
G01 X159.316680 Y86.875630 Z-0.400000
G00 Z5.000000

(Change tool to Cylindrical cutter)

G00 Z5.000000
G00 X93.793235 Y86.668600

G01 Z-0.400000 F100.0(Penetrate)
G02 X98.289223 Y80.599481 Z-0.400000 I-23.696679 J-22.254309 F400.000000
G02 X102.957290 Y70.705710 Z-0.400000 I-59.136812 J-33.949983
G02 X102.908846 Y70.466926 Z-0.400000 I-0.214369 J-0.080815
G02 X96.357684 Y63.774070 Z-0.400000 I-244.697819 J232.964679
G01 X89.656516 Y57.115860 Z-0.400000
G01 X87.906516 Y59.010390 Z-0.400000
G02 X82.112819 Y66.629031 Z-0.400000 I36.706961 J33.926566
G02 X77.590109 Y75.678360 Z-0.400000 I47.433522 J29.361369
G02 X75.649564 Y81.180044 Z-0.400000 I80.918604 J31.634556
G02 X75.752220 Y81.504530 Z-0.400000 I0.282517 J0.089103
G02 X76.172627 Y81.718342 Z-0.400000 I0.791263 J-1.035601
G02 X84.867025 Y84.252975 Z-0.400000 I264.185875 J-890.041516
G02 X93.630136 Y86.714437 Z-0.400000 I252.851566 J-883.353444
G02 X93.793235 Y86.668600 Z-0.400000 I0.043562 J-0.158088
G01 X93.793235 Y86.668600 Z-0.400000
G00 Z5.000000

(Change tool to Cylindrical cutter)

G00 Z5.000000
G00 X145.955340 Y64.297500

G01 Z-0.400000 F100.0(Penetrate)
G02 X146.178648 Y64.304934 Z-0.400000 I0.115272 J-0.104965 F400.000000
G02 X151.930834 Y58.661264 Z-0.400000 I-271.966914 J-282.949469
G02 X157.583329 Y52.885687 Z-0.400000 I-285.220498 J-284.796034
G02 X157.740510 Y52.494770 Z-0.400000 I-0.407523 J-0.390917
G02 X157.313583 Y51.719128 Z-0.400000 I-0.918058 J0.000000
G02 X149.590110 Y47.332660 Z-0.400000 I-49.560333 J78.270562
G02 X143.311273 Y44.636455 Z-0.400000 I-24.524033 J48.451706
G02 X137.463150 Y43.006490 Z-0.400000 I-14.411578 J40.400886
G02 X135.144996 Y42.542691 Z-0.400000 I-66.976809 J328.737325
G02 X134.246360 Y42.375630 Z-0.400000 I-8.690472 J44.246406
G01 X133.345970 Y42.217420 Z-0.400000
G01 X133.924090 Y43.236960 Z-0.400000
G03 X134.503131 Y44.256352 Z-0.400000 I-1602.981320 J911.219135
G03 X140.125260 Y54.162740 Z-0.400000 I-81833.320770 J46446.409865
G02 X145.773846 Y64.048764 Z-0.400000 I1670.417489 J-947.871025
G02 X145.955340 Y64.297500 Z-0.400000 I1.234675 J-0.710320
G01 X145.955340 Y64.297500 Z-0.400000
G00 Z5.000000

(Change tool to Cylindrical cutter)

G00 Z5.000000
G00 X106.863540 Y63.920550

G01 Z-0.400000 F100.0(Penetrate)
G02 X107.125948 Y63.566825 Z-0.400000 I-1.372267 J-1.292199 F400.000000
G02 X119.201430 Y42.428360 Z-0.400000 I-4921.744942 J-2825.596331
G02 X119.153584 Y42.342991 Z-0.400000 I-0.049688 J-0.028244
G02 X118.463150 Y42.404960 Z-0.400000 I-0.091995 J2.852304
G03 X117.999138 Y42.501746 Z-0.400000 I-8.634691 J-40.235763
G03 X115.566670 Y42.990900 Z-0.400000 I-172.154137 J-849.796669
G02 X106.541580 Y45.777192 Z-0.400000 I9.040282 J45.292157
G02 X97.551044 Y50.647150 Z-0.400000 I21.180808 J49.836149
G02 X95.229488 Y52.270684 Z-0.400000 I40.907069 J60.966244
G02 X95.174094 Y52.379570 Z-0.400000 I0.079319 J0.108886
G02 X95.244306 Y52.549655 Z-0.400000 I0.241116 J-0.000000
G02 X100.982029 Y58.264545 Z-0.400000 I652.930152 J-649.801069
G02 X106.764217 Y63.922843 Z-0.400000 I640.183906 J-648.417300
G02 X106.863540 Y63.920590 Z-0.400000 I0.048551 J-0.050057
G01 X106.863540 Y63.920550 Z-0.400000
G00 Z5.000000

(End cutting path id: path8087)


(Start cutting path id: path8087)
(Change tool to Cylindrical cutter)

G00 Z5.000000
G00 X126.689720 Y152.012345

G01 Z-0.500000 F100.0(Penetrate)
G03 X119.041229 Y151.581216 Z-0.500000 I-0.179954 J-64.867487 F400.000000
G03 X112.636980 Y150.383435 Z-0.500000 I5.400848 J-46.596933
G03 X107.321747 Y148.688122 Z-0.500000 I12.919985 J-49.687371
G03 X101.779560 Y146.258440 Z-0.500000 I21.481741 J-56.536367
G03 X81.547885 Y128.924462 Z-0.500000 I24.519351 J-49.092094
G03 X71.154562 Y103.102190 Z-0.500000 I48.842244 J-34.661500
G03 X70.577045 Y95.318985 Z-0.500000 I52.158443 J-7.783205
G03 X71.154562 Y87.535780 Z-0.500000 I52.735960 J0.000000
G03 X73.907663 Y76.269854 Z-0.500000 I62.734925 J9.361435
G03 X78.414328 Y66.426410 Z-0.500000 I52.249779 J17.968361
G03 X96.479268 Y47.445452 Z-0.500000 I48.988423 J28.537208
G03 X121.004170 Y38.709610 Z-0.500000 I30.527909 J46.910313
G03 X128.140387 Y38.462332 Z-0.500000 I5.262886 J48.786065
G03 X135.726820 Y39.272110 Z-0.500000 I-2.138641 J55.977685
G03 X152.400615 Y45.055685 Z-0.500000 I-9.651854 J54.752579
G03 X166.549100 Y55.842420 Z-0.500000 I-26.751433 J49.761014
G03 X176.419154 Y70.134626 Z-0.500000 I-40.232805 J38.338555
G03 X181.760040 Y87.535780 Z-0.500000 I-55.026117 J26.409216
G03 X182.337547 Y95.318985 Z-0.500000 I-52.159375 J7.783205
G03 X181.760040 Y103.102190 Z-0.500000 I-52.736881 J-0.000000
G03 X176.419032 Y120.502287 Z-0.500000 I-60.354388 J-9.006179
G03 X166.549100 Y134.793600 Z-0.500000 I-50.106836 J-24.051148
G03 X152.505221 Y145.506057 Z-0.500000 I-40.667997 J-38.753278
G03 X135.726820 Y151.383435 Z-0.500000 I-26.973666 J-50.115171
G03 X132.349600 Y151.807344 Z-0.500000 I-5.521625 J-30.325103
G03 X126.689720 Y152.012345 Z-0.500000 I-5.895652 J-84.538853
G01 X126.689720 Y152.012345 Z-0.500000
G00 Z5.000000

(Change tool to Cylindrical cutter)

G00 Z5.000000
G00 X126.480730 Y148.738910

G01 Z-0.500000 F100.0(Penetrate)
G02 X131.126665 Y148.612808 Z-0.500000 I-0.002976 J-85.757049 F400.000000
G02 X133.988540 Y148.297500 Z-0.500000 I-1.406967 J-25.915728
G02 X139.791213 Y147.179050 Z-0.500000 I-19.298385 J-115.734446
G02 X140.248310 Y146.926410 Z-0.500000 I-0.195810 J-0.894103
G02 X140.279468 Y146.812012 Z-0.500000 I-0.086440 J-0.084986
G02 X137.955340 Y137.760390 Z-0.500000 I-725.169438 J181.373023
G01 X135.564720 Y128.692030 Z-0.500000
G01 X126.646750 Y128.629530 Z-0.500000
G01 X117.728780 Y128.567030 Z-0.500000
G01 X115.000260 Y137.473280 Z-0.500000
G02 X112.288657 Y146.384792 Z-0.500000 I2325.046593 J712.335593
G02 X112.238540 Y146.613910 Z-0.500000 I1.438458 J0.434687
G02 X112.487251 Y146.983657 Z-0.500000 I0.331281 J0.045685
G02 X118.853780 Y148.299460 Z-0.500000 I17.574826 J-68.975847
G02 X121.840116 Y148.615919 Z-0.500000 I4.501621 J-28.231673
G02 X126.480730 Y148.738910 Z-0.500000 I4.637578 J-87.372478
G01 X126.480730 Y148.738910 Z-0.500000
G00 Z5.000000

(Change tool to Cylindrical cutter)

G00 Z5.000000
G00 X146.970970 Y144.570940

G01 Z-0.500000 F100.0(Penetrate)
G02 X147.584386 Y144.676594 Z-0.500000 I0.373799 J-0.336697 F400.000000
G02 X155.074480 Y140.182270 Z-0.500000 I-47.286760 J-87.295101
G02 X159.732528 Y136.679968 Z-0.500000 I-26.699814 J-40.359390
G02 X164.412380 Y132.236960 Z-0.500000 I-38.391436 J-45.124140
G02 X166.954386 Y129.455058 Z-0.500000 I-83.037443 J-78.429109
G02 X167.246370 Y129.031880 Z-0.500000 I-1.610208 J-1.423329
G02 X167.111988 Y128.799611 Z-0.500000 I-0.140357 J-0.073803
G02 X155.082290 Y128.572890 Z-0.500000 I-12.029698 J319.030985
G02 X142.786517 Y128.681194 Z-0.500000 I0.000000 J698.022952
G02 X142.678000 Y128.791640 Z-0.500000 I0.001946 J0.110446
G02 X142.711212 Y129.044343 Z-0.500000 I0.977980 J-0.000000
G02 X144.786385 Y136.736752 Z-0.500000 I1800.070251 J-481.476835
G02 X146.900711 Y144.442816 Z-0.500000 I1795.130762 J-488.389967
G02 X146.970970 Y144.570940 Z-0.500000 I0.306700 J-0.084858
G01 X146.970970 Y144.570940 Z-0.500000
G00 Z5.000000

(Change tool to Cylindrical cutter)

G00 Z5.000000
G00 X105.308860 Y144.272110

G01 Z-0.500000 F100.0(Penetrate)
G02 X105.793876 Y144.313642 Z-0.500000 I0.319553 J-0.878973 F400.000000
G02 X105.922140 Y144.197910 Z-0.500000 I-0.028944 J-0.161020
G02 X109.851541 Y130.001926 Z-0.500000 I-678.498706 J-195.447979
G02 X110.004170 Y128.832680 Z-0.500000 I-4.402303 J-1.169246
G02 X109.876148 Y128.701912 Z-0.500000 I-0.130797 J0.000000
G02 X97.715114 Y128.572910 Z-0.500000 I-12.161034 J573.144706
G02 X85.802338 Y128.799877 Z-0.500000 I0.000000 J312.745647
G02 X85.668235 Y129.031900 Z-0.500000 I0.006032 J0.158252
G02 X87.393807 Y131.391518 Z-0.500000 I8.811931 J-4.633347
G02 X93.426048 Y136.893220 Z-0.500000 I55.266469 J-54.538085
G02 X97.893400 Y140.176536 Z-0.500000 I33.160422 J-40.437957
G02 X102.863540 Y143.086580 Z-0.500000 I30.946285 J-47.154625
G02 X104.700401 Y144.013257 Z-0.500000 I41.606932 J-80.189487
G02 X105.308860 Y144.272130 Z-0.500000 I2.717305 J-5.542292
G01 X105.308860 Y144.272110 Z-0.500000
G00 Z5.000000

(Change tool to Cylindrical cutter)

G00 Z5.000000
G00 X126.611590 Y124.504530

G01 Z-0.500000 F100.0(Penetrate)
G02 X170.508249 Y124.302308 Z-0.500000 I-6.547602 J-6185.750522 F400.000000
G02 X170.631130 Y124.209610 Z-0.500000 I-0.001054 J-0.129191
G02 X170.562609 Y124.027080 Z-0.500000 I-0.155441 J-0.045774
G02 X160.334260 Y117.664690 Z-0.500000 I-332.589747 J523.277320
G01 X149.969010 Y111.356100 Z-0.500000
G01 X126.685810 Y111.369800 Z-0.500000
G01 X103.400650 Y111.383500 Z-0.500000
G01 X93.031516 Y117.670610 Z-0.500000
G02 X82.789948 Y124.028235 Z-0.500000 I297.023212 J489.905892
G02 X82.662375 Y124.260450 Z-0.500000 I0.147558 J0.232215
G02 X82.813990 Y124.412908 Z-0.500000 I0.152460 J0.000000
G02 X126.611590 Y124.504590 Z-0.500000 I35.186313 J-6347.537199
G01 X126.611590 Y124.504530 Z-0.500000
G00 Z5.000000

(Change tool to Cylindrical cutter)

G00 Z5.000000
G00 X172.855740 Y119.672500

G01 Z-0.500000 F100.0(Penetrate)
G01 X172.263940 Y118.639300 Z-0.500000 F400.000000
G03 X171.673027 Y117.605066 Z-0.500000 I290.306135 J-166.553387
G03 X150.338150 Y80.106100 Z-0.500000 I498579.783977 J-283686.591681
G02 X128.949276 Y42.670715 Z-0.500000 I-10098.866878 J5745.204557
G02 X128.773700 Y42.526020 Z-0.500000 I-0.279661 J0.160474
G02 X128.657718 Y42.607201 Z-0.500000 I-0.028311 J0.082995
G02 X128.543230 Y53.674460 Z-0.500000 I534.864711 J11.067259
G01 X128.543230 Y64.899070 Z-0.500000
G01 X140.558860 Y86.065080 Z-0.500000
G01 X152.574480 Y107.229140 Z-0.500000
G01 X161.818630 Y112.936180 Z-0.500000
G02 X171.070425 Y118.629099 Z-0.500000 I1967.872333 J-3187.705540
G02 X171.959260 Y119.156880 Z-0.500000 I18.863860 J-30.756250
G01 X172.855740 Y119.672500 Z-0.500000
G00 Z5.000000

(Change tool to Cylindrical cutter)

G00 Z5.000000
G00 X80.859641 Y119.225240

G01 Z-0.500000 F100.0(Penetrate)
G02 X81.230327 Y119.109085 Z-0.500000 I-0.068667 J-0.868699 F400.000000
G02 X91.090110 Y113.252580 Z-0.500000 I-383.412064 J-656.725637
G01 X100.922140 Y107.311180 Z-0.500000
G01 X112.418230 Y86.070940 Z-0.500000
G01 X123.912370 Y64.828750 Z-0.500000
G01 X123.851870 Y53.608050 Z-0.500000
G01 X123.793270 Y42.385390 Z-0.500000
G01 X102.054990 Y80.313130 Z-0.500000
G02 X80.479131 Y118.271804 Z-0.500000 I5330.771490 J3055.142613
G02 X80.388937 Y118.748680 Z-0.500000 I0.659325 J0.371670
G02 X80.572043 Y119.118399 Z-0.500000 I0.648432 J-0.090938
G02 X80.859641 Y119.225240 Z-0.500000 I0.258835 J-0.256239
G01 X80.859641 Y119.225240 Z-0.500000
G00 Z5.000000

(Change tool to Cylindrical cutter)

G00 Z5.000000
G00 X175.127230 Y115.242820

G01 Z-0.500000 F100.0(Penetrate)
G02 X176.198525 Y113.793378 Z-0.500000 I-1.317481 J-2.094384 F400.000000
G02 X178.502230 Y102.746720 Z-0.500000 I-93.799171 J-25.324717
G02 X179.127051 Y95.257934 Z-0.500000 I-57.887066 J-8.600217
G02 X178.746370 Y89.834610 Z-0.500000 I-30.553635 J-0.580365
G02 X178.465562 Y88.843469 Z-0.500000 I-4.359498 J0.699773
G02 X178.291290 Y88.736960 Z-0.500000 I-0.160298 J0.066455
G02 X178.020325 Y88.784542 Z-0.500000 I0.120098 J1.479250
G02 X170.252230 Y90.934220 Z-0.500000 I318.999908 J1167.850935
G02 X162.647110 Y93.205908 Z-0.500000 I63.141947 J225.251576
G02 X162.545190 Y93.379530 Z-0.500000 I0.045511 J0.143441
G02 X162.756056 Y93.943185 Z-0.500000 I1.893440 J-0.387074
G02 X168.820700 Y104.578183 Z-0.500000 I1352.686290 J-764.327364
G02 X174.996756 Y115.210956 Z-0.500000 I1325.367271 J-762.730759
G02 X175.127230 Y115.242820 Z-0.500000 I0.080679 J-0.047297
G01 X175.127230 Y115.242820 Z-0.500000
G00 Z5.000000

(Change tool to Cylindrical cutter)

G00 Z5.000000
G00 X77.525656 Y114.711570

G01 Z-0.500000 F100.0(Penetrate)
G02 X77.643686 Y114.697603 Z-0.500000 I0.053682 J-0.052053 F400.000000
G02 X83.936049 Y103.970965 Z-0.500000 I-1372.049393 J-812.068112
G02 X90.118129 Y93.243815 Z-0.500000 I-1406.861947 J-817.922567
G02 X90.369407 Y92.619770 Z-0.500000 I-2.150908 J-1.228697
G02 X90.288860 Y92.478938 Z-0.500000 I-0.113459 J-0.028558
G02 X82.547141 Y90.326800 Z-0.500000 I-80.695938 J275.280827
G02 X74.664859 Y88.271765 Z-0.500000 I-493.337528 J1876.098389
G02 X74.511985 Y88.248680 Z-0.500000 I-0.188028 J0.727453
G02 X73.486997 Y89.224705 Z-0.500000 I-0.041082 J0.983074
G02 X74.408470 Y102.629530 Z-0.500000 I88.716709 J0.635527
G02 X76.453884 Y112.801052 Z-0.500000 I95.083289 J-13.829086
G02 X77.525656 Y114.711570 Z-0.500000 I4.144565 J-1.069157
G01 X77.525656 Y114.711570 Z-0.500000
G00 Z5.000000

(Change tool to Cylindrical cutter)

G00 Z5.000000
G00 X126.713150 Y104.988910

G01 Z-0.500000 F100.0(Penetrate)
G02 X143.668686 Y104.838044 Z-0.500000 I-0.000000 J-952.873455 F400.000000
G02 X143.771750 Y104.686180 Z-0.500000 I-0.001998 J-0.112260
G02 X143.635651 Y104.394823 Z-0.500000 I-1.972042 J0.743719
G02 X135.027610 Y89.178360 Z-0.500000 I-5225.879495 J2946.267064
G02 X126.389167 Y73.979611 Z-0.500000 I-13695.011819 J7773.716448
G02 X126.330340 Y73.895160 Z-0.500000 I-0.491949 J0.279968
G01 X126.272456 Y73.896618 Z-0.500000
G02 X125.974870 Y74.365860 Z-0.500000 I2.640485 J2.003540
G03 X125.683331 Y74.914667 Z-0.500000 I-39.125115 J-20.432306
G03 X117.615500 Y89.834610 Z-0.500000 I-21021.481008 J-11357.545683
G02 X109.569315 Y104.758324 Z-0.500000 I4705.782183 J2546.773578
G02 X109.541280 Y104.869770 Z-0.500000 I0.207491 J0.111446
G02 X109.600347 Y104.929250 Z-0.500000 I0.059482 J0.000000
G02 X126.713150 Y104.988910 Z-0.500000 I17.112803 J-2454.297197
G01 X126.713150 Y104.988910 Z-0.500000
G00 Z5.000000

(Change tool to Cylindrical cutter)

G00 Z5.000000
G00 X159.316680 Y86.875630

G01 Z-0.500000 F100.0(Penetrate)
G02 X159.528480 Y86.932876 Z-0.500000 I0.154720 J-0.152006 F400.000000
G02 X168.183309 Y84.512700 Z-0.500000 I-185.646458 J-680.578713
G02 X176.781501 Y81.990591 Z-0.500000 I-196.233952 J-684.904006
G02 X177.156520 Y81.764300 Z-0.500000 I-0.253195 J-0.843497
G02 X177.390159 Y80.698653 Z-0.500000 I-0.731671 J-0.718852
G02 X173.388940 Y71.277970 Z-0.500000 I-84.925850 J30.510257
G02 X169.658065 Y64.861108 Z-0.500000 I-48.793599 J24.076417
G02 X165.275660 Y59.289690 Z-0.500000 I-41.030092 J27.764458
G02 X163.696599 Y57.636372 Z-0.500000 I-34.782853 J31.639888
G02 X163.566680 Y57.582660 Z-0.500000 I-0.129919 J0.130269
G02 X163.435840 Y57.636820 Z-0.500000 I0.000000 J0.185123
G02 X156.660420 Y64.481100 Z-0.500000 I615.785128 J616.365459
G01 X149.904560 Y71.379530 Z-0.500000
G01 X154.506120 Y79.020160 Z-0.500000
G02 X159.134086 Y86.641825 Z-0.500000 I1011.575358 J-609.024709
G02 X159.316680 Y86.875630 Z-0.500000 I1.116426 J-0.683690
G01 X159.316680 Y86.875630 Z-0.500000
G00 Z5.000000

(Change tool to Cylindrical cutter)

G00 Z5.000000
G00 X93.793235 Y86.668600

G01 Z-0.500000 F100.0(Penetrate)
G02 X98.289223 Y80.599481 Z-0.500000 I-23.696679 J-22.254309 F400.000000
G02 X102.957290 Y70.705710 Z-0.500000 I-59.136812 J-33.949983
G02 X102.908846 Y70.466926 Z-0.500000 I-0.214369 J-0.080815
G02 X96.357684 Y63.774070 Z-0.500000 I-244.697819 J232.964679
G01 X89.656516 Y57.115860 Z-0.500000
G01 X87.906516 Y59.010390 Z-0.500000
G02 X82.112819 Y66.629031 Z-0.500000 I36.706961 J33.926566
G02 X77.590109 Y75.678360 Z-0.500000 I47.433522 J29.361369
G02 X75.649564 Y81.180044 Z-0.500000 I80.918604 J31.634556
G02 X75.752220 Y81.504530 Z-0.500000 I0.282517 J0.089103
G02 X76.172627 Y81.718342 Z-0.500000 I0.791263 J-1.035601
G02 X84.867025 Y84.252975 Z-0.500000 I264.185875 J-890.041516
G02 X93.630136 Y86.714437 Z-0.500000 I252.851566 J-883.353444
G02 X93.793235 Y86.668600 Z-0.500000 I0.043562 J-0.158088
G01 X93.793235 Y86.668600 Z-0.500000
G00 Z5.000000

(Change tool to Cylindrical cutter)

G00 Z5.000000
G00 X145.955340 Y64.297500

G01 Z-0.500000 F100.0(Penetrate)
G02 X146.178648 Y64.304934 Z-0.500000 I0.115272 J-0.104965 F400.000000
G02 X151.930834 Y58.661264 Z-0.500000 I-271.966914 J-282.949469
G02 X157.583329 Y52.885687 Z-0.500000 I-285.220498 J-284.796034
G02 X157.740510 Y52.494770 Z-0.500000 I-0.407523 J-0.390917
G02 X157.313583 Y51.719128 Z-0.500000 I-0.918058 J0.000000
G02 X149.590110 Y47.332660 Z-0.500000 I-49.560333 J78.270562
G02 X143.311273 Y44.636455 Z-0.500000 I-24.524033 J48.451706
G02 X137.463150 Y43.006490 Z-0.500000 I-14.411578 J40.400886
G02 X135.144996 Y42.542691 Z-0.500000 I-66.976809 J328.737325
G02 X134.246360 Y42.375630 Z-0.500000 I-8.690472 J44.246406
G01 X133.345970 Y42.217420 Z-0.500000
G01 X133.924090 Y43.236960 Z-0.500000
G03 X134.503131 Y44.256352 Z-0.500000 I-1602.981320 J911.219135
G03 X140.125260 Y54.162740 Z-0.500000 I-81833.320770 J46446.409865
G02 X145.773846 Y64.048764 Z-0.500000 I1670.417489 J-947.871025
G02 X145.955340 Y64.297500 Z-0.500000 I1.234675 J-0.710320
G01 X145.955340 Y64.297500 Z-0.500000
G00 Z5.000000

(Change tool to Cylindrical cutter)

G00 Z5.000000
G00 X106.863540 Y63.920550

G01 Z-0.500000 F100.0(Penetrate)
G02 X107.125948 Y63.566825 Z-0.500000 I-1.372267 J-1.292199 F400.000000
G02 X119.201430 Y42.428360 Z-0.500000 I-4921.744942 J-2825.596331
G02 X119.153584 Y42.342991 Z-0.500000 I-0.049688 J-0.028244
G02 X118.463150 Y42.404960 Z-0.500000 I-0.091995 J2.852304
G03 X117.999138 Y42.501746 Z-0.500000 I-8.634691 J-40.235763
G03 X115.566670 Y42.990900 Z-0.500000 I-172.154137 J-849.796669
G02 X106.541580 Y45.777192 Z-0.500000 I9.040282 J45.292157
G02 X97.551044 Y50.647150 Z-0.500000 I21.180808 J49.836149
G02 X95.229488 Y52.270684 Z-0.500000 I40.907069 J60.966244
G02 X95.174094 Y52.379570 Z-0.500000 I0.079319 J0.108886
G02 X95.244306 Y52.549655 Z-0.500000 I0.241116 J-0.000000
G02 X100.982029 Y58.264545 Z-0.500000 I652.930152 J-649.801069
G02 X106.764217 Y63.922843 Z-0.500000 I640.183906 J-648.417300
G02 X106.863540 Y63.920590 Z-0.500000 I0.048551 J-0.050057
G01 X106.863540 Y63.920550 Z-0.500000
G00 Z5.000000

(End cutting path id: path8087)


(Start cutting path id: path8087)
(Change tool to Cylindrical cutter)

G00 Z5.000000
G00 X126.689720 Y152.012345

G01 Z-0.600000 F100.0(Penetrate)
G03 X119.041229 Y151.581216 Z-0.600000 I-0.179954 J-64.867487 F400.000000
G03 X112.636980 Y150.383435 Z-0.600000 I5.400848 J-46.596933
G03 X107.321747 Y148.688122 Z-0.600000 I12.919985 J-49.687371
G03 X101.779560 Y146.258440 Z-0.600000 I21.481741 J-56.536367
G03 X81.547885 Y128.924462 Z-0.600000 I24.519351 J-49.092094
G03 X71.154562 Y103.102190 Z-0.600000 I48.842244 J-34.661500
G03 X70.577045 Y95.318985 Z-0.600000 I52.158443 J-7.783205
G03 X71.154562 Y87.535780 Z-0.600000 I52.735960 J0.000000
G03 X73.907663 Y76.269854 Z-0.600000 I62.734925 J9.361435
G03 X78.414328 Y66.426410 Z-0.600000 I52.249779 J17.968361
G03 X96.479268 Y47.445452 Z-0.600000 I48.988423 J28.537208
G03 X121.004170 Y38.709610 Z-0.600000 I30.527909 J46.910313
G03 X128.140387 Y38.462332 Z-0.600000 I5.262886 J48.786065
G03 X135.726820 Y39.272110 Z-0.600000 I-2.138641 J55.977685
G03 X152.400615 Y45.055685 Z-0.600000 I-9.651854 J54.752579
G03 X166.549100 Y55.842420 Z-0.600000 I-26.751433 J49.761014
G03 X176.419154 Y70.134626 Z-0.600000 I-40.232805 J38.338555
G03 X181.760040 Y87.535780 Z-0.600000 I-55.026117 J26.409216
G03 X182.337547 Y95.318985 Z-0.600000 I-52.159375 J7.783205
G03 X181.760040 Y103.102190 Z-0.600000 I-52.736881 J-0.000000
G03 X176.419032 Y120.502287 Z-0.600000 I-60.354388 J-9.006179
G03 X166.549100 Y134.793600 Z-0.600000 I-50.106836 J-24.051148
G03 X152.505221 Y145.506057 Z-0.600000 I-40.667997 J-38.753278
G03 X135.726820 Y151.383435 Z-0.600000 I-26.973666 J-50.115171
G03 X132.349600 Y151.807344 Z-0.600000 I-5.521625 J-30.325103
G03 X126.689720 Y152.012345 Z-0.600000 I-5.895652 J-84.538853
G01 X126.689720 Y152.012345 Z-0.600000
G00 Z5.000000

(Change tool to Cylindrical cutter)

G00 Z5.000000
G00 X126.480730 Y148.738910

G01 Z-0.600000 F100.0(Penetrate)
G02 X131.126665 Y148.612808 Z-0.600000 I-0.002976 J-85.757049 F400.000000
G02 X133.988540 Y148.297500 Z-0.600000 I-1.406967 J-25.915728
G02 X139.791213 Y147.179050 Z-0.600000 I-19.298385 J-115.734446
G02 X140.248310 Y146.926410 Z-0.600000 I-0.195810 J-0.894103
G02 X140.279468 Y146.812012 Z-0.600000 I-0.086440 J-0.084986
G02 X137.955340 Y137.760390 Z-0.600000 I-725.169438 J181.373023
G01 X135.564720 Y128.692030 Z-0.600000
G01 X126.646750 Y128.629530 Z-0.600000
G01 X117.728780 Y128.567030 Z-0.600000
G01 X115.000260 Y137.473280 Z-0.600000
G02 X112.288657 Y146.384792 Z-0.600000 I2325.046593 J712.335593
G02 X112.238540 Y146.613910 Z-0.600000 I1.438458 J0.434687
G02 X112.487251 Y146.983657 Z-0.600000 I0.331281 J0.045685
G02 X118.853780 Y148.299460 Z-0.600000 I17.574826 J-68.975847
G02 X121.840116 Y148.615919 Z-0.600000 I4.501621 J-28.231673
G02 X126.480730 Y148.738910 Z-0.600000 I4.637578 J-87.372478
G01 X126.480730 Y148.738910 Z-0.600000
G00 Z5.000000

(Change tool to Cylindrical cutter)

G00 Z5.000000
G00 X146.970970 Y144.570940

G01 Z-0.600000 F100.0(Penetrate)
G02 X147.584386 Y144.676594 Z-0.600000 I0.373799 J-0.336697 F400.000000
G02 X155.074480 Y140.182270 Z-0.600000 I-47.286760 J-87.295101
G02 X159.732528 Y136.679968 Z-0.600000 I-26.699814 J-40.359390
G02 X164.412380 Y132.236960 Z-0.600000 I-38.391436 J-45.124140
G02 X166.954386 Y129.455058 Z-0.600000 I-83.037443 J-78.429109
G02 X167.246370 Y129.031880 Z-0.600000 I-1.610208 J-1.423329
G02 X167.111988 Y128.799611 Z-0.600000 I-0.140357 J-0.073803
G02 X155.082290 Y128.572890 Z-0.600000 I-12.029698 J319.030985
G02 X142.786517 Y128.681194 Z-0.600000 I0.000000 J698.022952
G02 X142.678000 Y128.791640 Z-0.600000 I0.001946 J0.110446
G02 X142.711212 Y129.044343 Z-0.600000 I0.977980 J-0.000000
G02 X144.786385 Y136.736752 Z-0.600000 I1800.070251 J-481.476835
G02 X146.900711 Y144.442816 Z-0.600000 I1795.130762 J-488.389967
G02 X146.970970 Y144.570940 Z-0.600000 I0.306700 J-0.084858
G01 X146.970970 Y144.570940 Z-0.600000
G00 Z5.000000

(Change tool to Cylindrical cutter)

G00 Z5.000000
G00 X105.308860 Y144.272110

G01 Z-0.600000 F100.0(Penetrate)
G02 X105.793876 Y144.313642 Z-0.600000 I0.319553 J-0.878973 F400.000000
G02 X105.922140 Y144.197910 Z-0.600000 I-0.028944 J-0.161020
G02 X109.851541 Y130.001926 Z-0.600000 I-678.498706 J-195.447979
G02 X110.004170 Y128.832680 Z-0.600000 I-4.402303 J-1.169246
G02 X109.876148 Y128.701912 Z-0.600000 I-0.130797 J0.000000
G02 X97.715114 Y128.572910 Z-0.600000 I-12.161034 J573.144706
G02 X85.802338 Y128.799877 Z-0.600000 I0.000000 J312.745647
G02 X85.668235 Y129.031900 Z-0.600000 I0.006032 J0.158252
G02 X87.393807 Y131.391518 Z-0.600000 I8.811931 J-4.633347
G02 X93.426048 Y136.893220 Z-0.600000 I55.266469 J-54.538085
G02 X97.893400 Y140.176536 Z-0.600000 I33.160422 J-40.437957
G02 X102.863540 Y143.086580 Z-0.600000 I30.946285 J-47.154625
G02 X104.700401 Y144.013257 Z-0.600000 I41.606932 J-80.189487
G02 X105.308860 Y144.272130 Z-0.600000 I2.717305 J-5.542292
G01 X105.308860 Y144.272110 Z-0.600000
G00 Z5.000000

(Change tool to Cylindrical cutter)

G00 Z5.000000
G00 X126.611590 Y124.504530

G01 Z-0.600000 F100.0(Penetrate)
G02 X170.508249 Y124.302308 Z-0.600000 I-6.547602 J-6185.750522 F400.000000
G02 X170.631130 Y124.209610 Z-0.600000 I-0.001054 J-0.129191
G02 X170.562609 Y124.027080 Z-0.600000 I-0.155441 J-0.045774
G02 X160.334260 Y117.664690 Z-0.600000 I-332.589747 J523.277320
G01 X149.969010 Y111.356100 Z-0.600000
G01 X126.685810 Y111.369800 Z-0.600000
G01 X103.400650 Y111.383500 Z-0.600000
G01 X93.031516 Y117.670610 Z-0.600000
G02 X82.789948 Y124.028235 Z-0.600000 I297.023212 J489.905892
G02 X82.662375 Y124.260450 Z-0.600000 I0.147558 J0.232215
G02 X82.813990 Y124.412908 Z-0.600000 I0.152460 J0.000000
G02 X126.611590 Y124.504590 Z-0.600000 I35.186313 J-6347.537199
G01 X126.611590 Y124.504530 Z-0.600000
G00 Z5.000000

(Change tool to Cylindrical cutter)

G00 Z5.000000
G00 X172.855740 Y119.672500

G01 Z-0.600000 F100.0(Penetrate)
G01 X172.263940 Y118.639300 Z-0.600000 F400.000000
G03 X171.673027 Y117.605066 Z-0.600000 I290.306135 J-166.553387
G03 X150.338150 Y80.106100 Z-0.600000 I498579.783977 J-283686.591681
G02 X128.949276 Y42.670715 Z-0.600000 I-10098.866878 J5745.204557
G02 X128.773700 Y42.526020 Z-0.600000 I-0.279661 J0.160474
G02 X128.657718 Y42.607201 Z-0.600000 I-0.028311 J0.082995
G02 X128.543230 Y53.674460 Z-0.600000 I534.864711 J11.067259
G01 X128.543230 Y64.899070 Z-0.600000
G01 X140.558860 Y86.065080 Z-0.600000
G01 X152.574480 Y107.229140 Z-0.600000
G01 X161.818630 Y112.936180 Z-0.600000
G02 X171.070425 Y118.629099 Z-0.600000 I1967.872333 J-3187.705540
G02 X171.959260 Y119.156880 Z-0.600000 I18.863860 J-30.756250
G01 X172.855740 Y119.672500 Z-0.600000
G00 Z5.000000

(Change tool to Cylindrical cutter)

G00 Z5.000000
G00 X80.859641 Y119.225240

G01 Z-0.600000 F100.0(Penetrate)
G02 X81.230327 Y119.109085 Z-0.600000 I-0.068667 J-0.868699 F400.000000
G02 X91.090110 Y113.252580 Z-0.600000 I-383.412064 J-656.725637
G01 X100.922140 Y107.311180 Z-0.600000
G01 X112.418230 Y86.070940 Z-0.600000
G01 X123.912370 Y64.828750 Z-0.600000
G01 X123.851870 Y53.608050 Z-0.600000
G01 X123.793270 Y42.385390 Z-0.600000
G01 X102.054990 Y80.313130 Z-0.600000
G02 X80.479131 Y118.271804 Z-0.600000 I5330.771490 J3055.142613
G02 X80.388937 Y118.748680 Z-0.600000 I0.659325 J0.371670
G02 X80.572043 Y119.118399 Z-0.600000 I0.648432 J-0.090938
G02 X80.859641 Y119.225240 Z-0.600000 I0.258835 J-0.256239
G01 X80.859641 Y119.225240 Z-0.600000
G00 Z5.000000

(Change tool to Cylindrical cutter)

G00 Z5.000000
G00 X175.127230 Y115.242820

G01 Z-0.600000 F100.0(Penetrate)
G02 X176.198525 Y113.793378 Z-0.600000 I-1.317481 J-2.094384 F400.000000
G02 X178.502230 Y102.746720 Z-0.600000 I-93.799171 J-25.324717
G02 X179.127051 Y95.257934 Z-0.600000 I-57.887066 J-8.600217
G02 X178.746370 Y89.834610 Z-0.600000 I-30.553635 J-0.580365
G02 X178.465562 Y88.843469 Z-0.600000 I-4.359498 J0.699773
G02 X178.291290 Y88.736960 Z-0.600000 I-0.160298 J0.066455
G02 X178.020325 Y88.784542 Z-0.600000 I0.120098 J1.479250
G02 X170.252230 Y90.934220 Z-0.600000 I318.999908 J1167.850935
G02 X162.647110 Y93.205908 Z-0.600000 I63.141947 J225.251576
G02 X162.545190 Y93.379530 Z-0.600000 I0.045511 J0.143441
G02 X162.756056 Y93.943185 Z-0.600000 I1.893440 J-0.387074
G02 X168.820700 Y104.578183 Z-0.600000 I1352.686290 J-764.327364
G02 X174.996756 Y115.210956 Z-0.600000 I1325.367271 J-762.730759
G02 X175.127230 Y115.242820 Z-0.600000 I0.080679 J-0.047297
G01 X175.127230 Y115.242820 Z-0.600000
G00 Z5.000000

(Change tool to Cylindrical cutter)

G00 Z5.000000
G00 X77.525656 Y114.711570

G01 Z-0.600000 F100.0(Penetrate)
G02 X77.643686 Y114.697603 Z-0.600000 I0.053682 J-0.052053 F400.000000
G02 X83.936049 Y103.970965 Z-0.600000 I-1372.049393 J-812.068112
G02 X90.118129 Y93.243815 Z-0.600000 I-1406.861947 J-817.922567
G02 X90.369407 Y92.619770 Z-0.600000 I-2.150908 J-1.228697
G02 X90.288860 Y92.478938 Z-0.600000 I-0.113459 J-0.028558
G02 X82.547141 Y90.326800 Z-0.600000 I-80.695938 J275.280827
G02 X74.664859 Y88.271765 Z-0.600000 I-493.337528 J1876.098389
G02 X74.511985 Y88.248680 Z-0.600000 I-0.188028 J0.727453
G02 X73.486997 Y89.224705 Z-0.600000 I-0.041082 J0.983074
G02 X74.408470 Y102.629530 Z-0.600000 I88.716709 J0.635527
G02 X76.453884 Y112.801052 Z-0.600000 I95.083289 J-13.829086
G02 X77.525656 Y114.711570 Z-0.600000 I4.144565 J-1.069157
G01 X77.525656 Y114.711570 Z-0.600000
G00 Z5.000000

(Change tool to Cylindrical cutter)

G00 Z5.000000
G00 X126.713150 Y104.988910

G01 Z-0.600000 F100.0(Penetrate)
G02 X143.668686 Y104.838044 Z-0.600000 I-0.000000 J-952.873455 F400.000000
G02 X143.771750 Y104.686180 Z-0.600000 I-0.001998 J-0.112260
G02 X143.635651 Y104.394823 Z-0.600000 I-1.972042 J0.743719
G02 X135.027610 Y89.178360 Z-0.600000 I-5225.879495 J2946.267064
G02 X126.389167 Y73.979611 Z-0.600000 I-13695.011819 J7773.716448
G02 X126.330340 Y73.895160 Z-0.600000 I-0.491949 J0.279968
G01 X126.272456 Y73.896618 Z-0.600000
G02 X125.974870 Y74.365860 Z-0.600000 I2.640485 J2.003540
G03 X125.683331 Y74.914667 Z-0.600000 I-39.125115 J-20.432306
G03 X117.615500 Y89.834610 Z-0.600000 I-21021.481008 J-11357.545683
G02 X109.569315 Y104.758324 Z-0.600000 I4705.782183 J2546.773578
G02 X109.541280 Y104.869770 Z-0.600000 I0.207491 J0.111446
G02 X109.600347 Y104.929250 Z-0.600000 I0.059482 J0.000000
G02 X126.713150 Y104.988910 Z-0.600000 I17.112803 J-2454.297197
G01 X126.713150 Y104.988910 Z-0.600000
G00 Z5.000000

(Change tool to Cylindrical cutter)

G00 Z5.000000
G00 X159.316680 Y86.875630

G01 Z-0.600000 F100.0(Penetrate)
G02 X159.528480 Y86.932876 Z-0.600000 I0.154720 J-0.152006 F400.000000
G02 X168.183309 Y84.512700 Z-0.600000 I-185.646458 J-680.578713
G02 X176.781501 Y81.990591 Z-0.600000 I-196.233952 J-684.904006
G02 X177.156520 Y81.764300 Z-0.600000 I-0.253195 J-0.843497
G02 X177.390159 Y80.698653 Z-0.600000 I-0.731671 J-0.718852
G02 X173.388940 Y71.277970 Z-0.600000 I-84.925850 J30.510257
G02 X169.658065 Y64.861108 Z-0.600000 I-48.793599 J24.076417
G02 X165.275660 Y59.289690 Z-0.600000 I-41.030092 J27.764458
G02 X163.696599 Y57.636372 Z-0.600000 I-34.782853 J31.639888
G02 X163.566680 Y57.582660 Z-0.600000 I-0.129919 J0.130269
G02 X163.435840 Y57.636820 Z-0.600000 I0.000000 J0.185123
G02 X156.660420 Y64.481100 Z-0.600000 I615.785128 J616.365459
G01 X149.904560 Y71.379530 Z-0.600000
G01 X154.506120 Y79.020160 Z-0.600000
G02 X159.134086 Y86.641825 Z-0.600000 I1011.575358 J-609.024709
G02 X159.316680 Y86.875630 Z-0.600000 I1.116426 J-0.683690
G01 X159.316680 Y86.875630 Z-0.600000
G00 Z5.000000

(Change tool to Cylindrical cutter)

G00 Z5.000000
G00 X93.793235 Y86.668600

G01 Z-0.600000 F100.0(Penetrate)
G02 X98.289223 Y80.599481 Z-0.600000 I-23.696679 J-22.254309 F400.000000
G02 X102.957290 Y70.705710 Z-0.600000 I-59.136812 J-33.949983
G02 X102.908846 Y70.466926 Z-0.600000 I-0.214369 J-0.080815
G02 X96.357684 Y63.774070 Z-0.600000 I-244.697819 J232.964679
G01 X89.656516 Y57.115860 Z-0.600000
G01 X87.906516 Y59.010390 Z-0.600000
G02 X82.112819 Y66.629031 Z-0.600000 I36.706961 J33.926566
G02 X77.590109 Y75.678360 Z-0.600000 I47.433522 J29.361369
G02 X75.649564 Y81.180044 Z-0.600000 I80.918604 J31.634556
G02 X75.752220 Y81.504530 Z-0.600000 I0.282517 J0.089103
G02 X76.172627 Y81.718342 Z-0.600000 I0.791263 J-1.035601
G02 X84.867025 Y84.252975 Z-0.600000 I264.185875 J-890.041516
G02 X93.630136 Y86.714437 Z-0.600000 I252.851566 J-883.353444
G02 X93.793235 Y86.668600 Z-0.600000 I0.043562 J-0.158088
G01 X93.793235 Y86.668600 Z-0.600000
G00 Z5.000000

(Change tool to Cylindrical cutter)

G00 Z5.000000
G00 X145.955340 Y64.297500

G01 Z-0.600000 F100.0(Penetrate)
G02 X146.178648 Y64.304934 Z-0.600000 I0.115272 J-0.104965 F400.000000
G02 X151.930834 Y58.661264 Z-0.600000 I-271.966914 J-282.949469
G02 X157.583329 Y52.885687 Z-0.600000 I-285.220498 J-284.796034
G02 X157.740510 Y52.494770 Z-0.600000 I-0.407523 J-0.390917
G02 X157.313583 Y51.719128 Z-0.600000 I-0.918058 J0.000000
G02 X149.590110 Y47.332660 Z-0.600000 I-49.560333 J78.270562
G02 X143.311273 Y44.636455 Z-0.600000 I-24.524033 J48.451706
G02 X137.463150 Y43.006490 Z-0.600000 I-14.411578 J40.400886
G02 X135.144996 Y42.542691 Z-0.600000 I-66.976809 J328.737325
G02 X134.246360 Y42.375630 Z-0.600000 I-8.690472 J44.246406
G01 X133.345970 Y42.217420 Z-0.600000
G01 X133.924090 Y43.236960 Z-0.600000
G03 X134.503131 Y44.256352 Z-0.600000 I-1602.981320 J911.219135
G03 X140.125260 Y54.162740 Z-0.600000 I-81833.320770 J46446.409865
G02 X145.773846 Y64.048764 Z-0.600000 I1670.417489 J-947.871025
G02 X145.955340 Y64.297500 Z-0.600000 I1.234675 J-0.710320
G01 X145.955340 Y64.297500 Z-0.600000
G00 Z5.000000

(Change tool to Cylindrical cutter)

G00 Z5.000000
G00 X106.863540 Y63.920550

G01 Z-0.600000 F100.0(Penetrate)
G02 X107.125948 Y63.566825 Z-0.600000 I-1.372267 J-1.292199 F400.000000
G02 X119.201430 Y42.428360 Z-0.600000 I-4921.744942 J-2825.596331
G02 X119.153584 Y42.342991 Z-0.600000 I-0.049688 J-0.028244
G02 X118.463150 Y42.404960 Z-0.600000 I-0.091995 J2.852304
G03 X117.999138 Y42.501746 Z-0.600000 I-8.634691 J-40.235763
G03 X115.566670 Y42.990900 Z-0.600000 I-172.154137 J-849.796669
G02 X106.541580 Y45.777192 Z-0.600000 I9.040282 J45.292157
G02 X97.551044 Y50.647150 Z-0.600000 I21.180808 J49.836149
G02 X95.229488 Y52.270684 Z-0.600000 I40.907069 J60.966244
G02 X95.174094 Y52.379570 Z-0.600000 I0.079319 J0.108886
G02 X95.244306 Y52.549655 Z-0.600000 I0.241116 J-0.000000
G02 X100.982029 Y58.264545 Z-0.600000 I652.930152 J-649.801069
G02 X106.764217 Y63.922843 Z-0.600000 I640.183906 J-648.417300
G02 X106.863540 Y63.920590 Z-0.600000 I0.048551 J-0.050057
G01 X106.863540 Y63.920550 Z-0.600000
G00 Z5.000000

(End cutting path id: path8087)


(Start cutting path id: path8087)
(Change tool to Cylindrical cutter)

G00 Z5.000000
G00 X126.689720 Y152.012345

G01 Z-0.700000 F100.0(Penetrate)
G03 X119.041229 Y151.581216 Z-0.700000 I-0.179954 J-64.867487 F400.000000
G03 X112.636980 Y150.383435 Z-0.700000 I5.400848 J-46.596933
G03 X107.321747 Y148.688122 Z-0.700000 I12.919985 J-49.687371
G03 X101.779560 Y146.258440 Z-0.700000 I21.481741 J-56.536367
G03 X81.547885 Y128.924462 Z-0.700000 I24.519351 J-49.092094
G03 X71.154562 Y103.102190 Z-0.700000 I48.842244 J-34.661500
G03 X70.577045 Y95.318985 Z-0.700000 I52.158443 J-7.783205
G03 X71.154562 Y87.535780 Z-0.700000 I52.735960 J0.000000
G03 X73.907663 Y76.269854 Z-0.700000 I62.734925 J9.361435
G03 X78.414328 Y66.426410 Z-0.700000 I52.249779 J17.968361
G03 X96.479268 Y47.445452 Z-0.700000 I48.988423 J28.537208
G03 X121.004170 Y38.709610 Z-0.700000 I30.527909 J46.910313
G03 X128.140387 Y38.462332 Z-0.700000 I5.262886 J48.786065
G03 X135.726820 Y39.272110 Z-0.700000 I-2.138641 J55.977685
G03 X152.400615 Y45.055685 Z-0.700000 I-9.651854 J54.752579
G03 X166.549100 Y55.842420 Z-0.700000 I-26.751433 J49.761014
G03 X176.419154 Y70.134626 Z-0.700000 I-40.232805 J38.338555
G03 X181.760040 Y87.535780 Z-0.700000 I-55.026117 J26.409216
G03 X182.337547 Y95.318985 Z-0.700000 I-52.159375 J7.783205
G03 X181.760040 Y103.102190 Z-0.700000 I-52.736881 J-0.000000
G03 X176.419032 Y120.502287 Z-0.700000 I-60.354388 J-9.006179
G03 X166.549100 Y134.793600 Z-0.700000 I-50.106836 J-24.051148
G03 X152.505221 Y145.506057 Z-0.700000 I-40.667997 J-38.753278
G03 X135.726820 Y151.383435 Z-0.700000 I-26.973666 J-50.115171
G03 X132.349600 Y151.807344 Z-0.700000 I-5.521625 J-30.325103
G03 X126.689720 Y152.012345 Z-0.700000 I-5.895652 J-84.538853
G01 X126.689720 Y152.012345 Z-0.700000
G00 Z5.000000

(Change tool to Cylindrical cutter)

G00 Z5.000000
G00 X126.480730 Y148.738910

G01 Z-0.700000 F100.0(Penetrate)
G02 X131.126665 Y148.612808 Z-0.700000 I-0.002976 J-85.757049 F400.000000
G02 X133.988540 Y148.297500 Z-0.700000 I-1.406967 J-25.915728
G02 X139.791213 Y147.179050 Z-0.700000 I-19.298385 J-115.734446
G02 X140.248310 Y146.926410 Z-0.700000 I-0.195810 J-0.894103
G02 X140.279468 Y146.812012 Z-0.700000 I-0.086440 J-0.084986
G02 X137.955340 Y137.760390 Z-0.700000 I-725.169438 J181.373023
G01 X135.564720 Y128.692030 Z-0.700000
G01 X126.646750 Y128.629530 Z-0.700000
G01 X117.728780 Y128.567030 Z-0.700000
G01 X115.000260 Y137.473280 Z-0.700000
G02 X112.288657 Y146.384792 Z-0.700000 I2325.046593 J712.335593
G02 X112.238540 Y146.613910 Z-0.700000 I1.438458 J0.434687
G02 X112.487251 Y146.983657 Z-0.700000 I0.331281 J0.045685
G02 X118.853780 Y148.299460 Z-0.700000 I17.574826 J-68.975847
G02 X121.840116 Y148.615919 Z-0.700000 I4.501621 J-28.231673
G02 X126.480730 Y148.738910 Z-0.700000 I4.637578 J-87.372478
G01 X126.480730 Y148.738910 Z-0.700000
G00 Z5.000000

(Change tool to Cylindrical cutter)

G00 Z5.000000
G00 X146.970970 Y144.570940

G01 Z-0.700000 F100.0(Penetrate)
G02 X147.584386 Y144.676594 Z-0.700000 I0.373799 J-0.336697 F400.000000
G02 X155.074480 Y140.182270 Z-0.700000 I-47.286760 J-87.295101
G02 X159.732528 Y136.679968 Z-0.700000 I-26.699814 J-40.359390
G02 X164.412380 Y132.236960 Z-0.700000 I-38.391436 J-45.124140
G02 X166.954386 Y129.455058 Z-0.700000 I-83.037443 J-78.429109
G02 X167.246370 Y129.031880 Z-0.700000 I-1.610208 J-1.423329
G02 X167.111988 Y128.799611 Z-0.700000 I-0.140357 J-0.073803
G02 X155.082290 Y128.572890 Z-0.700000 I-12.029698 J319.030985
G02 X142.786517 Y128.681194 Z-0.700000 I0.000000 J698.022952
G02 X142.678000 Y128.791640 Z-0.700000 I0.001946 J0.110446
G02 X142.711212 Y129.044343 Z-0.700000 I0.977980 J-0.000000
G02 X144.786385 Y136.736752 Z-0.700000 I1800.070251 J-481.476835
G02 X146.900711 Y144.442816 Z-0.700000 I1795.130762 J-488.389967
G02 X146.970970 Y144.570940 Z-0.700000 I0.306700 J-0.084858
G01 X146.970970 Y144.570940 Z-0.700000
G00 Z5.000000

(Change tool to Cylindrical cutter)

G00 Z5.000000
G00 X105.308860 Y144.272110

G01 Z-0.700000 F100.0(Penetrate)
G02 X105.793876 Y144.313642 Z-0.700000 I0.319553 J-0.878973 F400.000000
G02 X105.922140 Y144.197910 Z-0.700000 I-0.028944 J-0.161020
G02 X109.851541 Y130.001926 Z-0.700000 I-678.498706 J-195.447979
G02 X110.004170 Y128.832680 Z-0.700000 I-4.402303 J-1.169246
G02 X109.876148 Y128.701912 Z-0.700000 I-0.130797 J0.000000
G02 X97.715114 Y128.572910 Z-0.700000 I-12.161034 J573.144706
G02 X85.802338 Y128.799877 Z-0.700000 I0.000000 J312.745647
G02 X85.668235 Y129.031900 Z-0.700000 I0.006032 J0.158252
G02 X87.393807 Y131.391518 Z-0.700000 I8.811931 J-4.633347
G02 X93.426048 Y136.893220 Z-0.700000 I55.266469 J-54.538085
G02 X97.893400 Y140.176536 Z-0.700000 I33.160422 J-40.437957
G02 X102.863540 Y143.086580 Z-0.700000 I30.946285 J-47.154625
G02 X104.700401 Y144.013257 Z-0.700000 I41.606932 J-80.189487
G02 X105.308860 Y144.272130 Z-0.700000 I2.717305 J-5.542292
G01 X105.308860 Y144.272110 Z-0.700000
G00 Z5.000000

(Change tool to Cylindrical cutter)

G00 Z5.000000
G00 X126.611590 Y124.504530

G01 Z-0.700000 F100.0(Penetrate)
G02 X170.508249 Y124.302308 Z-0.700000 I-6.547602 J-6185.750522 F400.000000
G02 X170.631130 Y124.209610 Z-0.700000 I-0.001054 J-0.129191
G02 X170.562609 Y124.027080 Z-0.700000 I-0.155441 J-0.045774
G02 X160.334260 Y117.664690 Z-0.700000 I-332.589747 J523.277320
G01 X149.969010 Y111.356100 Z-0.700000
G01 X126.685810 Y111.369800 Z-0.700000
G01 X103.400650 Y111.383500 Z-0.700000
G01 X93.031516 Y117.670610 Z-0.700000
G02 X82.789948 Y124.028235 Z-0.700000 I297.023212 J489.905892
G02 X82.662375 Y124.260450 Z-0.700000 I0.147558 J0.232215
G02 X82.813990 Y124.412908 Z-0.700000 I0.152460 J0.000000
G02 X126.611590 Y124.504590 Z-0.700000 I35.186313 J-6347.537199
G01 X126.611590 Y124.504530 Z-0.700000
G00 Z5.000000

(Change tool to Cylindrical cutter)

G00 Z5.000000
G00 X172.855740 Y119.672500

G01 Z-0.700000 F100.0(Penetrate)
G01 X172.263940 Y118.639300 Z-0.700000 F400.000000
G03 X171.673027 Y117.605066 Z-0.700000 I290.306135 J-166.553387
G03 X150.338150 Y80.106100 Z-0.700000 I498579.783977 J-283686.591681
G02 X128.949276 Y42.670715 Z-0.700000 I-10098.866878 J5745.204557
G02 X128.773700 Y42.526020 Z-0.700000 I-0.279661 J0.160474
G02 X128.657718 Y42.607201 Z-0.700000 I-0.028311 J0.082995
G02 X128.543230 Y53.674460 Z-0.700000 I534.864711 J11.067259
G01 X128.543230 Y64.899070 Z-0.700000
G01 X140.558860 Y86.065080 Z-0.700000
G01 X152.574480 Y107.229140 Z-0.700000
G01 X161.818630 Y112.936180 Z-0.700000
G02 X171.070425 Y118.629099 Z-0.700000 I1967.872333 J-3187.705540
G02 X171.959260 Y119.156880 Z-0.700000 I18.863860 J-30.756250
G01 X172.855740 Y119.672500 Z-0.700000
G00 Z5.000000

(Change tool to Cylindrical cutter)

G00 Z5.000000
G00 X80.859641 Y119.225240

G01 Z-0.700000 F100.0(Penetrate)
G02 X81.230327 Y119.109085 Z-0.700000 I-0.068667 J-0.868699 F400.000000
G02 X91.090110 Y113.252580 Z-0.700000 I-383.412064 J-656.725637
G01 X100.922140 Y107.311180 Z-0.700000
G01 X112.418230 Y86.070940 Z-0.700000
G01 X123.912370 Y64.828750 Z-0.700000
G01 X123.851870 Y53.608050 Z-0.700000
G01 X123.793270 Y42.385390 Z-0.700000
G01 X102.054990 Y80.313130 Z-0.700000
G02 X80.479131 Y118.271804 Z-0.700000 I5330.771490 J3055.142613
G02 X80.388937 Y118.748680 Z-0.700000 I0.659325 J0.371670
G02 X80.572043 Y119.118399 Z-0.700000 I0.648432 J-0.090938
G02 X80.859641 Y119.225240 Z-0.700000 I0.258835 J-0.256239
G01 X80.859641 Y119.225240 Z-0.700000
G00 Z5.000000

(Change tool to Cylindrical cutter)

G00 Z5.000000
G00 X175.127230 Y115.242820

G01 Z-0.700000 F100.0(Penetrate)
G02 X176.198525 Y113.793378 Z-0.700000 I-1.317481 J-2.094384 F400.000000
G02 X178.502230 Y102.746720 Z-0.700000 I-93.799171 J-25.324717
G02 X179.127051 Y95.257934 Z-0.700000 I-57.887066 J-8.600217
G02 X178.746370 Y89.834610 Z-0.700000 I-30.553635 J-0.580365
G02 X178.465562 Y88.843469 Z-0.700000 I-4.359498 J0.699773
G02 X178.291290 Y88.736960 Z-0.700000 I-0.160298 J0.066455
G02 X178.020325 Y88.784542 Z-0.700000 I0.120098 J1.479250
G02 X170.252230 Y90.934220 Z-0.700000 I318.999908 J1167.850935
G02 X162.647110 Y93.205908 Z-0.700000 I63.141947 J225.251576
G02 X162.545190 Y93.379530 Z-0.700000 I0.045511 J0.143441
G02 X162.756056 Y93.943185 Z-0.700000 I1.893440 J-0.387074
G02 X168.820700 Y104.578183 Z-0.700000 I1352.686290 J-764.327364
G02 X174.996756 Y115.210956 Z-0.700000 I1325.367271 J-762.730759
G02 X175.127230 Y115.242820 Z-0.700000 I0.080679 J-0.047297
G01 X175.127230 Y115.242820 Z-0.700000
G00 Z5.000000

(Change tool to Cylindrical cutter)

G00 Z5.000000
G00 X77.525656 Y114.711570

G01 Z-0.700000 F100.0(Penetrate)
G02 X77.643686 Y114.697603 Z-0.700000 I0.053682 J-0.052053 F400.000000
G02 X83.936049 Y103.970965 Z-0.700000 I-1372.049393 J-812.068112
G02 X90.118129 Y93.243815 Z-0.700000 I-1406.861947 J-817.922567
G02 X90.369407 Y92.619770 Z-0.700000 I-2.150908 J-1.228697
G02 X90.288860 Y92.478938 Z-0.700000 I-0.113459 J-0.028558
G02 X82.547141 Y90.326800 Z-0.700000 I-80.695938 J275.280827
G02 X74.664859 Y88.271765 Z-0.700000 I-493.337528 J1876.098389
G02 X74.511985 Y88.248680 Z-0.700000 I-0.188028 J0.727453
G02 X73.486997 Y89.224705 Z-0.700000 I-0.041082 J0.983074
G02 X74.408470 Y102.629530 Z-0.700000 I88.716709 J0.635527
G02 X76.453884 Y112.801052 Z-0.700000 I95.083289 J-13.829086
G02 X77.525656 Y114.711570 Z-0.700000 I4.144565 J-1.069157
G01 X77.525656 Y114.711570 Z-0.700000
G00 Z5.000000

(Change tool to Cylindrical cutter)

G00 Z5.000000
G00 X126.713150 Y104.988910

G01 Z-0.700000 F100.0(Penetrate)
G02 X143.668686 Y104.838044 Z-0.700000 I-0.000000 J-952.873455 F400.000000
G02 X143.771750 Y104.686180 Z-0.700000 I-0.001998 J-0.112260
G02 X143.635651 Y104.394823 Z-0.700000 I-1.972042 J0.743719
G02 X135.027610 Y89.178360 Z-0.700000 I-5225.879495 J2946.267064
G02 X126.389167 Y73.979611 Z-0.700000 I-13695.011819 J7773.716448
G02 X126.330340 Y73.895160 Z-0.700000 I-0.491949 J0.279968
G01 X126.272456 Y73.896618 Z-0.700000
G02 X125.974870 Y74.365860 Z-0.700000 I2.640485 J2.003540
G03 X125.683331 Y74.914667 Z-0.700000 I-39.125115 J-20.432306
G03 X117.615500 Y89.834610 Z-0.700000 I-21021.481008 J-11357.545683
G02 X109.569315 Y104.758324 Z-0.700000 I4705.782183 J2546.773578
G02 X109.541280 Y104.869770 Z-0.700000 I0.207491 J0.111446
G02 X109.600347 Y104.929250 Z-0.700000 I0.059482 J0.000000
G02 X126.713150 Y104.988910 Z-0.700000 I17.112803 J-2454.297197
G01 X126.713150 Y104.988910 Z-0.700000
G00 Z5.000000

(Change tool to Cylindrical cutter)

G00 Z5.000000
G00 X159.316680 Y86.875630

G01 Z-0.700000 F100.0(Penetrate)
G02 X159.528480 Y86.932876 Z-0.700000 I0.154720 J-0.152006 F400.000000
G02 X168.183309 Y84.512700 Z-0.700000 I-185.646458 J-680.578713
G02 X176.781501 Y81.990591 Z-0.700000 I-196.233952 J-684.904006
G02 X177.156520 Y81.764300 Z-0.700000 I-0.253195 J-0.843497
G02 X177.390159 Y80.698653 Z-0.700000 I-0.731671 J-0.718852
G02 X173.388940 Y71.277970 Z-0.700000 I-84.925850 J30.510257
G02 X169.658065 Y64.861108 Z-0.700000 I-48.793599 J24.076417
G02 X165.275660 Y59.289690 Z-0.700000 I-41.030092 J27.764458
G02 X163.696599 Y57.636372 Z-0.700000 I-34.782853 J31.639888
G02 X163.566680 Y57.582660 Z-0.700000 I-0.129919 J0.130269
G02 X163.435840 Y57.636820 Z-0.700000 I0.000000 J0.185123
G02 X156.660420 Y64.481100 Z-0.700000 I615.785128 J616.365459
G01 X149.904560 Y71.379530 Z-0.700000
G01 X154.506120 Y79.020160 Z-0.700000
G02 X159.134086 Y86.641825 Z-0.700000 I1011.575358 J-609.024709
G02 X159.316680 Y86.875630 Z-0.700000 I1.116426 J-0.683690
G01 X159.316680 Y86.875630 Z-0.700000
G00 Z5.000000

(Change tool to Cylindrical cutter)

G00 Z5.000000
G00 X93.793235 Y86.668600

G01 Z-0.700000 F100.0(Penetrate)
G02 X98.289223 Y80.599481 Z-0.700000 I-23.696679 J-22.254309 F400.000000
G02 X102.957290 Y70.705710 Z-0.700000 I-59.136812 J-33.949983
G02 X102.908846 Y70.466926 Z-0.700000 I-0.214369 J-0.080815
G02 X96.357684 Y63.774070 Z-0.700000 I-244.697819 J232.964679
G01 X89.656516 Y57.115860 Z-0.700000
G01 X87.906516 Y59.010390 Z-0.700000
G02 X82.112819 Y66.629031 Z-0.700000 I36.706961 J33.926566
