%
(Header)
(Generated by gcodetools from Inkscape.)
(Using default header. To add your own header create file "header" in the output dir.)
M3
(Header end.)
G21 (All units in mm)

(Start cutting path id: path33734)
(Change tool to Cylindrical cutter)

G00 Z5.000000
G00 X143.502780 Y60.924330

G01 Z-0.300000 F100.0(Penetrate)
G02 X143.011073 Y61.324776 Z-0.300000 I0.331075 J0.908633 F400.000000
G02 X143.083470 Y61.603220 Z-0.300000 I0.169354 J0.104601
G02 X143.600139 Y61.692113 Z-0.300000 I0.384630 J-0.689617
G02 X143.975550 Y61.451930 Z-0.300000 I-0.095425 J-0.562631
G03 X145.819236 Y60.488927 Z-0.300000 I1.826802 J1.251060
G03 X146.796260 Y61.473430 Z-0.300000 I-0.007508 J0.984503
G03 X146.610157 Y61.750879 Z-0.300000 I-0.299866 J-0.000000
G03 X145.900400 Y61.840750 Z-0.300000 I-0.521664 J-1.272252
G02 X145.030863 Y61.878169 Z-0.300000 I-0.332156 J2.403226
G02 X143.790960 Y62.319780 Z-0.300000 I1.229897 J5.414590
G03 X142.978767 Y62.573537 Z-0.300000 I-1.201745 J-2.419730
G03 X142.901370 Y62.449400 Z-0.300000 I-0.011514 J-0.079018
G02 X142.878905 Y62.120911 Z-0.300000 I-0.219076 J-0.150030
G02 X142.323240 Y61.812530 Z-0.300000 I-0.732283 J0.664674
G02 X140.110669 Y62.385704 Z-0.300000 I-0.486422 J2.679388
G02 X139.910040 Y63.790280 Z-0.300000 I0.665171 J0.811629
G03 X139.898581 Y63.993258 Z-0.300000 I-0.137351 J0.094059
G03 X139.704910 Y64.027380 Z-0.300000 I-0.117797 J-0.101916
G02 X139.215446 Y64.002908 Z-0.300000 I-0.269503 J0.483216
G02 X138.803160 Y64.417980 Z-0.300000 I0.313581 J0.723772
G03 X138.395978 Y64.988918 Z-0.300000 I-1.495627 J-0.635986
G03 X138.002340 Y65.140200 Z-0.300000 I-0.393638 J-0.436486
G02 X136.668981 Y65.752550 Z-0.300000 I-0.000000 J1.757833
G02 X136.455200 Y66.941060 Z-0.300000 I0.903212 J0.775946
G03 X136.388415 Y67.225945 Z-0.300000 I-0.248862 J0.091930
G03 X136.118270 Y67.259430 Z-0.300000 I-0.157888 J-0.167320
G02 X135.894876 Y67.328615 Z-0.300000 I-0.078707 J0.141113
G02 X135.882890 Y67.732890 Z-0.300000 I0.432777 J0.215146
G03 X135.831046 Y68.092809 Z-0.300000 I-0.322682 J0.137213
G03 X135.541980 Y68.147480 Z-0.300000 I-0.177272 J-0.145768
G02 X135.248193 Y68.119835 Z-0.300000 I-0.178272 J0.319644
G02 X135.200690 Y68.261000 Z-0.300000 I0.029429 J0.088478
G03 X135.329127 Y69.662396 Z-0.300000 I-1.191163 J0.815753
G03 X134.448250 Y69.956430 Z-0.300000 I-0.574640 J-0.255027
G03 X134.225507 Y69.634359 Z-0.300000 I0.216166 J-0.387559
G03 X134.328000 Y69.150610 Z-0.300000 I0.699937 J-0.104436
G02 X134.345697 Y68.975803 Z-0.300000 I-0.165451 J-0.105049
G02 X134.251900 Y68.950800 Z-0.300000 I-0.055907 J0.021294
G02 X133.958797 Y69.367486 Z-0.300000 I0.600386 J0.733750
G02 X133.679730 Y70.563130 Z-0.300000 I5.190230 J1.841807
G02 X133.796294 Y71.131729 Z-0.300000 I0.916742 J0.108313
G02 X134.012340 Y71.141360 Z-0.300000 I0.111086 J-0.063900
G03 X134.328922 Y70.978284 Z-0.300000 I0.313390 J0.219557
G03 X134.494610 Y71.145360 Z-0.300000 I-0.001394 J0.167076
G03 X134.380645 Y71.801732 Z-0.300000 I-1.947139 J0.000000
G03 X133.998370 Y72.531300 Z-0.300000 I-2.802133 J-1.003310
G03 X133.645895 Y72.765914 Z-0.300000 I-0.485966 J-0.348017
G03 X133.494290 Y72.646790 Z-0.300000 I-0.027679 J-0.120807
G02 X133.333030 Y72.224940 Z-0.300000 I-0.653947 J0.008236
G02 X132.990590 Y72.069310 Z-0.300000 I-0.342440 J0.298929
G02 X132.766798 Y72.249256 Z-0.300000 I0.000000 J0.229134
G02 X132.821630 Y72.838070 Z-0.300000 I0.949012 J0.208585
G03 X132.816123 Y73.236931 Z-0.300000 I-0.454350 J0.193195
G03 X132.607610 Y73.305150 Z-0.300000 I-0.135770 J-0.062211
G02 X132.106509 Y73.252219 Z-0.300000 I-0.312533 J0.560330
G02 X131.467520 Y73.654990 Z-0.300000 I0.425197 J1.382824
G02 X131.503653 Y73.934902 Z-0.300000 I0.135675 J0.124774
G02 X132.049410 Y74.028350 Z-0.300000 I0.383117 J-0.597096
G03 X132.399401 Y74.186080 Z-0.300000 I0.072265 J0.306816
G03 X132.334630 Y74.559670 Z-0.300000 I-0.270930 J0.145438
G02 X131.607902 Y75.449622 Z-0.300000 I2.556949 J2.829684
G02 X131.398360 Y76.144650 Z-0.300000 I1.310712 J0.774263
G03 X131.261440 Y76.406468 Z-0.300000 I-0.354071 J-0.018454
G03 X131.109330 Y76.368590 Z-0.300000 I-0.061125 J-0.078893
G02 X130.748037 Y76.058588 Z-0.300000 I-0.511475 J0.230563
G02 X129.997920 Y76.059820 Z-0.300000 I-0.372855 J1.342052
G03 X129.863335 Y75.945129 Z-0.300000 I-0.028832 J-0.102477
G03 X130.048120 Y75.625160 Z-0.300000 I0.461766 J0.053331
G02 X130.072531 Y75.263930 Z-0.300000 I-0.141731 J-0.191018
G02 X129.425530 Y75.017460 Z-0.300000 I-0.607563 J0.622448
G02 X127.964944 Y75.268670 Z-0.300000 I0.269246 J5.937119
G02 X127.232780 Y75.684520 Z-0.300000 I0.558508 J1.835801
G02 X127.213024 Y75.904685 Z-0.300000 I0.109818 J0.120823
G02 X127.458280 Y75.978650 Z-0.300000 I0.174017 J-0.133415
G03 X129.195596 Y76.324638 Z-0.300000 I0.571686 J1.664182
G03 X129.352510 Y77.653650 Z-0.300000 I-0.665243 J0.752313
G03 X129.016255 Y77.689325 Z-0.300000 I-0.183690 J-0.128849
G03 X128.686010 Y77.035600 Z-0.300000 I0.715752 J-0.771857
G02 X128.407737 Y76.708959 Z-0.300000 I-0.381503 J0.043158
G02 X126.923260 Y76.543550 Z-0.300000 I-1.250671 J4.480261
G03 X125.895095 Y76.314874 Z-0.300000 I-0.099613 J-1.977865
G03 X125.835360 Y75.966070 Z-0.300000 I0.104826 J-0.197469
G02 X126.030906 Y75.484938 Z-0.300000 I-0.546192 J-0.502293
G02 X125.854260 Y75.303180 Z-0.300000 I-0.176646 J-0.005039
G02 X125.370076 Y75.464171 Z-0.300000 I-0.000000 J0.808592
G02 X124.988290 Y75.950620 Z-0.300000 I0.711181 J0.951210
G03 X123.863103 Y76.816973 Z-0.300000 I-1.332326 J-0.566524
G03 X121.951130 Y76.389690 Z-0.300000 I-0.394255 J-2.727235
G03 X121.565530 Y75.712723 Z-0.300000 I0.473990 J-0.718286
G03 X121.882030 Y74.952180 Z-0.300000 I0.961030 J-0.046195
G03 X122.721880 Y74.589741 Z-0.300000 I0.954857 J1.058333
G03 X123.253040 Y74.841200 Z-0.300000 I0.047471 J0.586444
G03 X123.328806 Y75.370435 Z-0.300000 I-0.491534 J0.340409
G03 X122.972290 Y75.684630 Z-0.300000 I-0.448174 J-0.149175
G02 X122.530311 Y75.965137 Z-0.300000 I0.140234 J0.709413
G02 X122.524680 Y76.292190 Z-0.300000 I0.227357 J0.167490
G02 X122.883671 Y76.429594 Z-0.300000 I0.278892 J-0.190989
G02 X123.769090 Y75.988660 Z-0.300000 I-0.530374 J-2.174471
G02 X124.163368 Y75.207610 Z-0.300000 I-0.680955 J-0.833791
G02 X123.846290 Y74.414910 Z-0.300000 I-1.023865 J-0.050221
G02 X122.962444 Y73.790430 Z-0.300000 I-2.570663 J2.700633
G02 X122.608140 Y73.786800 Z-0.300000 I-0.180823 J0.356445
G03 X122.347455 Y73.775659 Z-0.300000 I-0.119940 J-0.248982
G03 X122.224210 Y73.559520 Z-0.300000 I0.127903 J-0.216139
G02 X122.066162 Y73.305314 Z-0.300000 I-0.283458 J0.000000
G02 X121.388590 Y73.147270 Z-0.300000 I-0.677572 J1.373435
G02 X121.203478 Y73.342556 Z-0.300000 I0.000000 J0.185377
G02 X121.419190 Y73.718890 Z-0.300000 I0.481061 J-0.025752
G03 X121.839564 Y74.273897 Z-0.300000 I-0.576168 J0.873105
G03 X121.704990 Y74.614260 Z-0.300000 I-0.275384 J0.087903
G03 X119.729675 Y74.469115 Z-0.300000 I-0.877399 J-1.573107
G03 X118.640740 Y72.258270 Z-0.300000 I1.699851 J-2.210845
G03 X118.801480 Y71.796864 Z-0.300000 I0.742605 J0.000000
G03 X119.280640 Y71.451320 Z-0.300000 I0.850580 J0.674490
G02 X119.404821 Y71.293471 Z-0.300000 I-0.065210 J-0.179072
G02 X119.310840 Y71.181830 Z-0.300000 I-0.099990 J-0.011205
G02 X118.768923 Y71.283768 Z-0.300000 I-0.067540 J1.132370
G02 X118.383860 Y71.608680 Z-0.300000 I0.395758 J0.859656
G03 X118.020918 Y71.709376 Z-0.300000 I-0.241286 J-0.165244
G03 X116.616470 Y70.800220 Z-0.300000 I2.400661 J-5.247860
G03 X115.771183 Y69.505651 Z-0.300000 I1.894876 J-2.160506
G03 X115.959070 Y68.719960 Z-0.300000 I0.748102 J-0.236413
G02 X115.848997 Y68.318699 Z-0.300000 I-0.171925 J-0.168566
G02 X115.090060 Y68.488970 Z-0.300000 I-0.216138 J0.813139
G03 X114.786744 Y68.466442 Z-0.300000 I-0.140165 J-0.166009
G03 X114.683780 Y68.026990 Z-0.300000 I0.359288 J-0.315970
G02 X114.409372 Y67.406062 Z-0.300000 I-0.523359 J-0.139809
G02 X113.668540 Y67.501660 Z-0.300000 I-0.301416 J0.582511
G03 X112.633571 Y67.558533 Z-0.300000 I-0.552702 J-0.612439
G03 X112.447980 Y66.622180 Z-0.300000 I0.409006 J-0.567637
G02 X112.438180 Y65.051664 Z-0.300000 I-1.253734 J-0.777465
G02 X110.913750 Y64.215660 Z-0.300000 I-1.524430 J0.971876
G02 X110.267334 Y64.421062 Z-0.300000 I0.000000 J1.119864
G02 X110.215660 Y64.709130 Z-0.300000 I0.120352 J0.170258
G02 X110.625335 Y64.985092 Z-0.300000 I0.552774 J-0.378543
G02 X111.296290 Y64.945410 Z-0.300000 I0.264974 J-1.211935
G03 X111.701035 Y64.946132 Z-0.300000 I0.201337 J0.581421
G03 X111.753240 Y65.105450 Z-0.300000 I-0.034906 J0.099650
G02 X111.672449 Y65.469881 Z-0.300000 I0.412725 J0.282668
G02 X111.854610 Y65.717410 Z-0.300000 I0.334580 J-0.055432
G01 X111.843711 Y65.760529 Z-0.300000
G03 X111.473860 Y65.706310 Z-0.300000 I0.046808 J-1.607858
G02 X110.699079 Y65.540343 Z-0.300000 I-2.018344 J7.530766
G02 X109.682150 Y65.416830 Z-0.300000 I-2.078217 J12.862616
G03 X108.946508 Y65.124801 Z-0.300000 I0.110625 J-1.351251
G03 X108.807230 Y64.717700 Z-0.300000 I0.249995 J-0.312905
G02 X108.673753 Y64.413160 Z-0.300000 I-0.266848 J-0.064563
G02 X108.182150 Y64.370310 Z-0.300000 I-0.293737 J0.528525
G03 X107.456253 Y64.401537 Z-0.300000 I-0.415201 J-1.199044
G03 X106.694930 Y63.994700 Z-0.300000 I0.438498 J-1.736329
G02 X105.981712 Y63.682252 Z-0.300000 I-0.826042 J0.915340
G02 X105.400320 Y63.875740 Z-0.300000 I-0.069865 J0.760297
G03 X104.965759 Y64.070239 Z-0.300000 I-0.517367 J-0.573222
G03 X104.818980 Y63.938440 Z-0.300000 I-0.014216 J-0.131799
G03 X104.929213 Y63.525465 Z-0.300000 I0.828697 J0.000000
G03 X105.370780 Y62.978490 Z-0.300000 I1.943006 J1.116843
G02 X105.327551 Y62.746513 Z-0.300000 I-0.092719 J-0.102739
G02 X104.474920 Y62.635430 Z-0.300000 I-0.657115 J1.715994
G02 X99.802713 Y63.421298 Z-0.300000 I4.201491 J39.260769
G02 X99.827784 Y63.707240 Z-0.300000 I0.032569 J0.141214
G03 X100.608092 Y64.219069 Z-0.300000 I-0.047878 J0.923717
G03 X100.339700 Y64.736560 Z-0.300000 I-0.323181 J0.160730
G03 X97.906572 Y64.852763 Z-0.300000 I-1.769710 J-11.523969
G03 X97.652124 Y64.583400 Z-0.300000 I0.015352 J-0.269363
G03 X97.830142 Y64.387481 Z-0.300000 I0.196819 J0.000000
G03 X98.803942 Y64.472870 Z-0.300000 I0.256376 J2.671640
G02 X99.548399 Y64.561116 Z-0.300000 I0.659115 J-2.376096
G02 X99.592382 Y64.445570 Z-0.300000 I-0.002321 J-0.067028
G02 X97.474270 Y63.595457 Z-0.300000 I-2.121963 J2.223244
G02 X95.100841 Y64.439570 Z-0.300000 I-0.004693 J3.745597
G03 X94.178519 Y64.932173 Z-0.300000 I-1.712871 J-2.097330
G03 X92.019248 Y65.380190 Z-0.300000 I-3.516328 J-11.519920
G02 X89.055380 Y66.340902 Z-0.300000 I0.881020 J7.770247
G02 X89.053267 Y67.054880 Z-0.300000 I0.201907 J0.357590
G02 X90.157802 Y67.309867 Z-0.300000 I0.974797 J-1.702787
G02 X90.485270 Y66.959980 Z-0.300000 I-0.023186 J-0.349887
G02 X90.322660 Y66.747631 Z-0.300000 I-0.219957 J0.000000
G02 X89.894256 Y66.800380 Z-0.300000 I-0.149354 J0.553039
G03 X89.681523 Y66.784930 Z-0.300000 I-0.094608 J-0.169624
G03 X89.654693 Y66.616830 Z-0.300000 I0.075239 J-0.098200
G03 X90.079873 Y66.327268 Z-0.300000 I0.583174 J0.399366
G03 X90.757627 Y66.363880 Z-0.300000 I0.275072 J1.199443
G02 X91.322107 Y66.361480 Z-0.300000 I0.278822 J-0.805145
G02 X91.509106 Y66.096450 Z-0.300000 I-0.094311 J-0.265030
G03 X91.707754 Y65.885315 Z-0.300000 I0.211528 J0.000000
G03 X92.479187 Y66.037250 Z-0.300000 I0.094757 J1.553282
G02 X93.387967 Y66.184680 Z-0.300000 I0.702220 J-1.453940
G02 X94.068702 Y65.832220 Z-0.300000 I-0.143203 J-1.110190
G03 X94.747429 Y65.469304 Z-0.300000 I0.858570 J0.789564
G03 X95.590906 Y65.594690 Z-0.300000 I0.220760 J1.414682
G02 X96.467844 Y65.850224 Z-0.300000 I1.199272 J-2.483143
G02 X96.816943 Y65.738970 Z-0.300000 I0.051859 J-0.440612
G03 X97.049621 Y65.651208 Z-0.300000 I0.228309 J0.252978
G03 X97.140214 Y65.742970 Z-0.300000 I-0.001177 J0.091762
G03 X96.575993 Y66.664509 Z-0.300000 I-1.034682 J0.000000
G03 X93.690119 Y67.504330 Z-0.300000 I-3.640127 J-7.130281
G02 X93.466208 Y67.651398 Z-0.300000 I0.026880 J0.284911
G02 X93.433832 Y67.970570 Z-0.300000 I0.359727 J0.197718
G03 X93.320535 Y68.088168 Z-0.300000 I-0.089040 J0.027593
G03 X92.343835 Y67.676810 Z-0.300000 I1.021707 J-3.791055
G02 X91.263350 Y67.387520 Z-0.300000 I-1.058047 J1.789328
G02 X90.806269 Y67.693410 Z-0.300000 I0.005425 J0.502551
G02 X90.927736 Y68.047767 Z-0.300000 I0.257810 J0.109624
G02 X91.576434 Y68.122480 Z-0.300000 I0.414302 J-0.743664
G03 X92.235730 Y68.118484 Z-0.300000 I0.336787 J1.175761
G03 X92.310878 Y68.323250 Z-0.300000 I-0.035299 J0.129127
G03 X91.869017 Y68.662320 Z-0.300000 I-0.739811 J-0.506646
G03 X90.838996 Y68.841800 Z-0.300000 I-1.049946 J-2.980217
G02 X88.881445 Y69.449426 Z-0.300000 I0.022675 J3.530125
G02 X88.710046 Y70.284520 Z-0.300000 I0.342466 J0.505426
G03 X88.776317 Y70.535112 Z-0.300000 I-0.355489 J0.228070
G03 X88.694736 Y70.571160 Z-0.300000 I-0.049933 J-0.002666
G02 X88.271300 Y70.441079 Z-0.300000 I-0.371171 J0.454009
G02 X87.699639 Y70.660160 Z-0.300000 I0.099856 J1.115934
G03 X87.108909 Y70.857602 Z-0.300000 I-0.592994 J-0.791761
G03 X86.372743 Y70.663160 Z-0.300000 I-0.003382 J-1.477993
G03 X86.263218 Y70.401980 Z-0.300000 I0.115224 J-0.201874
G03 X86.487679 Y70.227600 Z-0.300000 I0.226374 J0.059735
G02 X87.275817 Y70.074922 Z-0.300000 I-0.018536 J-2.206240
G02 X87.665444 Y69.764770 Z-0.300000 I-0.310058 J-0.789319
G02 X87.589181 Y69.601996 Z-0.300000 I-0.086054 J-0.058934
G02 X86.844378 Y69.687370 Z-0.300000 I-0.170284 J1.805966
G02 X85.969851 Y70.277717 Z-0.300000 I0.622728 J1.865423
G02 X85.571043 Y71.182570 Z-0.300000 I1.315057 J1.119915
G02 X85.598792 Y71.712034 Z-0.300000 I1.492314 J0.187247
G02 X85.697103 Y71.722020 Z-0.300000 I0.050870 J-0.011886
G03 X86.050230 Y71.280316 Z-0.300000 I1.069567 J0.493073
G03 X86.450585 Y71.144540 Z-0.300000 I0.400355 J0.522364
G03 X86.618272 Y71.326570 Z-0.300000 I0.000000 J0.168252
G03 X86.372225 Y72.098330 Z-0.300000 I-1.796311 J-0.147586
G03 X85.717410 Y72.699844 Z-0.300000 I-1.326061 J-0.786389
G03 X85.178227 Y72.675810 Z-0.300000 I-0.247332 J-0.511396
G01 X85.148164 Y72.714284 Z-0.300000
G02 X85.781333 Y73.280730 Z-0.300000 I5.270624 J-5.254358
G03 X86.576640 Y74.226124 Z-0.300000 I-1.950889 J2.448394
G03 X86.480777 Y74.558720 Z-0.300000 I-0.215568 J0.117981
G03 X86.000883 Y74.633449 Z-0.300000 I-0.340966 J-0.611353
G03 X85.627200 Y74.385940 Z-0.300000 I0.118369 J-0.584553
G02 X85.237638 Y74.047271 Z-0.300000 I-0.845159 J0.578779
G02 X84.695970 Y73.923500 Z-0.300000 I-0.527865 J1.062978
G02 X84.579764 Y74.058769 Z-0.300000 I0.001384 J0.118738
G02 X84.750410 Y74.310750 Z-0.300000 I0.342454 J-0.048144
G03 X84.931137 Y74.718107 Z-0.300000 I-0.187059 J0.326759
G03 X84.524167 Y75.343140 Z-0.300000 I-1.030179 J-0.225758
G03 X84.049705 Y75.559800 Z-0.300000 I-0.761338 J-1.039407
G03 X83.985077 Y75.466260 Z-0.300000 I-0.013630 J-0.059679
G02 X83.629046 Y74.704688 Z-0.300000 I-0.410094 J-0.272291
G02 X81.411592 Y75.181920 Z-0.300000 I-0.393546 J3.561695
G01 X80.070342 Y75.975000 Z-0.300000
G01 X81.053086 Y74.621460 Z-0.300000
G02 X81.290754 Y73.835174 Z-0.300000 I-1.012465 J-0.735097
G02 X81.013356 Y73.651200 Z-0.300000 I-0.205281 J0.008406
G03 X79.968955 Y73.922996 Z-0.300000 I-1.823162 J-4.863160
G03 X78.113827 Y74.090960 Z-0.300000 I-2.320515 J-15.300895
G02 X76.289980 Y74.279887 Z-0.300000 I0.377954 J12.546551
G02 X75.852853 Y74.493890 Z-0.300000 I0.155032 J0.870117
G03 X74.569751 Y74.969054 Z-0.300000 I-1.237114 J-1.370637
G03 X74.307076 Y74.455390 Z-0.300000 I0.008177 J-0.328176
G02 X74.275617 Y74.225985 Z-0.300000 I-0.142167 J-0.097364
G02 X73.847890 Y74.070400 Z-0.300000 I-0.427727 J0.510151
G02 X73.459457 Y74.246699 Z-0.300000 I0.000000 J0.516058
G02 X73.442467 Y74.533900 Z-0.300000 I0.176698 J0.154556
G03 X73.382001 Y74.709025 Z-0.300000 I-0.095134 J0.065154
G03 X72.908030 Y74.702390 Z-0.300000 I-0.226953 J-0.719917
G02 X72.243571 Y74.670552 Z-0.300000 I-0.386465 J1.115965
G02 X72.056177 Y74.908750 Z-0.300000 I0.057691 J0.238198
G03 X71.861148 Y75.163699 Z-0.300000 I-0.264153 J0.000000
G03 X71.067545 Y75.176800 Z-0.300000 I-0.422643 J-1.558822
G02 X70.142430 Y75.210327 Z-0.300000 I-0.401507 J1.701330
G02 X69.046867 Y75.811190 Z-0.300000 I0.953968 J3.038595
G03 X68.060072 Y76.347225 Z-0.300000 I-1.805517 J-2.147485
G03 X67.701654 Y76.221610 Z-0.300000 I-0.093646 J-0.306944
G03 X67.705512 Y75.931455 Z-0.300000 I0.207848 J-0.142339
G03 X68.033004 Y75.764330 Z-0.300000 I0.327492 J0.237308
G02 X68.219831 Y75.588348 Z-0.300000 I0.000000 J-0.187161
G02 X68.066024 Y75.212500 Z-0.300000 I-0.467729 J-0.027988
G02 X67.461778 Y75.070246 Z-0.300000 I-0.431413 J0.478052
G02 X66.407942 Y75.674480 Z-0.300000 I0.661856 J2.375439
G03 X65.412059 Y75.962050 Z-0.300000 I-0.768569 J-0.793426
G03 X65.187467 Y75.417840 Z-0.300000 I0.073328 J-0.348710
G02 X65.349306 Y75.005744 Z-0.300000 I-0.902603 J-0.592298
G01 X65.264317 Y74.963890 Z-0.300000
G03 X64.439190 Y75.507209 Z-0.300000 I-1.517919 J-1.407020
G03 X63.726838 Y75.510040 Z-0.300000 I-0.360211 J-1.014062
G02 X63.003663 Y75.512337 Z-0.300000 I-0.358304 J1.034705
G02 X61.998060 Y76.121020 Z-0.300000 I0.963990 J2.727625
G03 X60.992768 Y76.904836 Z-0.300000 I-5.013586 J-5.393652
G03 X60.235772 Y77.264510 Z-0.300000 I-1.732834 J-2.670594
G02 X59.760185 Y77.733793 Z-0.300000 I0.227333 J0.706016
G02 X59.657990 Y78.980090 Z-0.300000 I2.462207 J0.829237
G02 X60.306520 Y80.452848 Z-0.300000 I3.165718 J-0.514856
G02 X63.226035 Y83.738180 Z-0.300000 I29.685346 J-23.440047
G02 X66.518607 Y86.658648 Z-0.300000 I25.722791 J-25.683915
G02 X67.769291 Y87.103670 Z-0.300000 I1.289772 J-1.644796
G03 X68.832082 Y87.272496 Z-0.300000 I-0.073027 J3.889374
G03 X69.602433 Y87.663390 Z-0.300000 I-0.731485 J2.396094
G02 X70.385329 Y88.030327 Z-0.300000 I1.275798 J-1.703380
G02 X72.425651 Y88.335540 Z-0.300000 I2.806152 J-11.786583
G01 X74.529343 Y88.468790 Z-0.300000
G01 X75.120638 Y92.164630 Z-0.300000
G02 X77.604257 Y102.934522 Z-0.300000 I80.310959 J-12.849003
G02 X78.427573 Y103.061410 Z-0.300000 I0.442114 J-0.134172
G03 X80.088392 Y102.285299 Z-0.300000 I1.487933 J1.018996
G03 X82.806443 Y103.483130 Z-0.300000 I-0.453871 J4.712641
G02 X83.907711 Y104.205723 Z-0.300000 I2.886081 J-3.198042
G02 X84.836107 Y104.407100 Z-0.300000 I0.928396 J-2.039375
G03 X85.701817 Y104.653086 Z-0.300000 I0.000000 J1.646358
G03 X86.424128 Y105.388820 Z-0.300000 I-1.136183 J1.837888
G03 X89.386344 Y111.717040 Z-0.300000 I-30.875293 J18.310022
G03 X89.191715 Y113.204720 Z-0.300000 I-1.560180 J0.552457
G02 X89.214387 Y113.526562 Z-0.300000 I0.214135 J0.146635
G02 X90.782131 Y114.942710 Z-0.300000 I8.209713 J-7.512687
G03 X91.991028 Y116.151718 Z-0.300000 I-3.510212 J4.718785
G03 X92.079122 Y116.564300 Z-0.300000 I-0.406805 J0.302556
G03 X91.827877 Y116.755541 Z-0.300000 I-0.238821 J-0.053094
G03 X90.457043 Y116.404970 Z-0.300000 I0.181228 J-3.564115
G02 X90.011539 Y116.462913 Z-0.300000 I-0.178461 J0.369509
G02 X89.949323 Y116.840140 Z-0.300000 I0.193397 J0.225642
G02 X90.665119 Y117.587024 Z-0.300000 I1.961041 J-1.162972
G02 X91.889103 Y118.104900 Z-0.300000 I2.055270 J-3.152207
G03 X92.373168 Y118.468084 Z-0.300000 I-0.163572 J0.722196
G03 X92.258268 Y118.770850 Z-0.300000 I-0.185455 J0.102805
G02 X92.164346 Y118.982483 Z-0.300000 I0.052986 J0.150173
G02 X92.420234 Y119.157990 Z-0.300000 I0.263838 J-0.110380
G01 X93.587375 Y119.190490 Z-0.300000
G01 X92.466802 Y120.558290 Z-0.300000
G03 X91.296258 Y121.663139 Z-0.300000 I-4.881097 J-3.998835
G03 X90.915722 Y121.685970 Z-0.300000 I-0.208129 J-0.286271
G02 X90.665183 Y121.752300 Z-0.300000 I-0.090903 J0.162973
G02 X90.485214 Y122.397080 Z-0.300000 I1.065054 J0.644780
G03 X90.047337 Y123.080770 Z-0.300000 I-0.752686 J0.000000
G03 X89.171858 Y123.001820 Z-0.300000 I-0.369027 J-0.801437
G01 X89.146610 Y123.031474 Z-0.300000
G02 X90.093310 Y123.949200 Z-0.300000 I16.070537 J-15.630743
G03 X91.279241 Y125.344363 Z-0.300000 I-4.921160 J5.384757
G03 X91.509051 Y126.116340 Z-0.300000 I-1.181708 J0.771977
G02 X91.673027 Y126.893314 Z-0.300000 I1.922773 J0.000000
G02 X92.020969 Y127.275140 Z-0.300000 I0.744303 J-0.328806
G02 X92.330893 Y127.216712 Z-0.300000 I0.119930 J-0.215035
G02 X92.532887 Y126.654080 Z-0.300000 I-0.682578 J-0.562632
G03 X92.902743 Y126.265153 Z-0.300000 I0.389419 J0.000000
G03 X94.840489 Y126.538000 Z-0.300000 I0.260068 J5.170317
G03 X97.344222 Y127.551011 Z-0.300000 I-8.044203 J23.482445
G03 X97.815897 Y127.928305 Z-0.300000 I-0.549365 J1.170269
G03 X97.738037 Y128.205427 Z-0.300000 I-0.141358 J0.109783
G03 X96.346688 Y128.477380 Z-0.300000 I-1.489500 J-3.925347
G02 X95.807582 Y128.687655 Z-0.300000 I0.019844 J0.847097
G02 X95.860362 Y128.904260 Z-0.300000 I0.082960 J0.094518
G03 X98.747756 Y129.697017 Z-0.300000 I-14.014238 J56.697532
G03 X103.699700 Y131.274320 Z-0.300000 I-50.917380 J168.417148
G03 X103.931813 Y131.896137 Z-0.300000 I-0.135567 J0.404835
G03 X101.401520 Y135.168640 Z-0.300000 I-14.281858 J-8.428244
G01 X97.918941 Y138.666340 Z-0.300000
G01 X95.289853 Y138.514500 Z-0.300000
G02 X92.751949 Y138.607801 Z-0.300000 I-0.776461 J13.442976
G02 X92.064727 Y138.940130 Z-0.300000 I0.159087 J1.205693
G02 X91.995386 Y139.304308 Z-0.300000 I0.224168 J0.231373
G02 X92.326020 Y139.517610 Z-0.300000 I0.330634 J-0.149602
G03 X93.104497 Y139.713346 Z-0.300000 I0.000000 J1.645940
G03 X94.265905 Y140.558950 Z-0.300000 I-2.493578 J4.645223
G02 X95.396911 Y141.539334 Z-0.300000 I10.015516 J-10.411684
G02 X96.883258 Y142.600210 Z-0.300000 I13.227673 J-16.961043
G03 X98.169912 Y143.613712 Z-0.300000 I-4.985780 J7.652979
G03 X98.163061 Y143.809270 Z-0.300000 I-0.089524 J0.094763
G03 X97.874232 Y143.897296 Z-0.300000 I-0.251185 J-0.306323
G03 X93.044805 Y143.320680 Z-0.300000 I9.766732 J-102.313648
G02 X88.167781 Y142.805614 Z-0.300000 I-9.343928 J65.128016
G02 X82.038567 Y142.571720 Z-0.300000 I-6.987628 J102.686219
G03 X75.945925 Y142.336564 Z-0.300000 I0.841781 J-100.854277
G03 X75.168657 Y142.098210 Z-0.300000 I0.123255 J-1.788435
G02 X74.854347 Y142.143245 Z-0.300000 I-0.128651 J0.221458
G02 X74.790524 Y142.496140 Z-0.300000 I0.236834 J0.225051
G03 X74.717376 Y142.922444 Z-0.300000 I-0.367670 J0.156341
G03 X74.303904 Y143.027030 Z-0.300000 I-0.286356 J-0.262479
G02 X73.851403 Y143.140781 Z-0.300000 I-0.139375 J0.402468
G02 X73.732071 Y143.647220 Z-0.300000 I0.389382 J0.359029
G03 X73.537223 Y143.965359 Z-0.300000 I-0.242439 J0.070253
G03 X72.769931 Y143.831940 Z-0.300000 I-0.207402 J-1.080286
G02 X72.343291 Y144.084302 Z-0.300000 I-0.143954 J0.243450
G02 X72.808271 Y145.048000 Z-0.300000 I1.317219 J-0.041528
G03 X73.802788 Y146.155847 Z-0.300000 I-3.549466 J4.186677
G03 X73.801894 Y146.514460 Z-0.300000 I-0.263667 J0.178651
G02 X73.838842 Y146.746823 Z-0.300000 I0.140977 J0.096702
G02 X74.316489 Y146.908880 Z-0.300000 I0.477647 J-0.622880
G03 X74.961739 Y147.149930 Z-0.300000 I-0.000000 J0.984138
G03 X75.878817 Y148.265520 Z-0.300000 I-2.836235 J3.266285
G02 X77.207677 Y149.779737 Z-0.300000 I4.400264 J-2.521417
G02 X77.534416 Y149.525550 Z-0.300000 I0.129683 J-0.170395
G03 X77.829203 Y149.230726 Z-0.300000 I0.206855 J-0.087958
G03 X80.666187 Y150.856770 Z-0.300000 I-5.409091 J12.725210
G02 X83.512211 Y152.926690 Z-0.300000 I103.316141 J-139.062403
G02 X84.073176 Y153.282167 Z-0.300000 I3.578809 J-5.027223
G03 X89.329012 Y157.554372 Z-0.300000 I-9.701529 J17.304278
G03 X90.485267 Y160.641574 Z-0.300000 I-3.543290 J3.087202
G02 X90.606025 Y161.060409 Z-0.300000 I0.786718 J-0.000000
G02 X91.533435 Y162.308196 Z-0.300000 I8.471882 J-5.328133
G03 X92.288420 Y163.652866 Z-0.300000 I-2.850965 J2.485001
G03 X93.561938 Y168.722714 Z-0.300000 I-41.433115 J13.102643
G02 X94.569973 Y173.929030 Z-0.300000 I488.537265 J-91.888733
G02 X95.105977 Y176.475597 Z-0.300000 I117.426809 J-23.386417
G03 X96.440745 Y185.103873 Z-0.300000 I-65.776008 J14.592731
G03 X95.938746 Y185.845633 Z-0.300000 I-0.706267 J0.062769
G02 X95.218796 Y186.909843 Z-0.300000 I0.292921 J0.973797
G02 X96.865014 Y196.222481 Z-0.300000 I54.872764 J-4.898173
G02 X98.408579 Y201.295002 Z-0.300000 I74.270402 J-19.829327
G02 X98.736110 Y201.687061 Z-0.300000 I0.675121 J-0.231163
G03 X99.122468 Y202.055412 Z-0.300000 I-0.519869 J0.932081
G03 X102.258250 Y207.349080 Z-0.300000 I-120.397534 J74.894842
G02 X105.555081 Y212.529381 Z-0.300000 I49.852655 J-28.087839
G02 X107.431760 Y214.588958 Z-0.300000 I9.586467 J-6.850356
G02 X109.108362 Y215.782399 Z-0.300000 I7.121363 J-8.230017
G02 X109.265410 Y215.648419 Z-0.300000 I0.054784 J-0.094817
G03 X109.423373 Y215.331222 Z-0.300000 I0.224678 J-0.086042
G03 X110.214690 Y215.374442 Z-0.300000 I0.333691 J1.156170
G03 X110.938402 Y216.006086 Z-0.300000 I-0.567888 J1.381084
G03 X110.881770 Y216.524103 Z-0.300000 I-0.380100 J0.220550
G02 X110.950707 Y216.732452 Z-0.300000 I0.092426 J0.084998
G02 X111.696610 Y216.679273 Z-0.300000 I0.272737 J-1.432235
G03 X113.079000 Y216.384755 Z-0.300000 I1.906185 J5.555592
G03 X113.643630 Y216.504946 Z-0.300000 I0.087376 J0.975876
G02 X113.798236 Y216.451712 Z-0.300000 I0.053463 J-0.095855
G02 X113.772650 Y216.198758 Z-0.300000 I-0.244517 J-0.103038
G03 X113.829181 Y215.949798 Z-0.300000 I0.143544 J-0.098304
G03 X114.277880 Y215.906956 Z-0.300000 I0.271234 J0.469622
G02 X114.592230 Y215.827173 Z-0.300000 I0.096544 J-0.278779
G02 X114.591800 Y215.563362 Z-0.300000 I-0.144116 J-0.131671
G03 X114.455143 Y214.930072 Z-0.300000 I0.470825 J-0.432988
G03 X115.128640 Y213.935189 Z-0.300000 I2.089090 J0.688825
G03 X116.221983 Y213.365085 Z-0.300000 I1.830678 J2.177409
G03 X116.655670 Y213.525396 Z-0.300000 I0.103673 J0.386314
G02 X117.025234 Y213.590838 Z-0.300000 I0.216878 J-0.148530
G02 X117.966130 Y212.590247 Z-0.300000 I-2.044648 J-2.865342
G03 X118.924795 Y211.119002 Z-0.300000 I38.845730 J24.263974
G03 X121.374660 Y207.572287 Z-0.300000 I228.165235 J154.983824
G03 X123.869515 Y204.662380 Z-0.300000 I16.284150 J11.437021
G03 X124.366480 Y204.696766 Z-0.300000 I0.232905 J0.242324
G02 X124.532838 Y204.720536 Z-0.300000 I0.095638 J-0.075309
G02 X124.590470 Y204.536887 Z-0.300000 I-0.092778 J-0.129983
G03 X124.643242 Y203.771595 Z-0.300000 I0.903019 J-0.322196
G03 X126.998000 Y199.917082 Z-0.300000 I29.480586 J15.363437
G02 X129.574231 Y196.034139 Z-0.300000 I-62.121237 J-44.011915
G02 X132.134310 Y191.636116 Z-0.300000 I-77.156080 J-47.856497
G02 X134.053353 Y187.030671 Z-0.300000 I-21.034701 J-11.467497
G02 X134.564290 Y183.507810 Z-0.300000 I-11.684780 J-3.493180
G01 X134.556290 Y179.853135 Z-0.300000
G01 X137.363130 Y177.195781 Z-0.300000
G03 X140.247567 Y174.898422 Z-0.300000 I14.849736 J15.685057
G03 X140.950550 Y174.808758 Z-0.300000 I0.441921 J0.664154
G02 X141.401741 Y174.827710 Z-0.300000 I0.257189 J-0.742693
G02 X141.457570 Y174.679603 Z-0.300000 I-0.023831 J-0.093559
G03 X141.635101 Y173.895239 Z-0.300000 I0.452464 J-0.309863
G03 X147.736717 Y170.770302 Z-0.300000 I33.170860 J57.248646
G03 X154.216937 Y168.179492 Z-0.300000 I34.698690 J77.389832
G03 X157.028960 Y167.697974 Z-0.300000 I2.812023 J7.970219
G02 X158.834311 Y167.463159 Z-0.300000 I0.000000 J-7.057541
G02 X159.211340 Y167.120494 Z-0.300000 I-0.141384 J-0.534316
G03 X160.542918 Y166.171133 Z-0.300000 I1.363624 J0.504106
G03 X167.913760 Y166.928631 Z-0.300000 I0.657879 J29.838278
G02 X169.122565 Y167.003466 Z-0.300000 I0.829066 J-3.591574
G02 X169.321540 Y166.782818 Z-0.300000 I-0.022853 J-0.220648
G02 X169.132765 Y166.498457 Z-0.300000 I-0.308561 J0.000000
G02 X168.169720 Y166.297614 Z-0.300000 I-0.995135 J2.362362
G03 X168.038627 Y166.025403 Z-0.300000 I0.002104 J-0.168685
G03 X169.065580 Y165.145030 Z-0.300000 I2.669577 J2.074898
G02 X170.628188 Y164.199999 Z-0.300000 I-12.118096 J-21.801669
G02 X170.703121 Y164.069488 Z-0.300000 I-0.091297 J-0.139185
G02 X170.629071 Y164.007882 Z-0.300000 I-0.060045 J-0.003133
G02 X169.101780 Y164.451718 Z-0.300000 I3.882903 J16.211220
G03 X167.928034 Y164.469201 Z-0.300000 I-0.613643 J-1.788488
G03 X166.989370 Y163.796576 Z-0.300000 I0.542028 J-1.747689
G02 X166.013380 Y162.909629 Z-0.300000 I-2.619221 J1.901713
G02 X162.253510 Y161.005957 Z-0.300000 I-16.779739 J28.476193
G03 X158.375859 Y159.226580 Z-0.300000 I33.186777 J-77.436051
G03 X157.549660 Y158.701533 Z-0.300000 I1.951385 J-3.983208
G02 X155.238379 Y157.325391 Z-0.300000 I-6.050407 J7.532873
G02 X144.237630 Y153.114480 Z-0.300000 I-71.694517 J170.822694
G01 X142.445910 Y152.493194 Z-0.300000
G01 X143.941360 Y152.472954 Z-0.300000
G02 X145.357246 Y152.234213 Z-0.300000 I-0.063653 J-4.695423
G02 X146.419210 Y151.650352 Z-0.300000 I-1.053941 J-3.174692
G03 X147.353332 Y151.317367 Z-0.300000 I0.934122 J1.143752
G03 X148.051700 Y151.650352 Z-0.300000 I0.000000 J0.898835
G02 X148.753403 Y152.344479 Z-0.300000 I3.497546 J-2.833976
G02 X149.064160 Y152.452681 Z-0.300000 I0.310757 J-0.392147
G02 X149.146132 Y152.316755 Z-0.300000 I0.000000 J-0.092680
G02 X148.332970 Y151.066738 Z-0.300000 I-7.234656 J3.816792
G03 X147.733371 Y149.911951 Z-0.300000 I2.717006 J-2.143805
G03 X147.914170 Y149.662300 Z-0.300000 I0.186122 J-0.055502
G02 X147.974314 Y149.510112 Z-0.300000 I-0.002469 J-0.088954
G02 X147.216310 Y148.971210 Z-0.300000 I-2.023353 J2.043446
G03 X146.005001 Y148.155265 Z-0.300000 I2.350209 J-4.796093
G03 X145.559060 Y147.488260 Z-0.300000 I1.074846 J-1.201187
G03 X145.385332 Y146.656830 Z-0.300000 I3.049202 J-1.070997
G03 X145.035230 Y140.441190 Z-0.300000 I173.145604 J-12.870285
G01 X144.796020 Y134.204460 Z-0.300000
G01 X147.963020 Y131.548080 Z-0.300000
G03 X151.217062 Y129.130951 Z-0.300000 I22.068190 J26.310208
G03 X152.019060 Y128.891700 Z-0.300000 I0.801998 J1.224571
G02 X152.543551 Y128.650575 Z-0.300000 I0.000000 J-0.690996
G02 X152.613440 Y128.198720 Z-0.300000 I-0.329037 J-0.282225
G03 X152.600614 Y127.692129 Z-0.300000 I0.633817 J-0.269505
G03 X152.867460 Y127.505750 Z-0.300000 I0.266846 J0.097837
G02 X153.316804 Y127.333117 Z-0.300000 I-0.000000 J-0.671112
G02 X154.020550 Y126.466300 Z-0.300000 I-2.417316 J-2.681640
G02 X153.930400 Y126.233344 Z-0.300000 I-0.138283 J-0.080408
G02 X153.523510 Y126.309470 Z-0.300000 I-0.132187 J0.418937
G03 X152.516095 Y126.479262 Z-0.300000 I-0.655991 J-0.818633
G03 X151.552640 Y125.608750 Z-0.300000 I0.567701 J-1.596730
G03 X151.613384 Y124.637714 Z-0.300000 I0.907923 J-0.430622
G03 X152.856760 Y123.564360 Z-0.300000 I2.414668 J1.540314
G02 X153.921324 Y122.813067 Z-0.300000 I-1.387270 J-3.095606
G02 X153.836090 Y122.540110 Z-0.300000 I-0.118090 J-0.112911
G03 X153.122561 Y121.376553 Z-0.300000 I0.187992 J-0.915840
G03 X156.468440 Y112.960110 Z-0.300000 I39.696188 J10.907570
G01 X159.996620 Y106.323240 Z-0.300000
G01 X162.739430 Y105.255350 Z-0.300000
G03 X166.395741 Y104.422641 Z-0.300000 I4.633128 J11.899898
G03 X167.189680 Y104.913930 Z-0.300000 I0.060554 J0.789303
G02 X167.436399 Y105.123022 Z-0.300000 I0.323233 J-0.131296
G02 X167.852010 Y105.062830 Z-0.300000 I0.129031 J-0.574018
G03 X168.332472 Y104.975183 Z-0.300000 I0.368856 J0.661274
G03 X168.960090 Y105.227960 Z-0.300000 I-0.214204 J1.437390
G02 X170.793092 Y105.823721 Z-0.300000 I1.867463 J-2.627981
G02 X171.369280 Y105.253660 Z-0.300000 I0.006094 J-0.570061
G02 X171.250756 Y104.987199 Z-0.300000 I-0.358785 J0.000000
G02 X170.942300 Y104.868670 Z-0.300000 I-0.308456 J0.342092
G03 X170.552901 Y104.419986 Z-0.300000 I0.000000 J-0.393315
G03 X173.159010 Y89.279200 Z-0.300000 I260.392859 J37.025453
G01 X173.462370 Y87.780130 Z-0.300000
G01 X175.359350 Y88.499670 Z-0.300000
G01 X177.256340 Y89.219200 Z-0.300000
G01 X181.163340 Y85.565860 Z-0.300000
G02 X184.964430 Y81.827343 Z-0.300000 I-72.139443 J-77.148473
G02 X185.666160 Y80.907830 Z-0.300000 I-3.574647 J-3.455528
G02 X185.685497 Y80.069242 Z-0.300000 I-0.736019 J-0.436489
G02 X184.705930 Y79.103990 Z-0.300000 I-2.030407 J1.080847
G03 X183.291244 Y78.217660 Z-0.300000 I4.479829 J-8.722493
G03 X183.146650 Y77.931070 Z-0.300000 I0.217940 J-0.289729
G03 X183.283180 Y77.784743 Z-0.300000 I0.145918 J-0.000710
G03 X183.783310 Y77.890070 Z-0.300000 I0.061206 J0.949429
G02 X183.855812 Y77.809031 Z-0.300000 I0.025890 J-0.049789
G02 X183.182160 Y76.993380 Z-0.300000 I-4.412478 J2.958285
G02 X181.865784 Y75.946994 Z-0.300000 I-5.435905 J5.487273
G02 X181.232240 Y75.763940 Z-0.300000 I-0.633544 J1.004814
G03 X180.881392 Y75.565617 Z-0.300000 I0.000000 J-0.409499
G03 X180.884660 Y75.186460 Z-0.300000 I0.310543 J-0.186916
G02 X180.827696 Y75.089976 Z-0.300000 I-0.053502 J-0.033470
G02 X180.535210 Y75.205660 Z-0.300000 I0.027282 J0.496569
G02 X180.289681 Y75.768360 Z-0.300000 I0.443753 J0.528545
G02 X180.588110 Y76.273150 Z-0.300000 I0.628846 J-0.031161
G03 X180.554891 Y76.447929 Z-0.300000 I-0.049968 J0.081049
G03 X179.560000 Y76.456870 Z-0.300000 I-0.523830 J-2.931512
G02 X178.428412 Y76.418553 Z-0.300000 I-0.718247 J4.483081
G02 X178.393660 Y76.563490 Z-0.300000 I0.007163 J0.078352
G03 X178.433665 Y76.888507 Z-0.300000 I-0.112576 J0.178827
G03 X177.530730 Y77.464140 Z-0.300000 I-1.631468 J-1.563126
G03 X176.205505 Y77.606194 Z-0.300000 I-0.977981 J-2.871049
G03 X175.739080 Y77.257660 Z-0.300000 I0.066272 J-0.575051
G03 X175.729700 Y76.600834 Z-0.300000 I0.799351 J-0.339896
G03 X176.397860 Y75.576580 Z-0.300000 I2.803040 J1.098472
G02 X177.310131 Y74.570374 Z-0.300000 I-10.450020 J-10.391113
G02 X177.769470 Y73.915980 Z-0.300000 I-3.937515 J-3.252268
G02 X177.693003 Y73.849728 Z-0.300000 I-0.044271 J-0.026157
G02 X176.331170 Y75.070930 Z-0.300000 I10.524116 J13.105981
G03 X174.652658 Y76.485737 Z-0.300000 I-9.132449 J-9.131551
G03 X174.462140 Y76.391920 Z-0.300000 I-0.069757 J-0.098697
G02 X173.534393 Y75.397418 Z-0.300000 I-1.042125 J0.042186
G02 X169.409070 Y75.834410 Z-0.300000 I-1.064127 J9.644938
G03 X168.234943 Y76.008627 Z-0.300000 I-1.083577 J-3.259127
G03 X167.361400 Y75.780410 Z-0.300000 I0.052391 J-1.986470
G03 X167.264994 Y75.512231 Z-0.300000 I0.098356 J-0.186775
G03 X167.555520 Y75.315960 Z-0.300000 I0.294802 J0.123216
G02 X168.550014 Y75.162066 Z-0.300000 I-0.043297 J-3.570055
G02 X169.111930 Y74.844390 Z-0.300000 I-0.430621 J-1.417502
G03 X169.677280 Y74.625029 Z-0.300000 I0.570528 J0.632189
G03 X171.334250 Y74.830890 Z-0.300000 I0.039250 J6.455457
G02 X173.015651 Y75.031714 Z-0.300000 I1.583438 J-6.118169
G02 X173.873200 Y74.791490 Z-0.300000 I-0.027091 J-1.747455
G02 X173.941122 Y74.629174 Z-0.300000 I-0.074185 J-0.126413
G02 X173.813500 Y74.555200 Z-0.300000 I-0.099876 J0.025234
G03 X172.938649 Y74.609313 Z-0.300000 I-0.563802 J-2.016092
G03 X171.253910 Y74.170610 Z-0.300000 I1.226973 J-8.166194
G02 X169.568263 Y73.854970 Z-0.300000 I-1.734217 J4.602590
G02 X167.657940 Y74.135110 Z-0.300000 I-0.061561 J6.233691
G03 X165.844875 Y74.586365 Z-0.300000 I-4.853875 J-15.634128
G03 X165.738240 Y74.498000 Z-0.300000 I-0.016705 J-0.088365
G02 X165.650241 Y74.440745 Z-0.300000 I-0.062626 J-0.000000
G02 X164.976010 Y74.835770 Z-0.300000 I1.405989 J3.172649
G02 X164.421763 Y75.441033 Z-0.300000 I1.326505 J1.771096
G02 X164.428110 Y75.719660 Z-0.300000 I0.216891 J0.134445
G03 X164.361771 Y75.888945 Z-0.300000 I-0.090680 J0.062106
G03 X162.861350 Y76.075470 Z-0.300000 I-1.683157 J-7.411444
G03 X161.963888 Y75.740368 Z-0.300000 I-0.030945 J-1.286457
G03 X161.952820 Y75.248160 Z-0.300000 I0.228960 J-0.251377
G03 X162.996718 Y74.726062 Z-0.300000 I1.309095 J1.312794
G03 X163.178660 Y75.070990 Z-0.300000 I0.029605 J0.204833
G02 X162.918188 Y75.598559 Z-0.300000 I0.770275 J0.708385
G02 X163.057100 Y75.763960 Z-0.300000 I0.138912 J0.024368
G02 X163.491271 Y75.603965 Z-0.300000 I0.000000 J-0.669091
G02 X164.411370 Y74.609000 Z-0.300000 I-3.724220 J-4.366909
G02 X164.838982 Y73.663524 Z-0.300000 I-2.079768 J-1.510056
G02 X164.671430 Y73.454050 Z-0.300000 I-0.167552 J-0.037727
G03 X164.384285 Y73.261360 Z-0.300000 I0.000000 J-0.310296
G03 X164.387620 Y72.761080 Z-0.300000 I0.600985 J-0.246144
G02 X164.418630 Y72.242494 Z-0.300000 I-0.712108 J-0.302803
G02 X164.186420 Y72.068120 Z-0.300000 I-0.232210 J0.067428
G02 X163.830622 Y72.208205 Z-0.300000 I0.000057 J0.522031
G02 X163.690560 Y72.530130 Z-0.300000 I0.299935 J0.321925
G03 X163.541794 Y72.843351 Z-0.300000 I-0.404119 J-0.000000
G03 X163.123870 Y72.992120 Z-0.300000 I-0.417924 J-0.512633
G03 X162.844815 Y72.801876 Z-0.300000 I0.000000 J-0.299785
G03 X162.851850 Y72.299150 Z-0.300000 I0.618425 J-0.242757
G02 X162.882860 Y71.780538 Z-0.300000 I-0.712179 J-0.302817
G02 X162.650660 Y71.606170 Z-0.300000 I-0.232200 J0.067422
G02 X162.323175 Y71.774527 Z-0.300000 I-0.000000 J0.402688
G02 X162.154810 Y72.299150 Z-0.300000 I0.733177 J0.524623
G03 X161.983143 Y72.820451 Z-0.300000 I-0.877353 J-0.000000
G03 X161.642900 Y72.992120 Z-0.300000 I-0.340243 J-0.251343
G03 X161.299041 Y72.824049 Z-0.300000 I0.000000 J-0.435788
G03 X161.130970 Y72.334590 Z-0.300000 I0.628667 J-0.489459
G02 X160.960421 Y71.744239 Z-0.300000 I-1.107021 J-0.000000
G02 X159.851180 Y70.304480 Z-0.300000 I-8.192005 J5.164234
G03 X159.034769 Y68.800701 Z-0.300000 I2.499401 J-2.330448
G03 X159.369470 Y68.372310 Z-0.300000 I0.334701 J-0.083445
G02 X159.822267 Y68.190277 Z-0.300000 I0.000000 J-0.654170
G02 X159.851180 Y67.910330 Z-0.300000 I-0.150587 J-0.157019
G03 X159.850000 Y67.614560 Z-0.300000 I0.217202 J-0.148754
G03 X160.162240 Y67.448360 Z-0.300000 I0.312240 J0.210202
G02 X160.458487 Y67.320995 Z-0.300000 I0.000000 J-0.408213
G02 X160.451560 Y67.143190 Z-0.300000 I-0.090212 J-0.085523
G02 X160.107397 Y67.082323 Z-0.300000 I-0.220721 J0.244591
G02 X159.042490 Y67.712680 Z-0.300000 I1.547068 J3.828261
G03 X158.021862 Y67.921132 Z-0.300000 I-0.708878 J-0.867987
G03 X156.519860 Y66.982100 Z-0.300000 I0.901472 J-3.112682
G03 X155.541428 Y65.378144 Z-0.300000 I3.738130 J-3.380709
G03 X155.667940 Y64.720580 Z-0.300000 I0.599108 J-0.225687
G02 X155.737185 Y64.396975 Z-0.300000 I-0.241770 J-0.220945
G02 X155.524480 Y64.285960 Z-0.300000 I-0.163488 J0.053964
G03 X154.820694 Y64.287244 Z-0.300000 I-0.354060 J-1.186976
G03 X153.817640 Y63.783610 Z-0.300000 I0.889490 J-3.022210
G03 X152.855537 Y63.057602 Z-0.300000 I178.082238 J-236.994305
G03 X151.786880 Y62.244710 Z-0.300000 I223.051104 J-294.339970
G02 X150.669683 Y61.694765 Z-0.300000 I-1.953215 J2.558149
G02 X149.769450 Y61.702050 Z-0.300000 I-0.436998 J1.624645
G03 X149.114360 Y61.663086 Z-0.300000 I-0.272184 J-0.950261
G03 X148.960060 Y61.361930 Z-0.300000 I0.101792 J-0.242261
G02 X148.175131 Y60.290288 Z-0.300000 I-0.855382 J-0.196755
G02 X143.503780 Y60.922550 Z-0.300000 I-0.887230 J11.017700
G01 X143.502780 Y60.924330 Z-0.300000
G00 Z5.000000

(Change tool to Cylindrical cutter)

G00 Z5.000000
G00 X148.373340 Y61.630460

G01 Z-0.300000 F100.0(Penetrate)
G02 X148.182178 Y62.179470 Z-0.300000 I0.538574 J0.495314 F400.000000
G02 X148.438640 Y62.517940 Z-0.300000 I0.389397 J-0.028653
G03 X148.433514 Y62.647960 Z-0.300000 I-0.023244 J0.064195
G03 X147.436180 Y62.793850 Z-0.300000 I-1.087068 J-3.949489
G03 X146.653940 Y62.456817 Z-0.300000 I-0.022448 J-1.024189
G03 X146.668300 Y61.944860 Z-0.300000 I0.274739 J-0.248474
G03 X148.126595 Y61.183882 Z-0.300000 I1.965263 J1.988334
G03 X148.373350 Y61.630460 Z-0.300000 I0.048775 J0.264510
G01 X148.373340 Y61.630460 Z-0.300000
G00 Z5.000000

(Change tool to Cylindrical cutter)

G00 Z5.000000
G00 X150.891610 Y62.368350

G01 Z-0.300000 F100.0(Penetrate)
G03 X150.749435 Y62.688161 Z-0.300000 I-0.430782 J0.000000 F400.000000
G03 X150.379690 Y62.830330 Z-0.300000 I-0.369745 J-0.409722
G03 X150.009947 Y62.688156 Z-0.300000 I0.000000 J-0.551870
G03 X149.867780 Y62.368350 Z-0.300000 I0.288619 J-0.319806
G03 X150.009951 Y62.048534 Z-0.300000 I0.430802 J-0.000000
G03 X150.379690 Y61.906360 Z-0.300000 I0.369739 J0.409688
G03 X150.749431 Y62.048528 Z-0.300000 I0.000000 J0.551882
G03 X150.891610 Y62.368350 Z-0.300000 I-0.288619 J0.319822
G01 X150.891610 Y62.368350 Z-0.300000
G00 Z5.000000

(Change tool to Cylindrical cutter)

G00 Z5.000000
G00 X148.263400 Y63.798100

G01 Z-0.300000 F100.0(Penetrate)
G03 X151.746607 Y64.437643 Z-0.300000 I-0.301539 J11.447538 F400.000000
G03 X153.947390 Y65.788480 Z-0.300000 I-2.012419 J5.746810
G03 X155.872783 Y67.728048 Z-0.300000 I-37.997858 J39.645606
G03 X158.031550 Y70.112820 Z-0.300000 I-55.296854 J52.225840
G01 X160.140980 Y72.544520 Z-0.300000
G01 X158.203860 Y73.576710 Z-0.300000
G03 X156.260997 Y74.597750 Z-0.300000 I-90.220037 J-169.314138
G03 X154.873250 Y75.302830 Z-0.300000 I-44.440840 J-85.750802
G02 X153.508528 Y76.048068 Z-0.300000 I9.170570 J18.415868
G02 X149.118340 Y78.733910 Z-0.300000 I115.443830 J193.631583
G03 X144.775239 Y81.304379 Z-0.300000 I-51.508239 J-82.074726
G03 X144.558320 Y81.274800 Z-0.300000 I-0.088756 J-0.159286
G03 X140.484549 Y76.586845 Z-0.300000 I28.764839 J-29.110272
G03 X137.811260 Y72.202630 Z-0.300000 I22.448931 J-16.695436
G01 X136.593750 Y69.718180 Z-0.300000
G01 X137.666020 Y67.726420 Z-0.300000
G03 X139.023802 Y66.042414 Z-0.300000 I5.185721 J2.791769
G03 X141.359510 Y64.567540 Z-0.300000 I6.242176 J7.298592
G03 X143.976645 Y63.529195 Z-0.300000 I13.900119 J31.217667
G03 X144.267420 Y63.550390 Z-0.300000 I0.120955 J0.345788
G02 X144.571113 Y63.635076 Z-0.300000 I0.350464 J-0.669917
G02 X148.263400 Y63.798100 Z-0.300000 I6.430572 J-103.750193
G01 X148.263400 Y63.798100 Z-0.300000
G00 Z5.000000

(Change tool to Cylindrical cutter)

G00 Z5.000000
G00 X97.001579 Y64.495380

G01 Z-0.300000 F100.0(Penetrate)
G03 X96.664371 Y64.632286 Z-0.300000 I-0.357004 J-0.395585 F400.000000
G03 X96.020399 Y64.531880 Z-0.300000 I-0.063499 J-1.708053
G03 X95.992489 Y64.389667 Z-0.300000 I0.028704 J-0.079478
G03 X96.329695 Y64.252770 Z-0.300000 I0.356992 J0.395595
G03 X96.973656 Y64.353192 Z-0.300000 I0.063332 J1.708817
G03 X97.001579 Y64.495400 Z-0.300000 I-0.028692 J0.079479
G01 X97.001579 Y64.495380 Z-0.300000
G00 Z5.000000

(Change tool to Cylindrical cutter)

G00 Z5.000000
G00 X107.157700 Y65.836370

G01 Z-0.300000 F100.0(Penetrate)
G03 X109.584195 Y66.731081 Z-0.300000 I-4.087794 J14.824020 F400.000000
G03 X111.355960 Y67.799780 Z-0.300000 I-4.169500 J8.915516
G01 X113.029710 Y69.067060 Z-0.300000
G01 X111.867880 Y71.710540 Z-0.300000
G03 X110.733765 Y73.645895 Z-0.300000 I-8.873935 J-3.900140
G03 X107.019778 Y78.307603 Z-0.300000 I-89.143832 J-67.210665
G03 X102.955175 Y82.849699 Z-0.300000 I-76.342024 J-64.226762
G03 X102.237570 Y83.157450 Z-0.300000 I-0.717605 J-0.682770
G03 X101.970945 Y83.054073 Z-0.300000 I0.000000 J-0.395521
G03 X95.930943 Y77.401730 Z-0.300000 I223.108632 J-244.463563
G01 X89.932506 Y71.646010 Z-0.300000
G01 X95.456052 Y68.402960 Z-0.300000
G03 X102.334218 Y65.708165 Z-0.300000 I11.923613 J20.308426
G03 X107.157700 Y65.836370 Z-0.300000 I2.152592 J9.814106
G01 X107.157700 Y65.836370 Z-0.300000
G00 Z5.000000

(Change tool to Cylindrical cutter)

G00 Z5.000000
G00 X90.986934 Y70.002190

G01 Z-0.300000 F100.0(Penetrate)
G03 X90.330725 Y70.520347 Z-0.300000 I-1.945324 J-1.789013 F400.000000
G03 X90.105114 Y70.494900 Z-0.300000 I-0.095052 J-0.170118
G03 X90.052684 Y69.787840 Z-0.300000 I0.343806 J-0.380968
G03 X91.090095 Y69.298050 Z-0.300000 I1.037411 J0.853762
G03 X91.239806 Y69.471293 Z-0.300000 I0.000000 J0.151309
G03 X90.986937 Y70.002190 Z-0.300000 I-0.987477 J-0.144671
G01 X90.986934 Y70.002190 Z-0.300000
G00 Z5.000000

(Change tool to Cylindrical cutter)

G00 Z5.000000
G00 X113.675360 Y72.169490

G01 Z-0.300000 F100.0(Penetrate)
G02 X112.779343 Y73.745734 Z-0.300000 I12.218874 J7.988625 F400.000000
G02 X111.826120 Y75.951650 Z-0.300000 I23.036904 J11.263640
G03 X110.694226 Y78.001952 Z-0.300000 I-7.665546 J-2.894269
G03 X108.913320 Y79.800570 Z-0.300000 I-7.631718 J-5.775570
G02 X103.782445 Y84.700271 Z-0.300000 I20.763187 J26.879151
G02 X103.720900 Y85.917790 Z-0.300000 I0.764544 J0.648962
G03 X103.705041 Y86.078577 Z-0.300000 I-0.103123 J0.071004
G03 X103.326210 Y86.301390 Z-0.300000 I-0.645652 J-0.664297
G03 X102.666414 Y85.703326 Z-0.300000 I-0.149742 J-0.497784
G03 X104.080550 Y82.464480 Z-0.300000 I8.033547 J1.579444
G03 X104.809182 Y81.589178 Z-0.300000 I7.088160 J5.159514
G03 X107.368480 Y78.999630 Z-0.300000 I64.998608 J61.679839
G03 X109.451570 Y77.334192 Z-0.300000 I9.642791 J9.925513
G03 X109.670560 Y77.498200 Z-0.300000 I0.079556 J0.121980
G02 X109.921050 Y77.643813 Z-0.300000 I0.142586 J0.042977
G02 X110.769120 Y76.343250 Z-0.300000 I-3.098582 J-2.947306
G03 X113.767744 Y70.551810 Z-0.300000 I36.531764 J15.242974
G03 X114.462530 Y70.455170 Z-0.300000 I0.387964 J0.243359
G03 X114.505963 Y70.666085 Z-0.300000 I-0.121848 J0.135021
G03 X113.675360 Y72.169490 Z-0.300000 I-10.515729 J-4.828596
G01 X113.675360 Y72.169490 Z-0.300000
G00 Z5.000000

(Change tool to Cylindrical cutter)

G00 Z5.000000
G00 X87.961718 Y72.009190

G01 Z-0.300000 F100.0(Penetrate)
G02 X87.672299 Y72.838623 Z-0.300000 I1.905836 J1.130227 F400.000000
G02 X87.800121 Y73.188560 Z-0.300000 I0.394817 J0.054098
G03 X87.766823 Y73.278012 Z-0.300000 I-0.034399 J0.038119
G03 X87.270194 Y73.199960 Z-0.300000 I-0.030569 J-1.424493
G03 X86.867639 Y72.667359 Z-0.300000 I0.196282 J-0.566787
G03 X87.194384 Y71.872020 Z-0.300000 I0.993319 J-0.056707
G03 X87.817340 Y71.693841 Z-0.300000 I0.493309 J0.546635
G03 X87.961719 Y72.009270 Z-0.300000 I-0.037163 J0.207768
G01 X87.961718 Y72.009190 Z-0.300000
G00 Z5.000000

(Change tool to Cylindrical cutter)

G00 Z5.000000
G00 X136.557910 Y71.812540

G01 Z-0.300000 F100.0(Penetrate)
G02 X137.156134 Y74.028708 Z-0.300000 I4.404098 J-0.000000 F400.000000
G02 X139.128880 Y76.227750 Z-0.300000 I6.303824 J-3.670729
G03 X143.317511 Y80.518666 Z-0.300000 I-11.051709 J14.978116
G03 X143.525570 Y82.497560 Z-0.300000 I-1.678201 J1.176829
G03 X142.721033 Y82.689476 Z-0.300000 I-0.473152 J-0.201193
G03 X140.838590 Y80.232470 Z-0.300000 I4.640801 J-5.505187
G02 X139.426185 Y77.688674 Z-0.300000 I-18.920176 J8.841141
G02 X138.204290 Y76.181430 Z-0.300000 I-7.786072 J5.063120
G03 X135.305813 Y72.522742 Z-0.300000 I14.265053 J-14.278482
G03 X135.328750 Y71.534020 Z-0.300000 I0.770518 J-0.476752
G03 X136.095309 Y71.233392 Z-0.300000 I0.604617 J0.414067
G03 X136.557910 Y71.812540 Z-0.300000 I-0.131228 J0.579148
G01 X136.557910 Y71.812540 Z-0.300000
G00 Z5.000000

(Change tool to Cylindrical cutter)

G00 Z5.000000
G00 X117.374700 Y74.785440

G01 Z-0.300000 F100.0(Penetrate)
G03 X116.822508 Y76.279995 Z-0.300000 I-6.735201 J-1.639161 F400.000000
G03 X116.614766 Y76.360031 Z-0.300000 I-0.148233 J-0.075129
G03 X116.439769 Y76.147502 Z-0.300000 I0.099949 J-0.260610
G03 X116.300310 Y74.373390 Z-0.300000 I9.271407 J-1.621341
G03 X116.644720 Y72.810984 Z-0.300000 I4.010808 J0.064962
G03 X117.030160 Y72.728950 Z-0.300000 I0.222466 J0.098744
G03 X117.423431 Y73.446179 Z-0.300000 I-0.831674 J0.922458
G03 X117.374700 Y74.785440 Z-0.300000 I-3.288003 J0.550877
G01 X117.374700 Y74.785440 Z-0.300000
G00 Z5.000000

(Change tool to Cylindrical cutter)

G00 Z5.000000
G00 X101.497590 Y84.427900

G01 Z-0.300000 F100.0(Penetrate)
G02 X101.508756 Y84.842396 Z-0.300000 I0.487954 J0.194253 F400.000000
G02 X101.763560 Y85.005370 Z-0.300000 I0.254804 J-0.117702
G03 X102.087596 Y85.177182 Z-0.300000 I-0.000000 J0.391471
G03 X102.259410 Y85.736840 Z-0.300000 I-0.825595 J0.559658
G03 X101.815235 Y85.963152 Z-0.300000 I-0.279742 J0.000000
G03 X97.146800 Y82.022120 Z-0.300000 I24.698255 J-33.992419
G02 X92.850548 Y77.953166 Z-0.300000 I-132.183182 J135.264545
G02 X90.629425 Y76.040160 Z-0.300000 I-31.385895 J34.195102
G03 X89.124047 Y74.229296 Z-0.300000 I3.764235 J-4.660369
G03 X89.288031 Y73.559500 Z-0.300000 I0.451865 J-0.244343
G03 X90.175523 Y73.572874 Z-0.300000 I0.434177 J0.641682
G03 X95.978410 Y78.386500 Z-0.300000 I-32.708551 J45.335108
G03 X101.405011 Y83.921178 Z-0.300000 I-75.687095 J79.636794
G03 X101.497590 Y84.427900 Z-0.300000 I-0.358235 J0.327268
G01 X101.497590 Y84.427900 Z-0.300000
G00 Z5.000000

(Change tool to Cylindrical cutter)

G00 Z5.000000
G00 X161.897840 Y74.379830

G01 Z-0.300000 F100.0(Penetrate)
G03 X160.960477 Y75.103972 Z-0.300000 I-3.321632 J-3.330922 F400.000000
G03 X160.709650 Y75.078470 Z-0.300000 I-0.108030 J-0.183732
G03 X160.672821 Y74.842011 Z-0.300000 I0.127161 J-0.140903
G03 X161.385930 Y73.917850 Z-0.300000 I3.901895 J2.273607
G03 X162.323288 Y73.193714 Z-0.300000 I3.321805 J3.331160
G03 X162.574120 Y73.219220 Z-0.300000 I0.108030 J0.183729
G03 X162.610953 Y73.455680 Z-0.300000 I-0.127154 J0.140905
G03 X161.897840 Y74.379830 Z-0.300000 I-3.901814 J-2.273594
G01 X161.897840 Y74.379830 Z-0.300000
G00 Z5.000000

(Change tool to Cylindrical cutter)

G00 Z5.000000
G00 X114.500080 Y75.764390

G01 Z-0.300000 F100.0(Penetrate)
G03 X113.738770 Y77.916189 Z-0.300000 I-6.777037 J-1.187150 F400.000000
G03 X110.918280 Y82.217640 Z-0.300000 I-30.549643 J-16.956174
G03 X107.687594 Y86.104899 Z-0.300000 I-50.961734 J-39.067958
G03 X107.372930 Y86.157170 Z-0.300000 I-0.190091 J-0.171071
G02 X107.088202 Y86.230636 Z-0.300000 I-0.103815 J0.186135
G02 X104.414870 Y90.906920 Z-0.300000 I60.712286 J37.810215
G03 X101.453061 Y95.566368 Z-0.300000 I-28.965823 J-15.141246
G03 X98.414815 Y98.786720 Z-0.300000 I-16.721585 J-12.732611
G03 X95.007972 Y101.466422 Z-0.300000 I-33.229946 J-38.741451
G03 X94.715395 Y101.450290 Z-0.300000 I-0.136296 J-0.189300
G02 X94.444025 Y101.421355 Z-0.300000 I-0.155613 J0.172428
G02 X93.777244 Y101.989600 Z-0.300000 I1.192861 J2.075032
G03 X93.112203 Y102.580099 Z-0.300000 I-2.119700 J-1.717534
G03 X92.873003 Y102.559500 Z-0.300000 I-0.106003 J-0.168189
G03 X92.855562 Y102.319621 Z-0.300000 I0.116443 J-0.129040
G03 X96.123336 Y98.633400 Z-0.300000 I56.163187 J46.496211
G02 X99.416833 Y94.778149 Z-0.300000 I-35.315060 J-33.503679
G02 X101.799300 Y91.242100 Z-0.300000 I-27.301140 J-20.965195
G03 X105.783857 Y85.215670 Z-0.300000 I58.504744 J34.351719
G03 X110.602960 Y79.355060 Z-0.300000 I60.134479 J44.536145
G02 X113.199256 Y76.119773 Z-0.300000 I-24.488615 J-22.311350
G02 X113.775390 Y74.850760 Z-0.300000 I-3.057433 J-2.153368
G03 X114.326573 Y73.521241 Z-0.300000 I4.550363 J1.107445
G03 X114.511869 Y73.509802 Z-0.300000 I0.096636 J0.058887
G03 X114.641935 Y73.869148 Z-0.300000 I-0.471221 J0.373772
G03 X114.500080 Y75.764390 Z-0.300000 I-9.641065 J0.231315
G01 X114.500080 Y75.764390 Z-0.300000
G00 Z5.000000

(Change tool to Cylindrical cutter)

G00 Z5.000000
G00 X159.684030 Y74.218590

G01 Z-0.300000 F100.0(Penetrate)
G03 X159.069652 Y74.822432 Z-0.300000 I-1.546439 J-0.958954 F400.000000
G03 X155.435270 Y76.752600 Z-0.300000 I-21.271596 J-35.666296
G03 X153.280873 Y77.552400 Z-0.300000 I-5.874660 J-12.522877
G03 X153.195250 Y77.378110 Z-0.300000 I-0.026564 J-0.095127
G03 X154.771623 Y76.348986 Z-0.300000 I8.995758 J12.057488
G03 X155.242910 Y76.217190 Z-0.300000 I0.501386 J0.884365
G02 X155.717636 Y76.087941 Z-0.300000 I-0.029709 J-1.045572
G02 X157.765720 Y74.828960 Z-0.300000 I-12.096563 J-21.973809
G03 X159.500648 Y73.983220 Z-0.300000 I3.752645 J5.495712
G03 X159.684030 Y74.218590 Z-0.300000 I0.048221 J0.151553
G01 X159.684030 Y74.218590 Z-0.300000
G00 Z5.000000

(Change tool to Cylindrical cutter)

G00 Z5.000000
G00 X139.106450 Y78.768640

G01 Z-0.300000 F100.0(Penetrate)
G03 X139.945897 Y80.666424 Z-0.300000 I-14.807477 J7.684340 F400.000000
G03 X141.925460 Y86.391310 Z-0.300000 I-133.314604 J49.302497
G02 X145.389274 Y94.401136 Z-0.300000 I43.081927 J-13.876718
G02 X148.928070 Y99.067150 Z-0.300000 I17.841154 J-9.856128
G02 X153.206466 Y102.423356 Z-0.300000 I16.981549 J-17.242503
G02 X157.290580 Y104.224290 Z-0.300000 I8.559449 J-13.879515
G01 X159.338260 Y104.808710 Z-0.300000
G01 X157.068270 Y104.839610 Z-0.300000
G03 X153.014288 Y103.969071 Z-0.300000 I-0.126426 J-9.285943
G03 X147.819320 Y100.523020 Z-0.300000 I8.877950 J-19.022395
G03 X144.310141 Y95.985207 Z-0.300000 I10.871374 J-12.032810
G03 X139.852070 Y85.236360 Z-0.300000 I59.177499 J-30.842707
G02 X138.003115 Y79.738790 Z-0.300000 I-148.822802 J46.992718
G02 X137.585690 Y78.890410 Z-0.300000 I-3.906149 J1.395043
G03 X137.178986 Y78.056136 Z-0.300000 I3.318402 J-2.133973
G03 X137.069830 Y77.411930 Z-0.300000 I1.846378 J-0.644206
G02 X136.896059 Y76.840492 Z-0.300000 I-1.026460 J-0.000000
G02 X136.369010 Y76.366210 Z-0.300000 I-1.201514 J0.805207
G03 X135.811259 Y75.876321 Z-0.300000 I0.741704 J-1.406901
G03 X135.293260 Y74.841810 Z-0.300000 I3.156243 J-2.227330
G03 X135.502554 Y74.641294 Z-0.300000 I0.153088 J-0.049697
G03 X136.532900 Y75.303790 Z-0.300000 I-1.003895 J2.693775
G03 X138.012723 Y77.019338 Z-0.300000 I-11.003788 J10.987826
G03 X139.106450 Y78.768650 Z-0.300000 I-10.351766 J7.688838
G01 X139.106450 Y78.768640 Z-0.300000
G00 Z5.000000

(Change tool to Cylindrical cutter)

G00 Z5.000000
G00 X79.371200 Y74.985760

G01 Z-0.300000 F100.0(Penetrate)
G03 X79.227909 Y75.284358 Z-0.300000 I-0.202942 J0.086292 F400.000000
G03 X78.018196 Y75.365920 Z-0.300000 I-0.799446 J-2.845326
G03 X77.577687 Y75.072147 Z-0.300000 I0.084683 J-0.604137
G03 X77.687334 Y74.806040 Z-0.300000 I0.155178 J-0.091703
G02 X78.962210 Y74.460558 Z-0.300000 I-17.992666 J-68.920352
G02 X79.040338 Y74.425880 Z-0.300000 I-0.080657 J-0.287067
G01 X79.094980 Y74.439143 Z-0.300000
G03 X79.371200 Y74.985760 Z-0.300000 I-4.006745 J2.367809
G01 X79.371200 Y74.985760 Z-0.300000
G00 Z5.000000

(Change tool to Cylindrical cutter)

G00 Z5.000000
G00 X120.436220 Y76.769630

G01 Z-0.300000 F100.0(Penetrate)
G03 X120.391728 Y77.772725 Z-0.300000 I-1.558398 J0.433412 F400.000000
G03 X119.693620 Y78.744960 Z-0.300000 I-2.155860 J-0.811250
G02 X118.807642 Y79.683978 Z-0.300000 I3.158949 J3.867996
G02 X118.640780 Y80.198920 Z-0.300000 I0.711137 J0.514942
G03 X118.492287 Y80.705825 Z-0.300000 I-0.939447 J-0.000000
G03 X118.048230 Y81.123510 Z-0.300000 I-1.053590 J-0.675223
G03 X117.806571 Y81.025729 Z-0.300000 I-0.081493 J-0.146107
G03 X117.812560 Y80.342310 Z-0.300000 I1.100638 J-0.332091
G02 X118.528065 Y77.602981 Z-0.300000 I-24.447543 J-7.848734
G02 X118.715710 Y75.894470 Z-0.300000 I-9.274194 J-1.883143
G03 X119.026339 Y75.059394 Z-0.300000 I1.344311 J0.024741
G03 X119.434580 Y75.030200 Z-0.300000 I0.218140 J0.181449
G03 X120.001104 Y75.731419 Z-0.300000 I-1.930285 J2.138962
G03 X120.436220 Y76.769630 Z-0.300000 I-3.893861 J2.242210
G01 X120.436220 Y76.769630 Z-0.300000
G00 Z5.000000

(Change tool to Cylindrical cutter)

G00 Z5.000000
G00 X93.575607 Y79.808100

G01 Z-0.300000 F100.0(Penetrate)
G03 X98.928440 Y84.799038 Z-0.300000 I-531.776175 J575.701354 F400.000000
G03 X100.570420 Y86.391310 Z-0.300000 I-52.481861 J55.763037
G01 X102.188730 Y88.008250 Z-0.300000
G01 X100.816300 Y90.858120 Z-0.300000
G03 X99.166212 Y93.509597 Z-0.300000 I-13.067266 J-6.292937
G03 X95.654245 Y97.447280 Z-0.300000 I-32.589659 J-25.531301
G03 X90.089445 Y101.958301 Z-0.300000 I-25.837756 J-26.185604
G03 X86.949937 Y103.195860 Z-0.300000 I-4.498945 J-6.812150
G03 X85.357558 Y103.015907 Z-0.300000 I-0.483086 J-2.860594
G03 X83.468117 Y101.755020 Z-0.300000 I2.228803 J-5.385973
G03 X81.855026 Y99.919994 Z-0.300000 I13.265567 J-13.287695
G03 X79.964590 Y97.203450 Z-0.300000 I27.302632 J-21.015873
G03 X78.725172 Y94.237299 Z-0.300000 I8.335836 J-5.225187
G03 X78.220711 Y89.811770 Z-0.300000 I18.382791 J-4.336948
G03 X78.561744 Y85.324845 Z-0.300000 I31.641282 J0.148502
G03 X79.116568 Y83.762730 Z-0.300000 I4.247585 J0.629048
G03 X85.073110 Y76.006465 Z-0.300000 I35.311226 J20.952457
G03 X87.841187 Y74.841810 Z-0.300000 I2.768077 J2.707164
G03 X88.153554 Y74.958270 Z-0.300000 I0.000000 J0.477141
G03 X93.575607 Y79.808100 Z-0.300000 I-148.733849 J171.738524
G01 X93.575607 Y79.808100 Z-0.300000
G00 Z5.000000

(Change tool to Cylindrical cutter)

G00 Z5.000000
G00 X83.830351 Y76.743590

G01 Z-0.300000 F100.0(Penetrate)
G03 X83.481151 Y77.049392 Z-0.300000 I-0.308499 J0.000000 F400.000000
G03 X82.018236 Y76.502410 Z-0.300000 I0.460810 J-3.462234
G03 X81.991837 Y76.232313 Z-0.300000 I0.096171 J-0.145738
G03 X82.432312 Y76.094290 Z-0.300000 I0.354596 J0.359771
G03 X83.660947 Y76.478131 Z-0.300000 I-0.831338 J4.819317
G03 X83.830351 Y76.743590 Z-0.300000 I-0.123288 J0.265459
G01 X83.830351 Y76.743590 Z-0.300000
G00 Z5.000000

(Change tool to Cylindrical cutter)

G00 Z5.000000
G00 X160.056930 Y76.405230

G01 Z-0.300000 F100.0(Penetrate)
G03 X160.602963 Y77.077969 Z-0.300000 I-5.169442 J4.753782 F400.000000
G03 X163.108220 Y80.678540 Z-0.300000 I-146.485241 J104.595436
G02 X165.577651 Y84.308170 Z-0.300000 I1060.253804 J-718.692337
G02 X167.482440 Y87.084280 Z-0.300000 I623.760393 J-425.942976
G01 X169.393450 Y89.856170 Z-0.300000
G01 X169.045800 Y93.768670 Z-0.300000
G03 X167.881689 Y98.662684 Z-0.300000 I-17.350872 J-1.541695
G03 X165.907870 Y101.661050 Z-0.300000 I-8.242440 J-3.277119
G03 X162.359926 Y103.448730 Z-0.300000 I-4.488326 J-4.493242
G03 X156.965080 Y102.999970 Z-0.300000 I-1.746018 J-11.661863
G03 X152.760253 Y101.116733 Z-0.300000 I6.706967 J-20.610896
G03 X149.986980 Y98.934130 Z-0.300000 I6.402330 J-10.988171
G03 X147.537705 Y96.277556 Z-0.300000 I65.179133 J-62.550411
G03 X146.651160 Y95.167500 Z-0.300000 I10.450918 J-9.255661
G03 X146.114555 Y94.162325 Z-0.300000 I3.497447 J-2.512903
G03 X144.613206 Y89.898393 Z-0.300000 I110.703497 J-41.375462
G03 X143.260362 Y85.498347 Z-0.300000 I103.406776 J-34.201585
G03 X143.351930 Y85.192460 Z-0.300000 I0.285443 J-0.081201
G03 X143.644179 Y84.978458 Z-0.300000 I1.483185 J1.718940
G03 X153.901630 Y78.692510 Z-0.300000 I1313.650216 J2132.110876
G03 X158.729650 Y75.859435 Z-0.300000 I87.072266 J142.854880
G03 X159.086100 Y75.765770 Z-0.300000 I0.356450 J0.631418
G03 X159.424357 Y75.867163 Z-0.300000 I-0.000000 J0.614929
G03 X160.056930 Y76.405230 Z-0.300000 I-1.870923 J2.840400
G01 X160.056930 Y76.405230 Z-0.300000
G00 Z5.000000

(Change tool to Cylindrical cutter)

G00 Z5.000000
G00 X78.429901 Y76.881400

G01 Z-0.300000 F100.0(Penetrate)
G02 X80.130181 Y77.359206 Z-0.300000 I3.600598 J-9.548636 F400.000000
G02 X80.461130 Y77.266390 Z-0.300000 I0.071979 J-0.379777
G03 X80.639293 Y77.266664 Z-0.300000 I0.088930 J0.098543
G03 X80.758842 Y77.536700 Z-0.300000 I-0.245204 J0.270036
G02 X80.951171 Y77.894511 Z-0.300000 I0.429003 J0.000000
G02 X81.654698 Y78.129270 Z-0.300000 I0.788936 J-1.192742
G03 X81.829769 Y78.248074 Z-0.300000 I-0.012369 J0.206624
G03 X81.769440 Y78.374180 Z-0.300000 I-0.081827 J0.038338
G02 X81.102896 Y78.715436 Z-0.300000 I0.385898 J1.575316
G02 X80.489644 Y79.465630 Z-0.300000 I1.762127 J2.066215
G03 X76.361245 Y85.760878 Z-0.300000 I-44.228225 J-24.503378
G03 X75.033069 Y86.570090 Z-0.300000 I-1.711481 J-1.314501
G03 X70.822049 Y86.616948 Z-0.300000 I-2.244125 J-12.433483
G03 X69.260123 Y85.660280 Z-0.300000 I0.372070 J-2.360859
G02 X68.341133 Y84.512112 Z-0.300000 I-12.669504 J9.198776
G02 X66.717620 Y82.772910 Z-0.300000 I-30.746323 J27.073751
G03 X65.230846 Y80.969678 Z-0.300000 I9.188646 J-9.090628
G03 X64.703674 Y79.822630 Z-0.300000 I3.114493 J-2.126056
G03 X64.859354 Y78.796407 Z-0.300000 I1.248211 J-0.335563
G03 X65.971142 Y77.817660 Z-0.300000 I2.224907 J1.406507
G01 X67.576250 Y77.068590 Z-0.300000
G01 X70.185353 Y79.304560 Z-0.300000
G03 X72.771904 Y81.563135 Z-0.300000 I-120.438206 J140.537846
G03 X73.107043 Y81.903930 Z-0.300000 I-2.384104 J2.679722
G02 X74.246950 Y82.203618 Z-0.300000 I0.787416 J-0.677306
G02 X78.920544 Y79.806460 Z-0.300000 I-7.000187 J-19.402331
G02 X78.887325 Y79.393534 Z-0.300000 I-0.135183 J-0.196924
G02 X76.837457 Y78.823140 Z-0.300000 I-2.689892 J5.698288
G03 X72.221474 Y77.671160 Z-0.300000 I1.697609 J-16.626433
G03 X71.544317 Y76.663530 Z-0.300000 I0.411114 J-1.007630
G03 X72.529325 Y75.709197 Z-0.300000 I0.954810 J0.000000
G03 X78.429901 Y76.881400 Z-0.300000 I-0.581025 J18.361846
G01 X78.429901 Y76.881400 Z-0.300000
G00 Z5.000000

(Change tool to Cylindrical cutter)

G00 Z5.000000
G00 X70.776440 Y81.309530

G01 Z-0.300000 F100.0(Penetrate)
G02 X71.154538 Y81.654459 Z-0.300000 I0.923036 J-0.632104 F400.000000
G02 X71.604738 Y81.771520 Z-0.300000 I0.450200 J-0.807174
G02 X71.831560 Y81.621222 Z-0.300000 I0.000000 J-0.246303
G02 X71.800276 Y81.309530 Z-0.300000 I-0.300626 J-0.127243
G02 X71.422180 Y80.964611 Z-0.300000 I-0.923044 J0.632137
G02 X70.971977 Y80.847550 Z-0.300000 I-0.450203 J0.807185
G02 X70.745155 Y80.997848 Z-0.300000 I0.000000 J0.246303
G02 X70.776440 Y81.309530 Z-0.300000 I0.300611 J0.127237
G01 X70.776440 Y81.309530 Z-0.300000
G00 Z5.000000

(Change tool to Cylindrical cutter)

G00 Z5.000000
G00 X70.286386 Y82.663550

G01 Z-0.300000 F100.0(Penetrate)
G02 X70.441717 Y83.498435 Z-0.300000 I0.495917 J0.339626 F400.000000
G02 X71.407737 Y83.434710 Z-0.300000 I0.442651 J-0.643675
G02 X71.406108 Y83.276214 Z-0.300000 I-0.070869 J-0.078528
G02 X71.087507 Y83.157450 Z-0.300000 I-0.318601 J0.367963
G03 X70.775275 Y82.991271 Z-0.300000 I0.000000 J-0.376414
G03 X70.776440 Y82.695470 Z-0.300000 I0.218381 J-0.147043
G02 X70.917835 Y82.325744 Z-0.300000 I-0.700652 J-0.479851
G02 X70.836860 Y82.233490 Z-0.300000 I-0.080975 J-0.010590
G02 X70.620224 Y82.308082 Z-0.300000 I0.000000 J0.351881
G02 X70.286383 Y82.663550 Z-0.300000 I0.981466 J1.256253
G01 X70.286386 Y82.663550 Z-0.300000
G00 Z5.000000

(Change tool to Cylindrical cutter)

G00 Z5.000000
G00 X136.145360 Y79.230630

G01 Z-0.300000 F100.0(Penetrate)
G03 X138.305903 Y84.166674 Z-0.300000 I-9.528675 J7.111636 F400.000000
G03 X137.564090 Y86.853290 Z-0.300000 I-3.127683 J0.582123
G03 X136.558915 Y86.984802 Z-0.300000 I-0.577880 J-0.509721
G03 X134.252390 Y84.646490 Z-0.300000 I4.485443 J-6.731208
G03 X133.155877 Y82.617133 Z-0.300000 I12.315288 J-7.965176
G03 X132.974490 Y81.759110 Z-0.300000 I1.938676 J-0.858023
G02 X132.737233 Y81.084821 Z-0.300000 I-1.076798 J0.000000
G02 X132.242340 Y80.847550 Z-0.300000 I-0.494893 J0.397480
G02 X131.908063 Y81.263640 Z-0.300000 I0.000000 J0.342320
G02 X133.312840 Y85.698340 Z-0.300000 I25.392491 J-5.603717
G03 X134.056400 Y89.065033 Z-0.300000 I-8.933526 J3.738494
G03 X133.481930 Y90.099430 Z-0.300000 I-1.139665 J0.043787
G03 X132.507499 Y90.283936 Z-0.300000 I-0.755369 J-1.323944
G03 X132.385310 Y89.940170 Z-0.300000 I0.029645 J-0.204136
G02 X132.601524 Y89.314932 Z-0.300000 I-0.609893 J-0.560911
G02 X132.268410 Y88.438740 Z-0.300000 I-1.658592 J0.129151
G03 X131.694047 Y87.494507 Z-0.300000 I4.307328 J-3.266890
G03 X131.184390 Y86.160330 Z-0.300000 I8.150602 J-3.877971
G01 X130.777300 Y84.774390 Z-0.300000
G01 X130.374200 Y86.391310 Z-0.300000
G02 X130.213055 Y87.935566 Z-0.300000 I5.385495 J1.342519
G02 X130.449000 Y88.447120 Z-0.300000 I0.730098 J-0.026554
G03 X130.806000 Y88.939106 Z-0.300000 I-1.034064 J1.125866
G03 X130.926850 Y89.495760 Z-0.300000 I-1.221590 J0.556654
G02 X131.066944 Y90.061375 Z-0.300000 I1.211852 J-0.000000
G02 X132.237370 Y91.979000 Z-0.300000 I15.931019 J-8.407528
G03 X133.118542 Y93.823858 Z-0.300000 I-5.105923 J3.571645
G03 X132.961590 Y94.490020 Z-0.300000 I-0.670905 J0.193501
G03 X132.322124 Y94.791664 Z-0.300000 I-0.690347 J-0.634856
G03 X131.395110 Y94.575120 Z-0.300000 I-0.092235 J-1.697669
G03 X130.544758 Y93.946845 Z-0.300000 I2.113973 J-3.750800
G03 X130.414930 Y93.644580 Z-0.300000 I0.286951 J-0.302265
G03 X130.544860 Y93.487736 Z-0.300000 I0.159631 J0.000000
G03 X130.920980 Y93.548780 Z-0.300000 I0.103936 J0.548855
G02 X131.116376 Y93.485259 Z-0.300000 I0.068245 J-0.122360
G02 X131.122180 Y93.114060 Z-0.300000 I-0.415212 J-0.192137
G02 X130.718319 Y92.546741 Z-0.300000 I-1.491189 J0.634133
G02 X130.329940 Y92.397090 Z-0.300000 I-0.388379 J0.429142
G02 X130.133629 Y92.550523 Z-0.300000 I0.000000 J0.202302
G02 X130.200020 Y92.919010 Z-0.300000 I0.443303 J0.110353
G03 X130.177722 Y93.163312 Z-0.300000 I-0.158703 J0.108684
G03 X129.882860 Y93.237990 Z-0.300000 I-0.209687 J-0.208479
G03 X129.303159 Y92.912056 Z-0.300000 I0.438962 J-1.459221
G03 X128.659790 Y92.138600 Z-0.300000 I2.330884 J-2.593162
G02 X128.050245 Y91.301024 Z-0.300000 I-5.526814 J3.381552
G02 X127.599380 Y90.902730 Z-0.300000 I-1.658360 J1.422911
G03 X127.430648 Y90.663655 Z-0.300000 I0.223173 J-0.336589
G03 X127.513180 Y90.556240 Z-0.300000 I0.083973 J-0.020894
G02 X127.624274 Y90.385001 Z-0.300000 I-0.002102 J-0.123020
G02 X126.772330 Y88.816750 Z-0.300000 I-8.659809 J3.688862
G02 X124.879056 Y86.596180 Z-0.300000 I-10.697009 J7.202953
G02 X124.390920 Y86.591970 Z-0.300000 I-0.246360 J0.263704
G02 X124.273534 Y87.390208 Z-0.300000 I0.424279 J0.470143
G02 X127.947430 Y92.463580 Z-0.300000 I32.649707 J-19.776454
G03 X129.289034 Y94.184781 Z-0.300000 I-17.703525 J15.182618
G03 X129.391130 Y94.506110 Z-0.300000 I-0.454615 J0.321329
G02 X129.491135 Y94.823730 Z-0.300000 I0.554390 J-0.000000
G02 X130.219810 Y95.691600 Z-0.300000 I5.261909 J-3.678131
G03 X130.719289 Y96.616533 Z-0.300000 I-1.290649 J1.294302
G03 X130.718190 Y98.106950 Z-0.300000 I-3.598751 J0.742555
G03 X129.564534 Y100.029474 Z-0.300000 I-3.333593 J-0.692999
G03 X127.956710 Y100.408530 Z-0.300000 I-1.183312 J-1.419757
G03 X127.262202 Y99.802131 Z-0.300000 I0.226673 J-0.960518
G03 X126.831530 Y97.481560 Z-0.300000 I6.036579 J-2.320571
G02 X126.555849 Y94.958088 Z-0.300000 I-11.687244 J-0.000000
G02 X126.126180 Y94.291850 Z-0.300000 I-1.112994 J0.246120
G02 X125.406120 Y94.506928 Z-0.300000 I-0.280347 J0.374309
G02 X124.790850 Y97.979350 Z-0.300000 I9.682809 J3.506394
G03 X124.115089 Y99.831061 Z-0.300000 I-2.899935 J-0.009138
G03 X123.022240 Y100.093570 Z-0.300000 I-0.723316 J-0.605160
G03 X120.106658 Y97.815060 Z-0.300000 I2.812139 J-6.603057
G03 X119.152760 Y94.968580 Z-0.300000 I3.770069 J-2.846480
G02 X118.971564 Y94.472875 Z-0.300000 I-0.768658 J0.000000
G02 X118.408020 Y94.085960 Z-0.300000 I-0.985574 J0.831635
G03 X116.420319 Y92.497054 Z-0.300000 I1.245098 J-3.595349
G03 X115.569340 Y89.512230 Z-0.300000 I4.809174 J-2.984824
G03 X116.613808 Y87.670579 Z-0.300000 I2.145874 J0.000000
G03 X119.408720 Y87.216060 Z-0.300000 I1.970136 J3.294247
G02 X119.467269 Y87.127811 Z-0.300000 I0.012210 J-0.055446
G02 X119.051190 Y86.711030 Z-0.300000 I-1.432607 J1.014114
G03 X118.648453 Y85.991118 Z-0.300000 I0.557189 J-0.784313
G03 X118.923220 Y84.803610 Z-0.300000 I2.095823 J-0.140607
G02 X119.309609 Y83.527483 Z-0.300000 I-2.559895 J-1.471651
G02 X119.024800 Y83.272990 Z-0.300000 I-0.241770 J-0.016045
G03 X118.453652 Y82.714569 Z-0.300000 I-0.087042 J-0.482267
G03 X119.569860 Y79.808140 Z-0.300000 I7.354500 J1.156927
G03 X120.749107 Y78.955479 Z-0.300000 I1.697205 J1.105475
G03 X121.720320 Y79.239310 Z-0.300000 I0.250415 J0.946693
G03 X122.079068 Y80.034629 Z-0.300000 I-1.021344 J0.939273
G03 X122.069690 Y82.588660 Z-0.300000 I-11.826639 J1.233606
G02 X122.183602 Y84.266239 Z-0.300000 I4.690673 J0.524148
G02 X122.510970 Y84.339640 Z-0.300000 I0.182209 J-0.045920
G02 X123.073525 Y83.380321 Z-0.300000 I-2.735826 J-2.248922
G02 X123.248120 Y82.454290 Z-0.300000 I-2.368483 J-0.926031
G03 X125.379538 Y79.938577 Z-0.300000 I2.550357 J0.000000
G03 X128.391420 Y81.597790 Z-0.300000 I0.455648 J2.736148
G02 X128.914753 Y82.517374 Z-0.300000 I4.118483 J-1.735115
G02 X129.359570 Y82.908890 Z-0.300000 I1.127519 J-0.832572
G02 X129.605223 Y82.772271 Z-0.300000 I0.080523 J-0.144374
G02 X129.429070 Y81.429070 Z-0.300000 I-3.835678 J-0.180124
G03 X129.486030 Y80.129115 Z-0.300000 I1.800876 J-0.572317
G03 X130.452900 Y78.975270 Z-0.300000 I2.334186 J0.973924
G02 X131.727833 Y77.882878 Z-0.300000 I-3.316001 J-5.160298
G02 X131.994220 Y77.235790 Z-0.300000 I-0.797582 J-0.706716
G03 X132.514617 Y77.167259 Z-0.300000 I0.266678 J0.014942
G03 X133.593780 Y82.097720 Z-0.300000 I-23.458617 J7.717879
G02 X133.788936 Y82.398110 Z-0.300000 I0.398405 J-0.045245
G02 X134.110840 Y82.401780 Z-0.300000 I0.164156 J-0.279155
G03 X134.533025 Y82.384115 Z-0.300000 I0.228614 J0.409926
G03 X135.433290 Y83.000460 Z-0.300000 I-1.290437 J2.850537
G02 X136.337990 Y83.807895 Z-0.300000 I9.054292 J-9.234427
G02 X137.325820 Y84.536350 Z-0.300000 I8.347508 J-10.285734
G01 X138.349650 Y85.220480 Z-0.300000
G01 X137.325820 Y84.087870 Z-0.300000
G02 X136.290199 Y82.966574 Z-0.300000 I-52.944766 J47.860477
G02 X135.698320 Y82.363100 Z-0.300000 I-15.921539 J15.023658
G03 X134.114317 Y79.929775 Z-0.300000 I4.700909 J-4.792339
G03 X133.486430 Y76.470170 Z-0.300000 I9.217118 J-3.459605
G03 X133.721331 Y76.375439 Z-0.300000 I0.136552 J0.000000
G03 X136.145390 Y79.230670 Z-0.300000 I-21.505747 J20.714749
G01 X136.145360 Y79.230630 Z-0.300000
G00 Z5.000000

(Change tool to Cylindrical cutter)

G00 Z5.000000
G00 X120.542200 Y88.569230

G01 Z-0.300000 F100.0(Penetrate)
G03 X119.859286 Y88.881939 Z-0.300000 I-0.838548 J-0.929227 F400.000000
G03 X119.620620 Y88.684720 Z-0.300000 I-0.026444 J-0.211020
G02 X119.494652 Y88.648504 Z-0.300000 I-0.069489 J0.004520
G02 X119.125630 Y89.370970 Z-0.300000 I2.163958 J1.560788
G02 X118.759601 Y90.711204 Z-0.300000 I12.447717 J4.119676
G02 X118.804600 Y90.850960 Z-0.300000 I0.143112 J0.031043
G02 X118.927906 Y90.849108 Z-0.300000 I0.060659 J-0.067138
G02 X120.345250 Y89.372750 Z-0.300000 I-17.283454 J-18.011109
G02 X121.447437 Y88.046005 Z-0.300000 I-20.986706 J-18.555795
G02 X121.543233 Y87.848398 Z-0.300000 I-0.413345 J-0.322404
G01 X121.488131 Y87.810947 Z-0.300000
G02 X120.542200 Y88.569230 Z-0.300000 I6.007247 J8.462975
G01 X120.542200 Y88.569230 Z-0.300000
G00 Z5.000000

(Change tool to Cylindrical cutter)

G00 Z5.000000
G00 X172.776110 Y77.407210

G01 Z-0.300000 F100.0(Penetrate)
G03 X173.260374 Y78.260839 Z-0.300000 I-0.185699 J0.669523 F400.000000
G03 X172.264190 Y79.270080 Z-0.300000 I-1.398737 J-0.384372
G03 X171.098907 Y79.536803 Z-0.300000 I-2.953718 J-10.225588
G03 X168.296830 Y79.946320 Z-0.300000 I-10.035628 J-58.876579
G02 X166.561313 Y80.184320 Z-0.300000 I7.132028 J58.454043
G01 X166.560013 Y80.231261 Z-0.300000
G02 X166.847250 Y80.261204 Z-0.300000 I0.288906 J-1.378756
G02 X169.741650 Y80.249060 Z-0.300000 I0.318568 J-269.006430
G03 X173.868323 Y80.464877 Z-0.300000 I0.319969 J33.443170
G03 X174.395100 Y80.782210 Z-0.300000 I-0.084301 J0.735836
G02 X174.847590 Y80.918446 Z-0.300000 I0.310844 J-0.212867
G02 X176.465460 Y79.942180 Z-0.300000 I-2.264881 J-5.582065
G03 X178.235687 Y78.721935 Z-0.300000 I7.161786 J8.495533
G03 X179.490800 Y78.263340 Z-0.300000 I2.082549 J3.752827
G02 X180.834830 Y77.981686 Z-0.300000 I-10.526645 J-53.579943
G02 X181.478710 Y77.820590 Z-0.300000 I-2.773183 J-12.451347
G03 X181.752731 Y78.050683 Z-0.300000 I0.058108 J0.209013
G03 X181.290170 Y79.751680 Z-0.300000 I-5.240312 J-0.511635
G02 X180.596479 Y81.581541 Z-0.300000 I12.454421 J5.767825
G02 X180.131740 Y83.619440 Z-0.300000 I15.000612 J4.492802
G01 X179.801750 Y85.698340 Z-0.300000
G01 X175.457060 Y85.728540 Z-0.300000
G03 X168.154955 Y84.751563 Z-0.300000 I-0.182475 J-26.413282
G03 X166.530540 Y83.229850 Z-0.300000 I0.649798 J-2.321535
G02 X166.138301 Y82.459021 Z-0.300000 I-3.087118 J1.085681
G02 X165.343360 Y81.506560 Z-0.300000 I-5.544837 J3.819852
G03 X162.993827 Y78.705082 Z-0.300000 I14.372962 J-14.440254
G03 X162.665720 Y77.659300 Z-0.300000 I1.502571 J-1.045782
G03 X162.857271 Y77.382667 Z-0.300000 I0.295528 J0.000000
G03 X164.329460 Y77.033970 Z-0.300000 I2.101968 J5.592332
G03 X169.434552 Y76.877046 Z-0.300000 I3.598268 J33.941210
G03 X172.776110 Y77.407290 Z-0.300000 I-0.661120 J14.960568
G01 X172.776110 Y77.407210 Z-0.300000
G00 Z5.000000

(Change tool to Cylindrical cutter)

G00 Z5.000000
G00 X116.402530 Y78.589140

G01 Z-0.300000 F100.0(Penetrate)
G03 X115.337630 Y81.034974 Z-0.300000 I-6.805117 J-1.508161 F400.000000
G03 X112.433113 Y84.682202 Z-0.300000 I-27.712010 J-19.088678
G03 X109.106273 Y87.699218 Z-0.300000 I-17.952597 J-16.453439
G03 X108.094890 Y87.653720 Z-0.300000 I-0.478084 J-0.636446
G03 X108.066295 Y87.342208 Z-0.300000 I0.154550 J-0.171255
G03 X111.016820 Y83.675942 Z-0.300000 I77.545825 J59.386678
G03 X114.157895 Y80.129133 Z-0.300000 I78.442683 J66.305010
G03 X114.628900 Y79.923600 Z-0.300000 I0.471005 J0.436917
G02 X114.986437 Y79.742497 Z-0.300000 I0.000000 J-0.443479
G02 X115.645980 Y78.537650 Z-0.300000 I-4.199594 J-3.081837
G03 X116.270077 Y77.283994 Z-0.300000 I7.012632 J2.708871
G03 X116.438810 Y77.197461 Z-0.300000 I0.156261 J0.096922
G03 X116.543790 Y77.310034 Z-0.300000 I-0.007638 J0.112359
G03 X116.402530 Y78.589050 Z-0.300000 I-5.963276 J-0.011300
G01 X116.402530 Y78.589140 Z-0.300000
G00 Z5.000000

(Change tool to Cylindrical cutter)

G00 Z5.000000
G00 X125.295720 Y77.355430

G01 Z-0.300000 F100.0(Penetrate)
G03 X125.226098 Y77.518271 Z-0.300000 I-0.225248 J0.000000 F400.000000
G03 X124.783800 Y77.844680 Z-0.300000 I-1.499530 J-1.569056
G03 X124.425893 Y77.867990 Z-0.300000 I-0.203472 J-0.364809
G03 X124.271880 Y77.640950 Z-0.300000 I0.090340 J-0.227040
G03 X124.418403 Y77.298238 Z-0.300000 I0.474056 J0.000000
G03 X124.783800 Y77.151710 Z-0.300000 I0.365397 J0.382330
G03 X125.213399 Y77.234062 Z-0.300000 I-0.000000 J1.161698
G03 X125.295720 Y77.355430 Z-0.300000 I-0.048307 J0.121368
G01 X125.295720 Y77.355430 Z-0.300000
G00 Z5.000000

(Change tool to Cylindrical cutter)

G00 Z5.000000
G00 X127.957690 Y79.092030

G01 Z-0.300000 F100.0(Penetrate)
G03 X127.360463 Y79.393419 Z-0.300000 I-0.849942 J-0.941806 F400.000000
G03 X126.982810 Y79.290190 Z-0.300000 I-0.086552 J-0.425777
G03 X126.922633 Y78.985311 Z-0.300000 I0.173907 J-0.192704
G03 X127.343390 Y78.537650 Z-0.300000 I0.915074 J0.438514
G03 X127.957692 Y78.607176 Z-0.300000 I0.258608 J0.463668
G03 X127.957690 Y79.092030 Z-0.300000 I-0.218778 J0.242426
G01 X127.957690 Y79.092030 Z-0.300000
G00 Z5.000000

(Change tool to Cylindrical cutter)

G00 Z5.000000
G00 X151.403530 Y78.754450

G01 Z-0.300000 F100.0(Penetrate)
G03 X151.254095 Y79.023315 Z-0.300000 I-0.316591 J-0.000000 F400.000000
G03 X148.507478 Y80.636954 Z-0.300000 I-33.572642 J-54.000541
G03 X145.687581 Y82.107799 Z-0.300000 I-30.412590 J-54.868289
G03 X145.421090 Y82.070410 Z-0.300000 I-0.105614 J-0.215644
G03 X145.434502 Y81.884267 Z-0.300000 I0.079268 J-0.087843
G03 X148.164570 Y80.232390 Z-0.300000 I19.252951 J28.737535
G03 X151.281758 Y78.676165 Z-0.300000 I23.809399 J43.791235
G03 X151.403530 Y78.754450 Z-0.300000 I0.035722 J0.078285
G01 X151.403530 Y78.754450 Z-0.300000
G00 Z5.000000

(Change tool to Cylindrical cutter)

G00 Z5.000000
G00 X63.639861 Y80.438400

G01 Z-0.300000 F100.0(Penetrate)
G02 X64.579418 Y81.788173 Z-0.300000 I8.140654 J-4.664696 F400.000000
G02 X66.533755 Y83.903260 Z-0.300000 I22.081423 J-18.442753
G03 X67.982454 Y85.676051 Z-0.300000 I-7.238886 J7.393838
G03 X67.844659 Y85.929330 Z-0.300000 I-0.137795 J0.089156
G03 X67.279371 Y85.721904 Z-0.300000 I0.000000 J-0.873989
G03 X64.062420 Y82.842305 Z-0.300000 I52.202663 J-61.555040
G03 X61.002855 Y79.792662 Z-0.300000 I55.132649 J-58.371618
G03 X60.794037 Y79.269940 Z-0.300000 I0.549843 J-0.522722
G03 X60.911430 Y79.117024 Z-0.300000 I0.158290 J0.000000
G03 X61.804728 Y78.999630 Z-0.300000 I0.893298 J3.340030
G03 X62.646907 Y79.290414 Z-0.300000 I-0.000000 J1.364967
G03 X63.639861 Y80.438400 Z-0.300000 I-2.444226 J3.117562
G01 X63.639861 Y80.438400 Z-0.300000
G00 Z5.000000

(Change tool to Cylindrical cutter)

G00 Z5.000000
G00 X184.007970 Y79.825510

G01 Z-0.300000 F100.0(Penetrate)
G03 X184.174774 Y80.275675 Z-0.300000 I-0.186536 J0.325106 F400.000000
G03 X183.111170 Y82.359320 Z-0.300000 I-8.390623 J-2.969742
G03 X181.506332 Y84.485443 Z-0.300000 I-25.626103 J-17.674320
G03 X181.307939 Y84.498369 Z-0.300000 I-0.105271 J-0.086774
G03 X181.238017 Y84.252845 Z-0.300000 I0.168887 J-0.180815
G03 X182.110890 Y81.425030 Z-0.300000 I41.064893 J11.127045
G03 X183.157823 Y79.902055 Z-0.300000 I3.295927 J1.144375
G03 X184.007970 Y79.825510 Z-0.300000 I0.479750 J0.568993
G01 X184.007970 Y79.825510 Z-0.300000
G00 Z5.000000

(Change tool to Cylindrical cutter)

G00 Z5.000000
G00 X116.907950 Y83.834180

G01 Z-0.300000 F100.0(Penetrate)
G02 X116.150146 Y85.077339 Z-0.300000 I7.319399 J5.314305 F400.000000
G02 X116.127258 Y85.309161 Z-0.300000 I0.288779 J0.145553
G02 X116.245728 Y85.353480 Z-0.300000 I0.075324 J-0.020850
G02 X117.122070 Y84.607710 Z-0.300000 I-2.647485 J-3.998790
G03 X117.967410 Y83.930005 Z-0.300000 I2.671071 J2.465707
G03 X118.128860 Y84.022940 Z-0.300000 I0.053978 J0.092935
G03 X117.977559 Y84.462468 Z-0.300000 I-0.714063 J0.000000
G03 X116.721090 Y85.825400 Z-0.300000 I-8.948983 J-6.989323
G03 X115.724235 Y86.691559 Z-0.300000 I-15.454167 J-16.779360
G01 X115.697250 Y86.664260 Z-0.300000
G02 X115.765961 Y86.032104 Z-0.300000 I-0.438044 J-0.367424
G02 X115.313320 Y85.929330 Z-0.300000 I-0.270016 J0.141058
G03 X115.029286 Y85.727340 Z-0.300000 I-0.109690 J-0.146453
G03 X115.851280 Y84.240520 Z-0.300000 I4.142568 J1.319605
G03 X117.092575 Y82.932133 Z-0.300000 I12.005284 J10.146657
G03 X117.404126 Y82.736498 Z-0.300000 I0.654717 J0.696750
G03 X117.480001 Y82.814480 Z-0.300000 I0.021241 J0.055237
G03 X116.907950 Y83.834180 Z-0.300000 I-4.633417 J-1.929035
G01 X116.907950 Y83.834180 Z-0.300000
G00 Z5.000000

(Change tool to Cylindrical cutter)

G00 Z5.000000
G00 X169.411760 Y86.086120

G01 Z-0.300000 F100.0(Penetrate)
G03 X169.932323 Y86.738637 Z-0.300000 I-0.809393 J1.179621 F400.000000
G03 X169.874590 Y87.253930 Z-0.300000 I-0.513169 J0.203385
G03 X169.471961 Y87.361391 Z-0.300000 I-0.263890 J-0.180724
G03 X168.619870 Y86.649870 Z-0.300000 I0.984499 J-2.044975
G03 X168.711051 Y86.092183 Z-0.300000 I0.321847 J-0.233676
G03 X169.411760 Y86.086120 Z-0.300000 I0.354691 J0.498228
G01 X169.411760 Y86.086120 Z-0.300000
G00 Z5.000000

(Change tool to Cylindrical cutter)

G00 Z5.000000
G00 X114.163270 Y86.789150

G01 Z-0.300000 F100.0(Penetrate)
G03 X113.644039 Y88.256189 Z-0.300000 I-1.282308 J0.371557 F400.000000
G03 X110.755050 Y89.163200 Z-0.300000 I-2.888989 J-4.147466
G03 X110.459457 Y88.708890 Z-0.300000 I0.000000 J-0.323318
G03 X111.601910 Y87.252200 Z-0.300000 I3.448388 J1.528157
G03 X113.528589 Y86.395690 Z-0.300000 I2.717428 J3.517484
G03 X114.163270 Y86.789150 Z-0.300000 I0.099184 J0.548632
G01 X114.163270 Y86.789150 Z-0.300000
G00 Z5.000000

(Change tool to Cylindrical cutter)

G00 Z5.000000
G00 X177.968240 Y86.674700

G01 Z-0.300000 F100.0(Penetrate)
G03 X178.006548 Y86.844472 Z-0.300000 I-0.084091 J0.108182 F400.000000
G03 X177.551840 Y87.502240 Z-0.300000 I-2.584015 J-1.300248
G03 X176.863891 Y87.759611 Z-0.300000 I-0.597792 J-0.549766
G03 X175.175260 Y87.236780 Z-0.300000 I0.522195 J-4.674951
G03 X173.475261 Y86.264463 Z-0.300000 I15.212502 J-28.569835
G03 X173.416010 Y86.158660 Z-0.300000 I0.064839 J-0.105803
G03 X174.445550 Y85.239247 Z-0.300000 I0.925303 J0.000000
G03 X177.968240 Y86.674700 Z-0.300000 I-0.791696 J6.983049
G01 X177.968240 Y86.674700 Z-0.300000
G00 Z5.000000

(Change tool to Cylindrical cutter)

G00 Z5.000000
G00 X140.102710 Y89.627650

G01 Z-0.300000 F100.0(Penetrate)
G03 X141.028918 Y92.563941 Z-0.300000 I-54.823921 J18.907587 F400.000000
G03 X140.986430 Y92.712360 Z-0.300000 I-0.140186 J0.040160
G03 X140.854744 Y92.710771 Z-0.300000 I-0.064985 J-0.071940
G03 X138.915240 Y90.748560 Z-0.300000 I29.253621 J-30.854725
G03 X137.658256 Y88.620426 Z-0.300000 I4.276739 J-3.961345
G03 X137.834410 Y87.485970 Z-0.300000 I1.193911 J-0.395519
G03 X138.706264 Y86.491280 Z-0.300000 I5.845818 J4.244472
G03 X138.884500 Y86.489030 Z-0.300000 I0.090333 J0.095150
G03 X139.030430 Y86.700724 Z-0.300000 I-0.372445 J0.412888
G03 X140.102710 Y89.627650 Z-0.300000 I-76.225388 J29.585059
G01 X140.102710 Y89.627650 Z-0.300000
G00 Z5.000000

(Change tool to Cylindrical cutter)

G00 Z5.000000
G00 X172.202910 Y87.892750

G01 Z-0.300000 F100.0(Penetrate)
G02 X171.959751 Y88.942018 Z-0.300000 I8.474452 J2.516691 F400.000000
G02 X171.887240 Y89.767930 Z-0.300000 I5.167281 J0.869802
G03 X171.685664 Y90.269207 Z-0.300000 I-0.740089 J-0.006440
G03 X171.368330 Y90.318150 Z-0.300000 I-0.190081 J-0.179211
G03 X170.626189 Y89.015455 Z-0.300000 I0.705325 J-1.264567
G03 X171.423130 Y88.239230 Z-0.300000 I0.796941 J0.020993
G02 X171.702190 Y88.048985 Z-0.300000 I0.000000 J-0.299792
G02 X171.695160 Y87.546260 Z-0.300000 I-0.618419 J-0.242764
G03 X171.684573 Y87.041145 Z-0.300000 I0.624990 J-0.265768
G03 X171.956050 Y86.853290 Z-0.300000 I0.271477 J0.102233
G03 X172.225860 Y87.066523 Z-0.300000 I0.000000 J0.277316
G03 X172.202940 Y87.892750 Z-0.300000 I-1.558641 J0.370195
G01 X172.202910 Y87.892750 Z-0.300000
G00 Z5.000000

(Change tool to Cylindrical cutter)

G00 Z5.000000
G00 X76.759646 Y88.354720

G01 Z-0.300000 F100.0(Penetrate)
G03 X76.831166 Y89.387103 Z-0.300000 I-3.757375 J0.778966 F400.000000
G03 X76.614394 Y90.549130 Z-0.300000 I-4.995244 J-0.330612
G03 X76.336213 Y91.004178 Z-0.300000 I-1.045450 J-0.326554
G03 X76.202607 Y90.953370 Z-0.300000 I-0.055113 J-0.056143
G02 X76.114502 Y90.207997 Z-0.300000 I-7.517674 J0.510719
G02 X75.831630 Y88.758960 Z-0.300000 I-28.765476 J4.863280
G03 X75.780669 Y87.531181 Z-0.300000 I3.414248 J-0.756660
G03 X76.027910 Y87.315280 Z-0.300000 I0.247241 J0.033614
G03 X76.390841 Y87.503630 Z-0.300000 I-0.000000 J0.443839
G03 X76.759646 Y88.354720 Z-0.300000 I-1.867706 J1.314792
G01 X76.759646 Y88.354720 Z-0.300000
G00 Z5.000000

(Change tool to Cylindrical cutter)

G00 Z5.000000
G00 X139.685940 Y93.179170

G01 Z-0.300000 F100.0(Penetrate)
G03 X141.107628 Y95.716226 Z-0.300000 I-22.639802 J14.353512 F400.000000
G03 X141.407640 Y96.685020 Z-0.300000 I-2.926110 J1.436995
G02 X142.172163 Y98.847591 Z-0.300000 I5.837337 J-0.847220
G02 X142.700920 Y98.864780 Z-0.300000 I0.269863 J-0.160115
G03 X143.028583 Y98.745050 Z-0.300000 I0.247691 J0.169630
G03 X143.379490 Y99.052320 Z-0.300000 I-0.142960 J0.517268
G03 X143.278796 Y99.569592 Z-0.300000 I-0.433060 J0.184136
G03 X142.345980 Y100.083430 Z-0.300000 I-1.357356 J-1.360499
G03 X141.144326 Y99.894987 Z-0.300000 I-0.363751 J-1.606003
G03 X138.250600 Y97.662740 Z-0.300000 I7.565095 J-12.798581
G03 X135.570499 Y94.873944 Z-0.300000 I54.474101 J-55.033153
G03 X134.135280 Y93.160690 Z-0.300000 I19.086045 J-17.446454
G01 X132.772700 Y91.383440 Z-0.300000
G01 X134.017840 Y90.535850 Z-0.300000
G01 X135.263000 Y89.688240 Z-0.300000
G01 X136.689980 Y91.918770 Z-0.300000
G02 X138.478790 Y94.368718 Z-0.300000 I20.777665 J-13.292626
G02 X138.920660 Y94.720545 Z-0.300000 I1.062087 J-0.880516
G02 X139.042004 Y94.613252 Z-0.300000 I0.039213 J-0.077915
G02 X138.093470 Y92.625120 Z-0.300000 I-10.220423 J3.655804
G02 X136.389731 Y89.867879 Z-0.300000 I-207.158245 J126.101113
G02 X135.715060 Y88.832960 Z-0.300000 I-29.829364 J18.708583
G03 X135.092771 Y87.788111 Z-0.300000 I8.672941 J-5.873145
G03 X135.022160 Y87.498990 Z-0.300000 I0.556604 J-0.289121
G03 X135.462904 Y87.341232 Z-0.300000 I0.248606 J0.000000
G03 X139.685940 Y93.179170 Z-0.300000 I-45.518883 J37.373753
G01 X139.685940 Y93.179170 Z-0.300000
G00 Z5.000000

(Change tool to Cylindrical cutter)

G00 Z5.000000
G00 X114.464170 Y89.047700

G01 Z-0.300000 F100.0(Penetrate)
G02 X114.662338 Y90.756908 Z-0.300000 I2.471030 J0.579598 F400.000000
G02 X118.126250 Y96.416090 Z-0.300000 I33.797638 J-16.797400
G01 X119.220550 Y97.894220 Z-0.300000
G01 X116.644060 Y99.072470 Z-0.300000
G03 X112.532539 Y100.226908 Z-0.300000 I-5.745594 J-12.564096
G03 X110.467440 Y99.808190 Z-0.300000 I-0.397820 J-3.339819
G03 X110.389896 Y99.443298 Z-0.300000 I0.123864 J-0.217008
G03 X111.140660 Y98.891310 Z-0.300000 I1.256762 J0.922778
G03 X112.574603 Y98.463924 Z-0.300000 I5.943650 J17.322595
G03 X113.063410 Y98.402800 Z-0.300000 I0.488807 J1.923918
G02 X116.786489 Y97.572361 Z-0.300000 I0.000000 J-8.760991
G02 X117.616950 Y96.265070 Z-0.300000 I-0.613721 J-1.307291
G02 X117.502830 Y96.159378 Z-0.300000 I-0.106003 J0.000000
G02 X116.721090 Y96.333870 Z-0.300000 I0.215237 J2.802657
G03 X115.813310 Y96.636819 Z-0.300000 I-4.196346 J-11.062726
G03 X111.800270 Y97.757670 Z-0.300000 I-62.339234 J-215.451792
G03 X107.803654 Y98.539002 Z-0.300000 I-7.569366 J-28.106030
G03 X106.809060 Y98.374990 Z-0.300000 I-0.218924 J-1.770104
G03 X106.546314 Y97.596071 Z-0.300000 I0.250280 J-0.518199
G03 X107.598020 Y96.822530 Z-0.300000 I1.294011 J0.657616
G02 X109.271809 Y96.340326 Z-0.300000 I-1.291652 J-7.629545
G02 X110.541540 Y95.601260 Z-0.300000 I-2.109602 J-5.084588
G01 X111.729890 Y94.677130 Z-0.300000
G01 X109.682210 Y95.430880 Z-0.300000
G03 X105.326235 Y96.805373 Z-0.300000 I-16.772556 J-45.565122
G03 X104.228454 Y96.815309 Z-0.300000 I-0.568382 J-2.148711
G03 X103.859450 Y96.240728 Z-0.300000 I0.118120 J-0.481638
G03 X104.642630 Y94.194940 Z-0.300000 I6.107465 J1.165290
G03 X106.167124 Y92.221209 Z-0.300000 I9.306806 J5.612883
G03 X106.845650 Y91.935080 Z-0.300000 I0.678526 J0.661464
G02 X107.630186 Y91.790627 Z-0.300000 I-0.000000 J-2.202672
G02 X108.300040 Y91.380710 Z-0.300000 I-0.760355 J-1.994780
G03 X108.795106 Y91.094543 Z-0.300000 I0.918670 J1.017976
G03 X108.914340 Y91.181180 Z-0.300000 I0.028141 J0.086637
G02 X109.055951 Y91.276704 Z-0.300000 I0.103024 J0.000000
G02 X110.401140 Y90.580600 Z-0.300000 I-3.034068 J-7.511004
G03 X111.587906 Y90.216835 Z-0.300000 I1.241165 J1.931472
G03 X111.729890 Y90.549100 Z-0.300000 I0.004610 J0.194499
G02 X111.878334 Y90.908187 Z-0.300000 I0.148444 J0.148861
G02 X113.009680 Y90.549100 Z-0.300000 I0.000000 J-1.961762
G02 X113.717555 Y89.822395 Z-0.300000 I-1.600086 J-2.266746
G02 X113.619370 Y89.635410 Z-0.300000 I-0.100029 J-0.066746
G03 X113.271815 Y89.458412 Z-0.300000 I0.005989 J-0.441492
G03 X113.265640 Y89.163160 Z-0.300000 I0.203093 J-0.151938
G03 X114.122918 Y88.657188 Z-0.300000 I0.970045 J0.664328
G03 X114.464170 Y89.047660 Z-0.300000 I0.030604 J0.317608
G01 X114.464170 Y89.047700 Z-0.300000
G00 Z5.000000

(Change tool to Cylindrical cutter)

G00 Z5.000000
G00 X108.402420 Y90.549130

G01 Z-0.300000 F100.0(Penetrate)
G03 X106.633946 Y91.455764 Z-0.300000 I-4.078935 J-5.778238 F400.000000
G03 X106.354750 Y91.256860 Z-0.300000 I-0.068746 J-0.198904
G03 X106.929269 Y90.308994 Z-0.300000 I1.069175 J0.000000
G03 X109.426250 Y89.653940 Z-0.300000 I2.683298 J5.141775
G01 X109.453222 Y89.722817 Z-0.300000
G03 X108.402420 Y90.549130 Z-0.300000 I-8.509421 J-9.739927
G01 X108.402420 Y90.549130 Z-0.300000
G00 Z5.000000

(Change tool to Cylindrical cutter)

G00 Z5.000000
G00 X170.572870 Y95.630910

G01 Z-0.300000 F100.0(Penetrate)
G02 X169.933423 Y100.027821 Z-0.300000 I103.951992 J17.362798 F400.000000
G02 X169.828360 Y101.636660 Z-0.300000 I13.770902 J1.707138
G03 X169.217576 Y104.132616 Z-0.300000 I-5.566597 J-0.039487
G03 X168.482210 Y104.267850 Z-0.300000 I-0.419595 J-0.214669
G03 X168.320557 Y103.856672 Z-0.300000 I0.331995 J-0.367888
G03 X168.724160 Y101.509350 Z-0.300000 I14.342869 J1.257780
G02 X169.256221 Y99.077695 Z-0.300000 I-32.011978 J-8.278448
G02 X169.928770 Y94.804380 Z-0.300000 I-98.300534 J-17.660466
G03 X170.667511 Y90.949885 Z-0.300000 I35.425366 J4.791483
G03 X170.907570 Y90.877540 Z-0.300000 I0.141564 J0.035286
G03 X171.083635 Y91.318757 Z-0.300000 I-0.368699 J0.402864
G03 X170.572870 Y95.630910 Z-0.300000 I-45.507014 J-3.203875
G01 X170.572870 Y95.630910 Z-0.300000
G00 Z5.000000

(Change tool to Cylindrical cutter)

G00 Z5.000000
G00 X141.677080 Y94.244980

G01 Z-0.300000 F100.0(Penetrate)
G03 X142.044437 Y95.066082 Z-0.300000 I-3.382860 J2.006203 F400.000000
G03 X141.969070 Y95.168940 Z-0.300000 I-0.075367 J0.023817
G03 X141.765845 Y95.076377 Z-0.300000 I-0.000000 J-0.269376
G03 X141.165180 Y94.244980 Z-0.300000 I4.287668 J-3.730421
G03 X140.797824 Y93.423876 Z-0.300000 I3.383067 J-2.006287
G03 X140.873190 Y93.321020 Z-0.300000 I0.075366 J-0.023817
G03 X141.076441 Y93.413593 Z-0.300000 I-0.000000 J0.269412
G03 X141.677080 Y94.244980 Z-0.300000 I-4.286429 J3.729411
G01 X141.677080 Y94.244980 Z-0.300000
G00 Z5.000000

(Change tool to Cylindrical cutter)

G00 Z5.000000
G00 X77.690487 Y95.542690

G01 Z-0.300000 F100.0(Penetrate)
G02 X77.823806 Y96.288678 Z-0.300000 I2.199581 J-0.008191 F400.000000
G02 X78.458364 Y97.647140 Z-0.300000 I8.102738 J-2.957473
G03 X79.547984 Y101.242871 Z-0.300000 I-7.141150 J4.126954
G03 X78.745667 Y102.098640 Z-0.300000 I-0.802317 J0.051782
G03 X78.314058 Y101.793504 Z-0.300000 I0.000000 J-0.457819
G03 X77.203955 Y97.740480 Z-0.300000 I27.280304 J-9.650476
G03 X76.888194 Y94.646348 Z-0.300000 I16.435911 J-3.240491
G03 X77.175435 Y94.475960 Z-0.300000 I0.193156 J-0.001688
G03 X77.531364 Y94.853512 Z-0.300000 I-0.419392 J0.751921
G03 X77.690506 Y95.542690 Z-0.300000 I-1.440673 J0.695638
G01 X77.690487 Y95.542690 Z-0.300000
G00 Z5.000000

(Change tool to Cylindrical cutter)

G00 Z5.000000
G00 X135.022160 Y96.351150

G01 Z-0.300000 F100.0(Penetrate)
G03 X134.567210 Y96.990545 Z-0.300000 I-0.676784 J0.000000 F400.000000
G03 X133.283180 Y96.954480 Z-0.300000 I-0.594401 J-1.713249
G01 X132.007950 Y96.430120 Z-0.300000
G01 X133.128560 Y95.611230 Z-0.300000
G03 X134.403677 Y95.445452 Z-0.300000 I0.788641 J1.079196
G03 X135.022160 Y96.351150 Z-0.300000 I-0.353903 J0.905698
G01 X135.022160 Y96.351150 Z-0.300000
G00 Z5.000000

(Change tool to Cylindrical cutter)

G00 Z5.000000
G00 X143.713440 Y97.231330

G01 Z-0.300000 F100.0(Penetrate)
G03 X144.654236 Y98.886961 Z-0.300000 I-9.391408 J6.431686 F400.000000
G03 X144.887970 Y99.772220 Z-0.300000 I-2.388689 J1.104170
G02 X145.127306 Y100.537866 Z-0.300000 I1.832912 J-0.152725
G02 X145.429850 Y100.712700 Z-0.300000 I0.302544 J-0.174355
G03 X145.851286 Y100.833186 Z-0.300000 I0.000000 J0.797292
G03 X147.593770 Y102.060140 Z-0.300000 I-9.962163 J15.998762
G02 X149.331014 Y103.350176 Z-0.300000 I21.450258 J-27.071511
G02 X150.165090 Y103.847350 Z-0.300000 I3.968920 J-5.710172
G03 X150.535125 Y104.487001 Z-0.300000 I-0.304566 J0.603047
G03 X149.981260 Y107.235210 Z-0.300000 I-9.709092 J-0.526821
G03 X146.658843 Y115.497957 Z-0.300000 I-108.161184 J-38.691833
G03 X146.311020 Y115.429990 Z-0.300000 I-0.166022 J-0.074357
G02 X146.089408 Y114.814988 Z-0.300000 I-1.067794 J0.037344
G02 X145.522610 Y114.407160 Z-0.300000 I-0.965925 J0.744658
G02 X144.922229 Y114.334699 Z-0.300000 I-0.467496 J1.349995
G02 X144.815360 Y114.473260 Z-0.300000 I0.011124 J0.119073
G03 X144.550150 Y114.926048 Z-0.300000 I-0.404940 J0.066880
G03 X143.979460 Y114.775920 Z-0.300000 I-0.176708 J-0.488032
G02 X143.602885 Y114.537495 Z-0.300000 I-0.577210 J0.495063
G02 X143.504630 Y114.646040 Z-0.300000 I-0.021649 J0.079146
G03 X143.306208 Y114.996044 Z-0.300000 I-0.243244 J0.093348
G03 X141.630810 Y114.973290 Z-0.300000 I-0.777399 J-4.451456
G03 X139.484204 Y114.475556 Z-0.300000 I7.879477 J-38.860006
G03 X139.034150 Y114.294640 Z-0.300000 I0.485764 J-1.858655
G02 X138.742838 Y114.289391 Z-0.300000 I-0.150568 J0.269992
G02 X138.605580 Y114.513740 Z-0.300000 I0.114721 J0.224349
G02 X138.867285 Y114.883136 Z-0.300000 I0.391553 J0.000000
G02 X142.067000 Y115.730480 Z-0.300000 I6.941641 J-19.747814
G03 X146.564408 Y118.346242 Z-0.300000 I-1.367241 J7.524951
G03 X145.737930 Y120.115890 Z-0.300000 I-0.826478 J0.691829
G02 X145.479377 Y120.319795 Z-0.300000 I0.000000 J0.265876
G02 X145.516470 Y121.039850 Z-0.300000 I1.239637 J0.297124
G03 X145.459831 Y121.693510 Z-0.300000 I-0.751202 J0.264193
G03 X144.998370 Y121.963810 Z-0.300000 I-0.461461 J-0.258758
G02 X144.561051 Y122.283126 Z-0.300000 I0.000000 J0.459123
G02 X144.518370 Y123.465250 Z-0.300000 I2.086962 J0.667183
G02 X144.934443 Y124.948583 Z-0.300000 I20.675670 J-4.999477
G02 X145.294470 Y125.890650 Z-0.300000 I8.681690 J-2.778029
G02 X145.590469 Y125.827092 Z-0.300000 I0.141263 J-0.063152
G02 X145.289470 Y123.901190 Z-0.300000 I-6.419624 J0.016849
G03 X145.357733 Y122.915930 Z-0.300000 I1.278780 J-0.406395
G03 X145.871100 Y122.684890 Z-0.300000 I0.393320 J0.188084
G02 X146.449959 Y122.499961 Z-0.300000 I0.150786 J-0.526441
G02 X146.597970 Y121.773780 Z-0.300000 I-0.636693 J-0.507946
G03 X146.579765 Y120.725455 Z-0.300000 I2.010884 J-0.559242
G03 X146.948630 Y120.319010 Z-0.300000 I0.556040 J0.134025
G02 X147.349357 Y119.908438 Z-0.300000 I-0.209691 J-0.605508
G02 X147.430790 Y118.809150 Z-0.300000 I-2.253260 J-0.719576
G03 X147.899308 Y112.748510 Z-0.300000 I12.705255 J-2.066249
G03 X150.401120 Y109.709680 Z-0.300000 I5.130797 J1.674826
G02 X150.700858 Y109.340857 Z-0.300000 I-0.312369 J-0.560066
G02 X151.200940 Y107.149720 Z-0.300000 I-13.688622 J-4.276785
G03 X151.833127 Y105.287015 Z-0.300000 I5.398138 J0.793452
G03 X152.367590 Y105.056380 Z-0.300000 I0.417371 J0.232609
G02 X153.203526 Y105.223177 Z-0.300000 I2.064484 J-8.168450
G02 X155.835700 Y105.567540 Z-0.300000 I11.911723 J-80.816614
G03 X157.804910 Y106.303696 Z-0.300000 I-0.494478 J4.324613
G03 X158.081560 Y107.109460 Z-0.300000 I-0.404576 J0.589281
G03 X157.582076 Y108.303363 Z-0.300000 I-6.975583 J-2.216887
G03 X154.315040 Y114.260990 Z-0.300000 I-178.509229 J-94.016068
G02 X151.456710 Y120.185512 Z-0.300000 I41.483576 J23.665831
G02 X151.504560 Y121.285420 Z-0.300000 I1.242082 J0.496960
G03 X151.191338 Y122.916194 Z-0.300000 I-1.213090 J0.612470
G03 X148.745030 Y123.724000 Z-0.300000 I-2.165856 J-2.450914
G02 X147.061236 Y123.730495 Z-0.300000 I-0.805798 J9.362508
G02 X146.847900 Y123.854956 Z-0.300000 I0.027406 J0.292044
G02 X146.889806 Y124.003939 Z-0.300000 I0.082245 J0.057251
G02 X148.259050 Y124.422150 Z-0.300000 I2.450622 J-5.572862
G03 X149.493825 Y124.979467 Z-0.300000 I-0.495184 J2.743638
G03 X150.365020 Y126.088520 Z-0.300000 I-1.874889 J2.369485
G03 X150.308470 Y127.852784 Z-0.300000 I-1.798287 J0.825398
G03 X148.159800 Y130.179560 Z-0.300000 I-5.607210 J-3.022513
G01 X145.813410 Y131.696590 Z-0.300000
G01 X144.262230 Y129.255600 Z-0.300000
G02 X143.036663 Y127.941893 Z-0.300000 I-4.130245 J2.624612
G02 X142.706250 Y128.107990 Z-0.300000 I-0.123071 J0.166867
G02 X142.886816 Y129.353065 Z-0.300000 I4.299582 J0.012088
G02 X143.537100 Y130.879880 Z-0.300000 I7.125671 J-2.133000
G03 X143.330259 Y131.087519 Z-0.300000 I-0.132476 J0.074876
G03 X141.021830 Y129.470990 Z-0.300000 I6.875822 J-12.275281
G02 X137.623129 Y126.718732 Z-0.300000 I-46.742380 J54.246486
G02 X137.242640 Y126.597160 Z-0.300000 I-0.361603 J0.475523
G02 X137.182112 Y126.735632 Z-0.300000 I0.002483 J0.083550
G02 X138.368180 Y127.887920 Z-0.300000 I7.524333 J-6.558349
G03 X141.794610 Y131.215735 Z-0.300000 I-18.341354 J22.312763
G03 X142.189540 Y132.269400 Z-0.300000 I-1.208112 J1.053665
G03 X142.086579 Y132.339898 Z-0.300000 I-0.075615 J0.000000
G03 X138.734090 Y130.929060 Z-0.300000 I23.233058 J-59.895903
G02 X135.231853 Y129.573876 Z-0.300000 I-13.534484 J29.774454
G02 X133.855820 Y129.356920 Z-0.300000 I-1.380519 J4.283693
G03 X132.525710 Y129.066274 Z-0.300000 I0.003384 J-3.204360
G03 X129.891450 Y127.542510 Z-0.300000 I6.660812 J-14.554028
G01 X127.349920 Y125.729520 Z-0.300000
G01 X129.198680 Y125.178890 Z-0.300000
G03 X133.925452 Y124.388368 Z-0.300000 I5.540815 J18.603564
G03 X135.396170 Y124.918750 Z-0.300000 I0.086636 J2.064061
G02 X135.650122 Y124.938491 Z-0.300000 I0.139784 J-0.154897
G02 X136.558580 Y124.158840 Z-0.300000 I-2.521900 J-3.857644
G02 X136.980763 Y122.069093 Z-0.300000 I-1.564192 J-1.403527
G02 X135.176410 Y120.157920 Z-0.300000 I-3.019051 J1.042971
G02 X133.900473 Y120.072939 Z-0.300000 I-0.764655 J1.859620
G02 X131.904450 Y121.018190 Z-0.300000 I1.525079 J5.800464
G03 X129.481296 Y122.234375 Z-0.300000 I-4.925612 J-6.791832
G03 X129.205670 Y121.861540 Z-0.300000 I-0.073185 J-0.234195
G02 X129.446177 Y121.258761 Z-0.300000 I-1.222290 J-0.837060
G02 X129.489900 Y120.086810 Z-0.300000 I-4.776403 J-0.764989
G03 X129.665028 Y118.993895 Z-0.300000 I2.289908 J-0.193555
G03 X130.332860 Y118.104420 Z-0.300000 I2.136276 J0.908502
G03 X131.379176 Y117.769836 Z-0.300000 I0.947726 J1.160422
G03 X136.228260 Y118.493200 Z-0.300000 I-1.963806 J29.779045
G02 X140.632071 Y119.426667 Z-0.300000 I23.967931 J-102.218679
G02 X141.855489 Y119.581542 Z-0.300000 I1.868986 J-9.854259
G02 X141.900516 Y119.433762 Z-0.300000 I0.005108 J-0.079194
G02 X140.391850 Y118.761750 Z-0.300000 I-3.851886 J6.618000
G03 X137.853948 Y117.866012 Z-0.300000 I14.551180 J-45.271159
G03 X135.656600 Y116.938200 Z-0.300000 I13.423484 J-34.856920
G02 X133.800027 Y116.200690 Z-0.300000 I-7.835193 J17.018366
G02 X133.533064 Y116.181829 Z-0.300000 I-0.169770 J0.504198
G01 X133.514459 Y116.268267 Z-0.300000
G02 X134.894710 Y117.079770 Z-0.300000 I6.003275 J-8.631160
G03 X134.844250 Y117.385789 Z-0.300000 I-0.071201 J0.145429
G03 X133.248980 Y117.292320 Z-0.300000 I-0.550590 J-4.263147
G03 X132.052904 Y116.641637 Z-0.300000 I0.661674 J-2.640924
G03 X132.089200 Y116.209750 Z-0.300000 I0.188226 J-0.201650
G02 X132.711109 Y115.616982 Z-0.300000 I-1.335075 J-2.023335
G02 X132.687810 Y115.390890 Z-0.300000 I-0.136977 J-0.100131
G03 X132.500341 Y113.288899 Z-0.300000 I1.039679 J-1.152081
G03 X142.169820 Y103.141490 Z-0.300000 I54.136273 J41.905792
G02 X144.692390 Y100.833177 Z-0.300000 I-32.549753 J-38.103524
G02 X144.645230 Y100.716100 Z-0.300000 I-0.047798 J-0.048783
G02 X142.704030 Y101.143326 Z-0.300000 I-0.040704 J4.438806
G02 X140.764400 Y102.555010 Z-0.300000 I2.766405 J5.839345
G02 X136.884027 Y107.204045 Z-0.300000 I37.149524 J34.951216
G02 X132.674870 Y113.508450 Z-0.300000 I64.291216 J47.481574
G03 X131.227053 Y115.626423 Z-0.300000 I-18.842761 J-11.326812
G03 X130.368340 Y116.492680 Z-0.300000 I-3.932385 J-3.039393
G02 X129.629939 Y117.408940 Z-0.300000 I1.625787 J2.065863
G02 X128.795850 Y119.726540 Z-0.300000 I10.358137 J5.036715
G03 X127.943718 Y122.403774 Z-0.300000 I-19.565280 J-4.753173
G03 X127.690699 Y122.644369 Z-0.300000 I-0.387033 J-0.153679
G03 X127.513421 Y122.526221 Z-0.300000 I-0.043236 J-0.127201
G03 X127.574430 Y120.141700 Z-0.300000 I12.811501 J-0.865251
G03 X128.230810 Y117.276862 Z-0.300000 I13.710449 J1.633672
G03 X129.300270 Y115.133530 Z-0.300000 I8.670902 J2.988044
G02 X130.665025 Y113.098195 Z-0.300000 I-325.029727 J-219.417615
G02 X131.625080 Y111.642880 Z-0.300000 I-165.195842 J-110.022230
G03 X132.649036 Y110.258093 Z-0.300000 I12.452698 J8.136952
G03 X133.076590 Y109.900680 Z-0.300000 I1.196436 J0.996798
G02 X133.435472 Y109.561385 Z-0.300000 I-0.511039 J-0.899988
G02 X133.477050 Y109.279310 Z-0.300000 I-0.289866 J-0.186828
G03 X133.627130 Y108.664638 Z-0.300000 I0.612726 J-0.176053
G03 X137.308161 Y105.054831 Z-0.300000 I51.374456 J48.706377
G03 X141.169357 Y101.752474 Z-0.300000 I54.061002 J59.300948
G03 X142.740350 Y100.834530 Z-0.300000 I3.883531 J4.843084
G01 X144.770130 Y100.019760 Z-0.300000
G01 X143.467340 Y97.825350 Z-0.300000
G03 X142.427377 Y95.875967 Z-0.300000 I20.800030 J-12.348559
G03 X142.422796 Y95.695816 Z-0.300000 I0.199975 J-0.095219
G03 X142.517797 Y95.680487 Z-0.300000 I0.052237 J0.021689
G03 X143.713970 Y97.231360 Z-0.300000 I-13.109655 J11.348086
G01 X143.713440 Y97.231330 Z-0.300000
G00 Z5.000000

(Change tool to Cylindrical cutter)

G00 Z5.000000
G00 X151.420200 Y108.450860

G01 Z-0.300000 F100.0(Penetrate)
G02 X151.585853 Y108.718487 Z-0.300000 I0.324234 J-0.015610 F400.000000
G02 X153.296299 Y109.578684 Z-0.300000 I10.528602 J-18.804801
G02 X155.074773 Y110.282461 Z-0.300000 I8.751462 J-19.516265
G02 X155.370420 Y110.222210 Z-0.300000 I0.096774 J-0.280622
G02 X155.248654 Y109.053534 Z-0.300000 I-0.487246 J-0.539915
G02 X151.727040 Y108.104380 Z-0.300000 I-3.521614 J6.058490
G02 X151.507315 Y108.203295 Z-0.300000 I-0.000000 J0.293501
G02 X151.420200 Y108.450860 Z-0.300000 I0.260652 J0.230830
G01 X151.420200 Y108.450860 Z-0.300000
G00 Z5.000000

(Change tool to Cylindrical cutter)

G00 Z5.000000
G00 X137.069830 Y115.727050

G01 Z-0.300000 F100.0(Penetrate)
G02 X138.907421 Y116.279694 Z-0.300000 I7.442189 J-21.414561 F400.000000
G02 X139.327603 Y116.329669 Z-0.300000 I0.399123 J-1.564363
G01 X139.352378 Y116.246113 Z-0.300000
G02 X138.349620 Y115.710350 Z-0.300000 I-3.202681 J4.787994
G02 X136.793836 Y115.181890 Z-0.300000 I-4.874000 J11.794706
G02 X136.046000 Y115.090040 Z-0.300000 I-0.697890 J2.591819
G02 X136.009944 Y115.220946 Z-0.300000 I0.001341 J0.070788
G02 X137.069830 Y115.727030 Z-0.300000 I2.800202 J-4.501536
G01 X137.069830 Y115.727050 Z-0.300000
G00 Z5.000000

(Change tool to Cylindrical cutter)

G00 Z5.000000
G00 X137.827430 Y98.250230

G01 Z-0.300000 F100.0(Penetrate)
G01 X139.825670 Y100.407570 Z-0.300000 F400.000000
G01 X138.222530 Y99.552960 Z-0.300000
G03 X136.738811 Y98.635562 Z-0.300000 I6.415688 J-12.034688
G03 X136.649280 Y98.435070 Z-0.300000 I0.125141 J-0.176119
G02 X136.447641 Y97.846725 Z-0.300000 I-0.720491 J-0.081798
G02 X136.102150 Y97.874640 Z-0.300000 I-0.161161 J0.157339
G03 X135.858623 Y97.879396 Z-0.300000 I-0.123504 J-0.086714
G03 X135.662050 Y97.297160 Z-0.300000 I0.763986 J-0.582236
G03 X135.702469 Y96.133182 Z-0.300000 I16.780075 J0.000000
G01 X135.745650 Y96.092900 Z-0.300000
G03 X135.816197 Y96.122861 Z-0.300000 I0.000000 J0.098036
